; generated by Slic3r 1.0.0RC1 on 2014-01-04 at 23:50:32

; layer_height = 0.2
; perimeters = 3
; top_solid_layers = 10
; bottom_solid_layers = 4
; fill_density = 0.2
; perimeter_speed = 50
; infill_speed = 50
; travel_speed = 150
; nozzle_diameter = 0.4
; filament_diameter = 1.74
; extrusion_multiplier = 1
; perimeters extrusion width = 0.40mm
; infill extrusion width = 0.67mm
; solid infill extrusion width = 0.67mm
; top infill extrusion width = 0.67mm
; first layer extrusion width = 0.20mm

G21 ; set units to millimeters
M107
G28 X0 Y0; home X and Y
M104 S205 ; set hotend temp, no wait.
M116 ; waiting for both temperatures
G28 Z0; home Z
M92 X80; calibrate X
M92 Y80; calibrate Y
M92 Z2387.0719; calibrate Z
M92 E65.35; calibrate E for direct drive
G90 ; use absolute coordinates
G92 E0
M82 ; use absolute distances for extrusion
G1 F1200.000 E-3.00000
G92 E0
G1 Z0.200 F9000.000
G1 X40.321 Y38.896 F9000.000
G1 E3.00000 F1200.000
G1 X46.151 Y33.526 E3.16195 F1800.000
G1 X47.511 Y32.556 E3.19608
G1 X49.061 Y31.956 E3.23004
G1 X50.711 Y31.746 E3.26402
G1 X90.621 Y31.746 E4.07945
G1 X92.161 Y31.926 E4.11113
G1 X93.611 Y32.446 E4.14261
G1 X94.911 Y33.296 E4.17434
G1 X95.981 Y34.406 E4.20584
G1 X100.121 Y39.866 E4.34584
G1 X100.871 Y41.116 E4.37563
G1 X101.331 Y42.496 E4.40535
G1 X101.491 Y43.936 E4.43495
G1 X101.491 Y56.046 E4.68238
G1 X101.331 Y57.486 E4.71198
G1 X100.871 Y58.866 E4.74170
G1 X100.131 Y60.106 E4.77121
G1 X95.991 Y65.576 E4.91137
G1 X94.911 Y66.696 E4.94316
G1 X93.621 Y67.536 E4.97461
G1 X92.161 Y68.066 E5.00635
G1 X90.621 Y68.246 E5.03802
G1 X50.711 Y68.246 E5.85346
G1 X49.061 Y68.036 E5.88744
G1 X47.511 Y67.436 E5.92140
G1 X46.151 Y66.466 E5.95553
G1 X40.321 Y61.096 E6.11748
G1 X39.401 Y60.056 E6.14585
G1 X38.721 Y58.846 E6.17421
G1 X38.291 Y57.526 E6.20257
G1 X38.151 Y56.146 E6.23091
G1 X38.151 Y43.846 E6.48222
G1 X38.291 Y42.466 E6.51056
G1 X38.721 Y41.146 E6.53893
G1 X39.401 Y39.936 E6.56729
G1 X40.297 Y38.923 E6.59491
G1 X40.491 Y39.076 F9000.000
G1 X46.321 Y33.706 E6.75686 F1800.000
G1 X47.621 Y32.776 E6.78952
G1 X49.121 Y32.186 E6.82245
G1 X50.711 Y31.986 E6.85519
G1 X90.621 Y31.986 E7.67063
G1 X92.101 Y32.166 E7.70109
G1 X93.511 Y32.666 E7.73165
G1 X94.761 Y33.476 E7.76209
G1 X95.791 Y34.556 E7.79258
G1 X99.931 Y40.016 E7.93258
G1 X100.651 Y41.216 E7.96117
G1 X101.091 Y42.546 E7.98979
G1 X101.251 Y43.936 E8.01838
G1 X101.251 Y56.046 E8.26581
G1 X101.101 Y57.436 E8.29438
G1 X100.651 Y58.766 E8.32306
G1 X99.931 Y59.956 E8.35148
G1 X95.791 Y65.426 E8.49164
G1 X94.761 Y66.506 E8.52214
G1 X93.511 Y67.326 E8.55268
G1 X92.101 Y67.826 E8.58325
G1 X90.621 Y68.006 E8.61371
G1 X50.711 Y68.006 E9.42914
G1 X49.121 Y67.806 E9.46188
G1 X47.621 Y67.216 E9.49482
G1 X46.321 Y66.286 E9.52747
G1 X40.491 Y60.916 E9.68942
G1 X39.601 Y59.916 E9.71677
G1 X38.941 Y58.746 E9.74422
G1 X38.531 Y57.476 E9.77149
G1 X38.391 Y56.146 E9.79881
G1 X38.391 Y43.846 E10.05012
G1 X38.531 Y42.516 E10.07745
G1 X38.941 Y41.246 E10.10471
G1 X39.601 Y40.076 E10.13216
G1 X40.466 Y39.103 E10.15877
G1 X40.651 Y39.256 F9000.000
G1 X46.481 Y33.886 E10.32072 F1800.000
G1 X47.741 Y32.986 E10.35235
G1 X49.181 Y32.426 E10.38392
G1 X50.711 Y32.236 E10.41542
G1 X90.621 Y32.236 E11.23085
G1 X92.051 Y32.396 E11.26025
G1 X93.401 Y32.886 E11.28960
G1 X94.601 Y33.666 E11.31884
G1 X95.591 Y34.706 E11.34817
G1 X99.731 Y40.166 E11.48818
G1 X100.431 Y41.316 E11.51568
G1 X100.861 Y42.596 E11.54327
G1 X101.001 Y43.936 E11.57080
G1 X101.001 Y56.046 E11.81823
G1 X100.861 Y57.386 E11.84575
G1 X100.431 Y58.656 E11.87315
G1 X99.741 Y59.816 E11.90073
G1 X95.601 Y65.286 E12.04089
G1 X94.601 Y66.326 E12.07037
G1 X93.401 Y67.106 E12.09961
G1 X92.051 Y67.596 E12.12895
G1 X90.621 Y67.756 E12.15835
G1 X50.711 Y67.756 E12.97379
G1 X49.181 Y67.566 E13.00529
G1 X47.741 Y67.006 E13.03685
G1 X46.481 Y66.106 E13.06849
G1 X40.651 Y60.736 E13.23044
G1 X39.801 Y59.776 E13.25664
G1 X39.161 Y58.656 E13.28299
G1 X38.771 Y57.426 E13.30936
G1 X38.641 Y56.146 E13.33564
G1 X38.641 Y43.846 E13.58695
G1 X38.771 Y42.566 E13.61324
G1 X39.161 Y41.336 E13.63961
G1 X39.801 Y40.216 E13.66596
G1 X40.627 Y39.283 E13.69142
G1 F1200.000 E10.69142
G92 E0
G1 X52.746 Y40.485 F9000.000
G1 E3.00000 F1200.000
G1 X61.365 Y40.485 E3.17610 F1800.000
G1 X61.365 Y59.657 E3.56781
G1 X52.746 Y59.657 E3.74390
G1 X52.746 Y40.522 E4.13487
G1 X52.989 Y40.728 F9000.000
G1 X61.122 Y40.728 E4.30104 F1800.000
G1 X61.122 Y59.414 E4.68282
G1 X52.989 Y59.414 E4.84899
G1 X52.989 Y40.765 E5.23003
G1 X53.232 Y40.971 F9000.000
G1 X60.879 Y40.971 E5.38628 F1080.000
G1 X60.879 Y59.171 E5.75813
G1 X53.232 Y59.171 E5.91438
G1 X53.232 Y41.008 E6.28549
G1 X53.232 Y40.728 F9000.000
G1 F1200.000 E3.28549
G92 E0
G1 X69.859 Y40.114 F9000.000
G1 E3.00000 F1200.000
G1 X88.168 Y40.114 E3.37409 F1800.000
G1 X88.168 Y59.806 E3.77642
G1 X69.859 Y59.806 E4.15051
G1 X69.859 Y40.150 E4.55210
G1 X70.102 Y40.357 F9000.000
G1 X87.925 Y40.357 E4.91626 F1800.000
G1 X87.925 Y59.563 E5.30867
G1 X70.102 Y59.563 E5.67284
G1 X70.102 Y40.393 E6.06450
G1 X70.345 Y40.600 F9000.000
G1 X87.683 Y40.600 E6.41874 F1080.000
G1 X87.683 Y59.320 E6.80122
G1 X70.345 Y59.320 E7.15545
G1 X70.345 Y40.636 E7.53719
G1 X70.345 Y40.357 F9000.000
G1 F1200.000 E4.53719
G92 E0
G1 X50.941 Y39.062 F9000.000
G1 E3.00000 F1200.000
G1 X90.333 Y39.062 E3.80486 F1800.000
G1 X94.176 Y44.142 E3.93500
G1 X94.176 Y55.858 E4.17439
G1 X90.333 Y60.938 E4.30454
G1 X50.941 Y60.938 E5.10940
G1 X45.467 Y55.896 E5.26146
G1 X45.467 Y44.104 E5.50239
G1 X50.914 Y39.086 E5.65371
G1 F1200.000 E2.65371
G92 E0
G1 X90.454 Y61.181 F9000.000
G1 E3.00000 F1200.000
G1 X50.846 Y61.181 E3.80927 F1800.000
G1 X45.224 Y56.003 E3.96544
G1 X45.224 Y43.997 E4.21073
G1 X50.846 Y38.819 E4.36690
G1 X90.454 Y38.819 E5.17617
G1 X94.419 Y44.060 E5.31045
G1 X94.419 Y55.940 E5.55317
G1 X90.476 Y61.152 E5.68670
G1 X90.575 Y61.424 F9000.000
G1 X50.751 Y61.424 E6.50037 F1080.000
G1 X44.981 Y56.109 E6.66066
G1 X44.981 Y43.891 E6.91030
G1 X50.751 Y38.576 E7.07059
G1 X90.575 Y38.576 E7.88426
G1 X94.662 Y43.979 E8.02268
G1 X94.662 Y56.021 E8.26873
G1 X90.597 Y61.395 E8.40640
G1 X90.395 Y61.260 F9000.000
G1 F1200.000 E5.40640
G92 E0
G1 X94.012 Y44.379 F9000.000
G1 E3.00000 F1200.000
G1 X88.859 Y39.226 E3.14899 F2160.000
G1 X88.515 Y39.226 E3.15602
G1 X94.012 Y44.723 E3.31494
G1 X94.012 Y45.067 E3.32197
G1 X88.171 Y39.226 E3.49083
G1 F1200.000 E0.49083
G92 E0
G1 X90.308 Y39.300 F9000.000
G1 E3.00000 F1200.000
G1 X90.234 Y39.226 E3.00215 F2160.000
G1 X89.890 Y39.226 E3.00918
G1 X91.376 Y40.711 E3.05213
G1 X92.443 Y42.123 F9000.000
G1 X89.546 Y39.226 E3.13589 F2160.000
G1 X89.202 Y39.226 E3.14291
G1 X93.511 Y43.534 E3.26748
G1 F1200.000 E0.26748
G92 E0
G1 X70.878 Y60.774 F9000.000
G1 E3.00000 F1200.000
G1 X70.073 Y59.970 E3.02327 F2160.000
G1 X70.417 Y59.970 E3.03029
G1 X71.222 Y60.774 E3.05356
G1 X71.566 Y60.774 E3.06059
G1 X70.761 Y59.970 E3.08385
G1 X71.105 Y59.970 E3.09088
G1 X71.909 Y60.774 E3.11414
G1 X72.253 Y60.774 E3.12117
G1 X71.448 Y59.970 E3.14444
G1 X71.792 Y59.970 E3.15146
G1 X72.597 Y60.774 E3.17473
G1 X72.941 Y60.774 E3.18176
G1 X72.136 Y59.970 E3.20502
G1 X72.480 Y59.970 E3.21205
G1 X73.284 Y60.774 E3.23532
G1 X73.628 Y60.774 E3.24234
G1 X72.823 Y59.970 E3.26561
G1 X73.167 Y59.970 E3.27264
G1 X73.972 Y60.774 E3.29590
G1 X74.315 Y60.774 E3.30293
G1 X73.511 Y59.970 E3.32620
G1 X73.854 Y59.970 E3.33322
G1 X74.659 Y60.774 E3.35649
G1 X75.003 Y60.774 E3.36352
G1 X74.198 Y59.970 E3.38678
G1 X74.542 Y59.970 E3.39381
G1 X75.347 Y60.774 E3.41707
G1 X75.690 Y60.774 E3.42410
G1 X74.886 Y59.970 E3.44737
G1 X75.229 Y59.970 E3.45439
G1 X76.034 Y60.774 E3.47766
G1 X76.378 Y60.774 E3.48469
G1 X75.573 Y59.970 E3.50795
G1 X75.917 Y59.970 E3.51498
G1 X76.722 Y60.774 E3.53825
G1 X77.065 Y60.774 E3.54527
G1 X76.261 Y59.970 E3.56854
G1 X76.604 Y59.970 E3.57557
G1 X77.409 Y60.774 E3.59883
G1 X77.753 Y60.774 E3.60586
G1 X76.948 Y59.970 E3.62913
G1 X77.292 Y59.970 E3.63615
G1 X78.097 Y60.774 E3.65942
G1 X78.440 Y60.774 E3.66645
G1 X77.635 Y59.970 E3.68971
G1 X77.979 Y59.970 E3.69674
G1 X78.784 Y60.774 E3.72000
G1 X79.128 Y60.774 E3.72703
G1 X78.323 Y59.970 E3.75030
G1 X78.667 Y59.970 E3.75732
G1 X79.471 Y60.774 E3.78059
G1 X79.815 Y60.774 E3.78762
G1 X79.010 Y59.970 E3.81088
G1 X79.354 Y59.970 E3.81791
G1 X80.159 Y60.774 E3.84118
G1 X80.503 Y60.774 E3.84820
G1 X79.698 Y59.970 E3.87147
G1 X80.042 Y59.970 E3.87850
G1 X80.846 Y60.774 E3.90176
G1 X81.190 Y60.774 E3.90879
G1 X80.385 Y59.970 E3.93206
G1 X80.729 Y59.970 E3.93908
G1 X81.534 Y60.774 E3.96235
G1 X81.878 Y60.774 E3.96938
G1 X81.073 Y59.970 E3.99264
G1 X81.417 Y59.970 E3.99967
G1 X82.221 Y60.774 E4.02293
G1 X82.565 Y60.774 E4.02996
G1 X81.760 Y59.970 E4.05323
G1 X82.104 Y59.970 E4.06025
G1 X82.909 Y60.774 E4.08352
G1 X83.252 Y60.774 E4.09055
G1 X82.448 Y59.970 E4.11381
G1 X82.791 Y59.970 E4.12084
G1 X83.596 Y60.774 E4.14411
G1 X83.940 Y60.774 E4.15113
G1 X83.135 Y59.970 E4.17440
G1 X83.479 Y59.970 E4.18143
G1 X84.284 Y60.774 E4.20469
G1 X84.627 Y60.774 E4.21172
G1 X83.823 Y59.970 E4.23498
G1 X84.166 Y59.970 E4.24201
G1 X84.971 Y60.774 E4.26528
G1 X85.315 Y60.774 E4.27230
G1 X84.510 Y59.970 E4.29557
G1 X84.854 Y59.970 E4.30260
G1 X85.659 Y60.774 E4.32586
G1 X86.002 Y60.774 E4.33289
G1 X85.198 Y59.970 E4.35616
G1 X85.541 Y59.970 E4.36318
G1 X86.346 Y60.774 E4.38645
G1 X86.690 Y60.774 E4.39348
G1 X85.885 Y59.970 E4.41674
G1 X86.229 Y59.970 E4.42377
G1 X87.034 Y60.774 E4.44704
G1 X87.377 Y60.774 E4.45406
G1 X86.572 Y59.970 E4.47733
G1 X86.916 Y59.970 E4.48436
G1 X87.721 Y60.774 E4.50762
G1 X88.065 Y60.774 E4.51465
G1 X87.260 Y59.970 E4.53791
G1 X87.604 Y59.970 E4.54494
G1 X88.408 Y60.774 E4.56821
G1 X88.752 Y60.774 E4.57523
G1 X87.947 Y59.970 E4.59850
G1 X88.291 Y59.970 E4.60553
G1 X89.096 Y60.774 E4.62879
G1 X89.440 Y60.774 E4.63582
G1 X88.332 Y59.667 E4.66783
G1 X88.332 Y59.323 E4.67486
G1 X89.783 Y60.774 E4.71681
G1 X90.127 Y60.774 E4.72384
G1 X88.332 Y58.979 E4.77573
G1 X88.332 Y58.636 E4.78275
G1 X90.346 Y60.650 E4.84097
G1 X90.494 Y60.454 E4.84599
G1 X88.332 Y58.292 E4.90849
G1 X88.332 Y57.948 E4.91552
G1 X90.642 Y60.258 E4.98230
G1 X90.790 Y60.062 E4.98731
G1 X88.332 Y57.605 E5.05837
G1 X88.332 Y57.261 E5.06540
G1 X90.938 Y59.867 E5.14074
G1 X91.086 Y59.671 E5.14575
G1 X88.332 Y56.917 E5.22537
G1 X88.332 Y56.573 E5.23240
G1 X91.234 Y59.475 E5.31630
G1 X91.382 Y59.280 E5.32132
G1 X88.332 Y56.230 E5.40949
G1 X88.332 Y55.886 E5.41652
G1 X91.530 Y59.084 E5.50898
G1 X91.678 Y58.888 E5.51400
G1 X88.332 Y55.542 E5.61073
G1 X88.332 Y55.198 E5.61776
G1 X91.826 Y58.693 E5.71878
G1 X91.974 Y58.497 E5.72379
G1 X88.332 Y54.855 E5.82909
G1 X88.332 Y54.511 E5.83612
G1 X92.123 Y58.301 E5.94570
G1 X92.271 Y58.105 E5.95071
G1 X88.332 Y54.167 E6.06457
G1 X88.332 Y53.824 E6.07160
G1 X92.419 Y57.910 E6.18974
G1 X92.567 Y57.714 E6.19475
G1 X88.332 Y53.480 E6.31717
G1 X88.332 Y53.136 E6.32420
G1 X92.715 Y57.518 E6.45089
G1 X92.863 Y57.323 E6.45591
G1 X88.332 Y52.792 E6.58689
G1 X88.332 Y52.449 E6.59391
G1 X93.011 Y57.127 E6.72917
G1 X93.159 Y56.931 E6.73419
G1 X88.332 Y52.105 E6.87372
G1 X88.332 Y51.761 E6.88075
G1 X93.307 Y56.736 E7.02457
G1 X93.455 Y56.540 E7.02958
G1 X88.332 Y51.417 E7.17768
G1 X88.332 Y51.074 E7.18470
G1 X93.603 Y56.344 E7.33708
G1 X93.751 Y56.149 E7.34210
G1 X88.332 Y50.730 E7.49875
G1 X88.332 Y50.386 E7.50578
G1 X93.899 Y55.953 E7.66672
G1 X94.012 Y55.722 E7.67197
G1 X88.332 Y50.042 E7.83617
G1 X88.332 Y49.699 E7.84320
G1 X94.012 Y55.379 E8.00741
G1 X94.012 Y55.035 E8.01443
G1 X88.332 Y49.355 E8.17864
G1 X88.332 Y49.011 E8.18567
G1 X94.012 Y54.691 E8.34988
G1 X94.012 Y54.347 E8.35690
G1 X88.332 Y48.668 E8.52111
G1 X88.332 Y48.324 E8.52814
G1 X94.012 Y54.004 E8.69234
G1 X94.012 Y53.660 E8.69937
G1 X88.332 Y47.980 E8.86358
G1 X88.332 Y47.636 E8.87061
G1 X94.012 Y53.316 E9.03481
G1 X94.012 Y52.972 E9.04184
G1 X88.332 Y47.293 E9.20605
G1 X88.332 Y46.949 E9.21307
G1 X94.012 Y52.629 E9.37728
G1 X94.012 Y52.285 E9.38431
G1 X88.332 Y46.605 E9.54852
G1 X88.332 Y46.261 E9.55554
G1 X94.012 Y51.941 E9.71975
G1 X94.012 Y51.597 E9.72678
G1 X88.332 Y45.918 E9.89098
G1 X88.332 Y45.574 E9.89801
G1 X94.012 Y51.254 E10.06222
G1 X94.012 Y50.910 E10.06924
G1 X88.332 Y45.230 E10.23345
G1 X88.332 Y44.887 E10.24048
G1 X94.012 Y50.566 E10.40469
G1 X94.012 Y50.223 E10.41171
G1 X88.332 Y44.543 E10.57592
G1 X88.332 Y44.199 E10.58295
G1 X94.012 Y49.879 E10.74716
G1 X94.012 Y49.535 E10.75418
G1 X88.332 Y43.855 E10.91839
G1 X88.332 Y43.512 E10.92542
G1 X94.012 Y49.191 E11.08962
G1 X94.012 Y48.848 E11.09665
G1 X88.332 Y43.168 E11.26086
G1 X88.332 Y42.824 E11.26788
G1 X94.012 Y48.504 E11.43209
G1 X94.012 Y48.160 E11.43912
G1 X88.332 Y42.480 E11.60333
G1 X88.332 Y42.137 E11.61035
G1 X94.012 Y47.816 E11.77456
G1 X94.012 Y47.473 E11.78159
G1 X88.332 Y41.793 E11.94579
G1 X88.332 Y41.449 E11.95282
G1 X94.012 Y47.129 E12.11703
G1 X94.012 Y46.785 E12.12406
G1 X88.332 Y41.105 E12.28826
G1 X88.332 Y40.762 E12.29529
G1 X94.012 Y46.442 E12.45950
G1 X94.012 Y46.098 E12.46652
G1 X88.332 Y40.418 E12.63073
G1 X88.332 Y40.074 E12.63776
G1 X94.012 Y45.754 E12.80197
G1 X94.012 Y45.410 E12.80899
G1 X87.828 Y39.226 E12.98779
G1 X87.484 Y39.226 E12.99482
G1 X88.208 Y39.950 E13.01576
G1 X87.864 Y39.950 E13.02278
G1 X87.140 Y39.226 E13.04372
G1 X86.796 Y39.226 E13.05074
G1 X87.520 Y39.950 E13.07168
G1 X87.177 Y39.950 E13.07871
G1 X86.453 Y39.226 E13.09964
G1 X86.109 Y39.226 E13.10667
G1 X86.833 Y39.950 E13.12760
G1 X86.489 Y39.950 E13.13463
G1 X85.765 Y39.226 E13.15557
G1 X85.421 Y39.226 E13.16259
G1 X86.146 Y39.950 E13.18353
G1 X85.802 Y39.950 E13.19055
G1 X85.078 Y39.226 E13.21149
G1 X84.734 Y39.226 E13.21852
G1 X85.458 Y39.950 E13.23945
G1 X85.114 Y39.950 E13.24648
G1 X84.390 Y39.226 E13.26741
G1 X84.046 Y39.226 E13.27444
G1 X84.771 Y39.950 E13.29537
G1 X84.427 Y39.950 E13.30240
G1 X83.703 Y39.226 E13.32334
G1 X83.359 Y39.226 E13.33036
G1 X84.083 Y39.950 E13.35130
G1 X83.739 Y39.950 E13.35833
G1 X83.015 Y39.226 E13.37926
G1 X82.672 Y39.226 E13.38629
G1 X83.396 Y39.950 E13.40722
G1 X83.052 Y39.950 E13.41425
G1 X82.328 Y39.226 E13.43518
G1 X81.984 Y39.226 E13.44221
G1 X82.708 Y39.950 E13.46315
G1 X82.364 Y39.950 E13.47017
G1 X81.640 Y39.226 E13.49111
G1 X81.297 Y39.226 E13.49813
G1 X82.021 Y39.950 E13.51907
G1 X81.677 Y39.950 E13.52610
G1 X80.953 Y39.226 E13.54703
G1 X80.609 Y39.226 E13.55406
G1 X81.333 Y39.950 E13.57499
G1 X80.990 Y39.950 E13.58202
G1 X80.265 Y39.226 E13.60295
G1 X79.922 Y39.226 E13.60998
G1 X80.646 Y39.950 E13.63092
G1 X80.302 Y39.950 E13.63794
G1 X79.578 Y39.226 E13.65888
G1 X79.234 Y39.226 E13.66591
G1 X79.958 Y39.950 E13.68684
G1 X79.615 Y39.950 E13.69387
G1 X78.890 Y39.226 E13.71480
G1 X78.547 Y39.226 E13.72183
G1 X79.271 Y39.950 E13.74276
G1 X78.927 Y39.950 E13.74979
G1 X78.203 Y39.226 E13.77073
G1 X77.859 Y39.226 E13.77775
G1 X78.583 Y39.950 E13.79869
G1 X78.240 Y39.950 E13.80571
G1 X77.516 Y39.226 E13.82665
G1 X77.172 Y39.226 E13.83368
G1 X77.896 Y39.950 E13.85461
G1 X77.552 Y39.950 E13.86164
G1 X76.828 Y39.226 E13.88257
G1 X76.484 Y39.226 E13.88960
G1 X77.208 Y39.950 E13.91053
G1 X76.865 Y39.950 E13.91756
G1 X76.141 Y39.226 E13.93850
G1 X75.797 Y39.226 E13.94552
G1 X76.521 Y39.950 E13.96646
G1 X76.177 Y39.950 E13.97349
G1 X75.453 Y39.226 E13.99442
G1 X75.109 Y39.226 E14.00145
G1 X75.834 Y39.950 E14.02238
G1 X75.490 Y39.950 E14.02941
G1 X74.766 Y39.226 E14.05034
G1 X74.422 Y39.226 E14.05737
G1 X75.146 Y39.950 E14.07831
G1 X74.802 Y39.950 E14.08533
G1 X74.078 Y39.226 E14.10627
G1 X73.735 Y39.226 E14.11329
G1 X74.459 Y39.950 E14.13423
G1 X74.115 Y39.950 E14.14126
G1 X73.391 Y39.226 E14.16219
G1 X73.047 Y39.226 E14.16922
G1 X73.771 Y39.950 E14.19015
G1 X73.427 Y39.950 E14.19718
G1 X72.703 Y39.226 E14.21811
G1 X72.360 Y39.226 E14.22514
G1 X73.084 Y39.950 E14.24608
G1 X72.740 Y39.950 E14.25310
G1 X72.016 Y39.226 E14.27404
G1 X71.672 Y39.226 E14.28107
G1 X72.396 Y39.950 E14.30200
G1 X72.053 Y39.950 E14.30903
G1 X71.328 Y39.226 E14.32996
G1 X70.985 Y39.226 E14.33699
G1 X71.709 Y39.950 E14.35792
G1 X71.365 Y39.950 E14.36495
G1 X70.641 Y39.226 E14.38589
G1 X70.297 Y39.226 E14.39291
