; generated by Slic3r 1.0.0RC1 on 2014-01-04 at 13:50:53

; layer_height = 0.2
; perimeters = 3
; top_solid_layers = 10
; bottom_solid_layers = 4
; fill_density = 0.2
; perimeter_speed = 60
; infill_speed = 60
; travel_speed = 150
; nozzle_diameter = 0.4
; filament_diameter = 1.74
; extrusion_multiplier = 1
; perimeters extrusion width = 0.40mm
; infill extrusion width = 0.67mm
; solid infill extrusion width = 0.67mm
; top infill extrusion width = 0.67mm
; first layer extrusion width = 0.20mm

G21 ; set units to millimeters
M107
G28 X0 Y0; home X and Y
M104 S205 ; set hotend temp, no wait.
M116 ; waiting for both temperatures
G28 Z0; home Z
M92 X80; calibrate X
M92 Y80; calibrate Y
M92 Z2387.0719; calibrate Z
M92 E65.35; calibrate E for direct drive
G90 ; use absolute coordinates
G92 E0
M82 ; use absolute distances for extrusion
G1 F1200.000 E-3.00000
G92 E0
G1 Z0.200 F9000.000
G1 X44.454 Y34.736 F9000.000
G1 E3.00000 F1200.000
G1 X45.284 Y33.716 E3.02687 F3240.000
G1 X46.304 Y32.886 E3.05374
G1 X47.474 Y32.256 E3.08089
G1 X48.734 Y31.876 E3.10778
G1 X50.044 Y31.746 E3.13467
G1 X89.954 Y31.746 E3.95010
G1 X91.264 Y31.876 E3.97700
G1 X92.524 Y32.256 E4.00389
G1 X93.694 Y32.886 E4.03104
G1 X94.714 Y33.716 E4.05791
G1 X95.544 Y34.736 E4.08478
G1 X96.174 Y35.906 E4.11193
G1 X96.554 Y37.166 E4.13882
G1 X96.684 Y38.476 E4.16571
G1 X96.684 Y61.516 E4.63646
G1 X96.554 Y62.826 E4.66336
G1 X96.174 Y64.086 E4.69025
G1 X95.544 Y65.256 E4.71740
G1 X94.714 Y66.276 E4.74427
G1 X93.694 Y67.106 E4.77114
G1 X92.524 Y67.736 E4.79829
G1 X91.264 Y68.116 E4.82518
G1 X89.954 Y68.246 E4.85207
G1 X50.044 Y68.246 E5.66750
G1 X48.734 Y68.116 E5.69440
G1 X47.474 Y67.736 E5.72129
G1 X46.304 Y67.106 E5.74844
G1 X45.284 Y66.276 E5.77531
G1 X44.454 Y65.256 E5.80218
G1 X43.824 Y64.086 E5.82933
G1 X43.444 Y62.826 E5.85622
G1 X43.314 Y61.516 E5.88311
G1 X43.314 Y38.476 E6.35386
G1 X43.444 Y37.166 E6.38076
G1 X43.824 Y35.906 E6.40765
G1 X44.436 Y34.768 E6.43405
G1 X44.654 Y34.876 F9000.000
G1 X45.454 Y33.886 E6.46006 F3240.000
G1 X46.444 Y33.086 E6.48607
G1 X47.564 Y32.486 E6.51203
G1 X48.774 Y32.116 E6.53788
G1 X50.044 Y31.986 E6.56396
G1 X89.954 Y31.986 E7.37939
G1 X91.224 Y32.116 E7.40548
G1 X92.434 Y32.486 E7.43133
G1 X93.554 Y33.086 E7.45729
G1 X94.544 Y33.886 E7.48330
G1 X95.344 Y34.876 E7.50930
G1 X95.944 Y35.996 E7.53526
G1 X96.314 Y37.206 E7.56112
G1 X96.444 Y38.476 E7.58720
G1 X96.444 Y61.516 E8.05795
G1 X96.314 Y62.786 E8.08403
G1 X95.944 Y63.996 E8.10988
G1 X95.344 Y65.116 E8.13584
G1 X94.544 Y66.106 E8.16185
G1 X93.554 Y66.906 E8.18786
G1 X92.434 Y67.506 E8.21382
G1 X91.224 Y67.876 E8.23967
G1 X89.954 Y68.006 E8.26575
G1 X50.044 Y68.006 E9.08118
G1 X48.774 Y67.876 E9.10727
G1 X47.564 Y67.506 E9.13312
G1 X46.444 Y66.906 E9.15908
G1 X45.454 Y66.106 E9.18509
G1 X44.654 Y65.116 E9.21109
G1 X44.054 Y63.996 E9.23705
G1 X43.684 Y62.786 E9.26291
G1 X43.554 Y61.516 E9.28899
G1 X43.554 Y38.476 E9.75974
G1 X43.684 Y37.206 E9.78582
G1 X44.054 Y35.996 E9.81167
G1 X44.636 Y34.908 E9.83689
G1 X44.854 Y35.006 F9000.000
G1 X45.634 Y34.066 E9.86185 F3240.000
G1 X46.574 Y33.286 E9.88680
G1 X47.654 Y32.706 E9.91185
G1 X48.824 Y32.356 E9.93680
G1 X50.044 Y32.236 E9.96185
G1 X89.954 Y32.236 E10.77728
G1 X91.174 Y32.356 E10.80233
G1 X92.344 Y32.706 E10.82728
G1 X93.424 Y33.286 E10.85233
G1 X94.364 Y34.066 E10.87728
G1 X95.144 Y35.006 E10.90224
G1 X95.724 Y36.086 E10.92729
G1 X96.074 Y37.256 E10.95224
G1 X96.194 Y38.476 E10.97729
G1 X96.194 Y61.516 E11.44803
G1 X96.074 Y62.736 E11.47308
G1 X95.724 Y63.906 E11.49803
G1 X95.144 Y64.986 E11.52308
G1 X94.364 Y65.926 E11.54804
G1 X93.424 Y66.706 E11.57299
G1 X92.344 Y67.286 E11.59804
G1 X91.174 Y67.636 E11.62299
G1 X89.954 Y67.756 E11.64804
G1 X50.044 Y67.756 E12.46347
G1 X48.824 Y67.636 E12.48852
G1 X47.654 Y67.286 E12.51347
G1 X46.574 Y66.706 E12.53852
G1 X45.634 Y65.926 E12.56347
G1 X44.854 Y64.986 E12.58843
G1 X44.274 Y63.906 E12.61348
G1 X43.924 Y62.736 E12.63843
G1 X43.804 Y61.516 E12.66348
G1 X43.804 Y38.476 E13.13422
G1 X43.924 Y37.256 E13.15927
G1 X44.274 Y36.086 E13.18422
G1 X44.836 Y35.038 E13.20852
G1 F1200.000 E10.20852
G92 E0
G1 X69.191 Y40.114 F9000.000
G1 E3.00000 F1200.000
G1 X87.500 Y40.114 E3.37409 F3240.000
G1 X87.500 Y59.806 E3.77642
G1 X69.191 Y59.806 E4.15051
G1 X69.191 Y40.150 E4.55210
G1 X69.434 Y40.357 F9000.000
G1 X87.257 Y40.357 E4.91626 F3240.000
G1 X87.257 Y59.563 E5.30867
G1 X69.434 Y59.563 E5.67284
G1 X69.434 Y40.393 E6.06450
G1 X69.677 Y40.600 F9000.000
G1 X87.014 Y40.600 E6.41874 F1944.000
G1 X87.014 Y59.320 E6.80122
G1 X69.677 Y59.320 E7.15545
G1 X69.677 Y40.636 E7.53719
G1 X69.677 Y40.357 F9000.000
G1 F1200.000 E4.53719
G92 E0
G1 X50.629 Y39.062 F9000.000
G1 E3.00000 F1200.000
G1 X89.371 Y39.062 E3.79155 F3240.000
G1 X89.371 Y60.938 E4.23852
G1 X50.629 Y60.938 E5.03007
G1 X50.629 Y39.098 E5.47630
G1 X50.387 Y38.819 F9000.000
G1 X89.613 Y38.819 E6.27777 F3240.000
G1 X89.613 Y61.181 E6.73467
G1 X50.387 Y61.181 E7.53615
G1 X50.387 Y38.855 E7.99230
G1 X50.144 Y38.576 F9000.000
G1 X89.856 Y38.576 E8.80370 F1944.000
G1 X89.856 Y61.424 E9.27053
G1 X50.144 Y61.424 E10.08193
G1 X50.144 Y38.612 E10.54801
G1 X50.354 Y38.697 F9000.000
G1 F1200.000 E7.54801
G92 E0
G1 X50.793 Y41.468 F9000.000
G1 E3.00000 F1200.000
G1 X69.027 Y59.701 E3.52807 F3240.000
G1 X69.027 Y59.357 E3.53512
G1 X50.793 Y41.123 E4.06318
G1 X50.793 Y40.779 E4.07023
G1 X69.027 Y59.012 E4.59830
G1 X69.027 Y58.668 E4.60535
G1 X50.793 Y40.435 E5.13342
G1 X50.793 Y40.090 E5.14047
G1 X69.027 Y58.324 E5.66853
G1 X69.027 Y57.980 E5.67558
G1 X50.793 Y39.746 E6.20365
G1 X50.793 Y39.402 E6.21070
G1 X69.027 Y57.635 E6.73877
G1 X69.027 Y57.291 E6.74582
G1 X50.962 Y39.226 E7.26900
G1 X51.306 Y39.226 E7.27605
G1 X69.027 Y56.947 E7.78927
G1 X69.027 Y56.602 E7.79632
G1 X51.651 Y39.226 E8.29956
G1 X51.995 Y39.226 E8.30661
G1 X69.027 Y56.258 E8.79988
G1 X69.027 Y55.914 E8.80693
G1 X52.339 Y39.226 E9.29023
G1 X52.684 Y39.226 E9.29728
G1 X69.027 Y55.569 E9.77061
G1 X69.027 Y55.225 E9.77766
G1 X53.028 Y39.226 E10.24101
G1 X53.372 Y39.226 E10.24806
G1 X69.027 Y54.881 E10.70144
G1 X69.027 Y54.536 E10.70850
G1 X53.717 Y39.226 E11.15190
G1 X54.061 Y39.226 E11.15896
G1 X69.027 Y54.192 E11.59239
G1 X69.027 Y53.848 E11.59944
G1 X54.405 Y39.226 E12.02291
G1 X54.749 Y39.226 E12.02996
G1 X69.027 Y53.503 E12.44345
G1 X69.027 Y53.159 E12.45050
G1 X55.094 Y39.226 E12.85402
G1 X55.438 Y39.226 E12.86107
G1 X69.027 Y52.815 E13.25462
G1 X69.027 Y52.470 E13.26167
G1 X55.782 Y39.226 E13.64525
G1 X56.127 Y39.226 E13.65230
G1 X69.027 Y52.126 E14.02591
G1 X69.027 Y51.782 E14.03296
G1 X56.471 Y39.226 E14.39659
G1 X56.815 Y39.226 E14.40364
G1 X69.027 Y51.437 E14.75730
G1 X69.027 Y51.093 E14.76435
G1 X57.160 Y39.226 E15.10804
G1 X57.504 Y39.226 E15.11509
G1 X69.027 Y50.749 E15.44881
G1 X69.027 Y50.404 E15.45586
G1 X57.848 Y39.226 E15.77960
G1 X58.193 Y39.226 E15.78665
G1 X69.027 Y50.060 E16.10042
G1 X69.027 Y49.716 E16.10747
G1 X58.537 Y39.226 E16.41127
G1 X58.881 Y39.226 E16.41833
G1 X69.027 Y49.371 E16.71215
G1 X69.027 Y49.027 E16.71920
G1 X59.226 Y39.226 E17.00306
G1 X59.570 Y39.226 E17.01011
G1 X69.027 Y48.683 E17.28399
G1 X69.027 Y48.338 E17.29104
G1 X59.914 Y39.226 E17.55495
G1 X60.259 Y39.226 E17.56201
G1 X69.027 Y47.994 E17.81594
G1 X69.027 Y47.650 E17.82300
G1 X60.603 Y39.226 E18.06696
G1 X60.947 Y39.226 E18.07401
G1 X69.027 Y47.305 E18.30801
G1 X69.027 Y46.961 E18.31506
G1 X61.292 Y39.226 E18.53908
G1 X61.636 Y39.226 E18.54613
G1 X69.027 Y46.617 E18.76018
G1 X69.027 Y46.272 E18.76723
G1 X61.980 Y39.226 E18.97131
G1 X62.325 Y39.226 E18.97836
G1 X69.027 Y45.928 E19.17247
G1 X69.027 Y45.584 E19.17952
G1 X62.669 Y39.226 E19.36365
G1 X63.013 Y39.226 E19.37071
G1 X69.027 Y45.239 E19.54487
G1 X69.027 Y44.895 E19.55192
G1 X63.358 Y39.226 E19.71611
G1 X63.702 Y39.226 E19.72316
G1 X69.027 Y44.551 E19.87738
G1 X69.027 Y44.206 E19.88443
G1 X64.046 Y39.226 E20.02867
G1 X64.391 Y39.226 E20.03572
G1 X69.027 Y43.862 E20.17000
G1 X69.027 Y43.518 E20.17705
G1 X64.735 Y39.226 E20.30135
G1 X65.079 Y39.226 E20.30840
G1 X69.027 Y43.173 E20.42273
G1 X69.027 Y42.829 E20.42978
G1 X65.424 Y39.226 E20.53414
G1 X65.768 Y39.226 E20.54119
G1 X69.027 Y42.485 E20.63557
G1 X69.027 Y42.140 E20.64262
G1 X66.112 Y39.226 E20.72704
G1 X66.457 Y39.226 E20.73409
G1 X69.027 Y41.796 E20.80853
G1 X69.027 Y41.452 E20.81558
G1 X66.801 Y39.226 E20.88005
G1 X67.145 Y39.226 E20.88710
G1 X69.027 Y41.107 E20.94159
G1 X69.027 Y40.763 E20.94865
G1 X67.490 Y39.226 E20.99317
G1 X67.834 Y39.226 E21.00022
G1 X69.027 Y40.419 E21.03477
G1 X69.027 Y40.074 E21.04182
G1 X68.178 Y39.226 E21.06640
G1 X68.523 Y39.226 E21.07346
G1 X69.247 Y39.950 E21.09443
G1 X69.591 Y39.950 E21.10148
G1 X68.867 Y39.226 E21.12245
G1 X69.211 Y39.226 E21.12950
G1 X69.935 Y39.950 E21.15048
G1 X70.280 Y39.950 E21.15753
G1 X69.556 Y39.226 E21.17850
G1 X69.900 Y39.226 E21.18555
G1 X70.624 Y39.950 E21.20652
G1 X70.968 Y39.950 E21.21357
G1 X70.244 Y39.226 E21.23455
G1 X70.589 Y39.226 E21.24160
G1 X71.313 Y39.950 E21.26257
G1 X71.657 Y39.950 E21.26962
G1 X70.933 Y39.226 E21.29059
G1 X71.277 Y39.226 E21.29765
G1 X72.001 Y39.950 E21.31862
G1 X72.346 Y39.950 E21.32567
G1 X71.622 Y39.226 E21.34664
G1 X71.966 Y39.226 E21.35369
G1 X72.690 Y39.950 E21.37467
G1 X73.034 Y39.950 E21.38172
G1 X72.310 Y39.226 E21.40269
G1 X72.655 Y39.226 E21.40974
G1 X73.379 Y39.950 E21.43071
G1 X73.723 Y39.950 E21.43777
G1 X72.999 Y39.226 E21.45874
G1 X73.343 Y39.226 E21.46579
G1 X74.067 Y39.950 E21.48676
G1 X74.412 Y39.950 E21.49381
G1 X73.688 Y39.226 E21.51479
G1 X74.032 Y39.226 E21.52184
G1 X74.756 Y39.950 E21.54281
G1 X75.100 Y39.950 E21.54986
G1 X74.376 Y39.226 E21.57083
G1 X74.721 Y39.226 E21.57788
G1 X75.445 Y39.950 E21.59886
G1 X75.789 Y39.950 E21.60591
G1 X75.065 Y39.226 E21.62688
G1 X75.409 Y39.226 E21.63393
G1 X76.133 Y39.950 E21.65491
G1 X76.478 Y39.950 E21.66196
G1 X75.754 Y39.226 E21.68293
G1 X76.098 Y39.226 E21.68998
G1 X76.822 Y39.950 E21.71095
G1 X77.166 Y39.950 E21.71800
G1 X76.442 Y39.226 E21.73898
G1 X76.787 Y39.226 E21.74603
G1 X77.511 Y39.950 E21.76700
G1 X77.855 Y39.950 E21.77405
G1 X77.131 Y39.226 E21.79502
G1 X77.475 Y39.226 E21.80208
G1 X78.199 Y39.950 E21.82305
G1 X78.544 Y39.950 E21.83010
G1 X77.820 Y39.226 E21.85107
G1 X78.164 Y39.226 E21.85812
G1 X78.888 Y39.950 E21.87910
G1 X79.232 Y39.950 E21.88615
G1 X78.508 Y39.226 E21.90712
G1 X78.852 Y39.226 E21.91417
G1 X79.577 Y39.950 E21.93514
G1 X79.921 Y39.950 E21.94220
G1 X79.197 Y39.226 E21.96317
G1 X79.541 Y39.226 E21.97022
G1 X80.265 Y39.950 E21.99119
G1 X80.610 Y39.950 E21.99824
G1 X79.885 Y39.226 E22.01922
G1 X80.230 Y39.226 E22.02627
G1 X80.954 Y39.950 E22.04724
G1 X81.298 Y39.950 E22.05429
G1 X80.574 Y39.226 E22.07526
G1 X80.918 Y39.226 E22.08231
G1 X81.643 Y39.950 E22.10329
G1 X81.987 Y39.950 E22.11034
G1 X81.263 Y39.226 E22.13131
G1 X81.607 Y39.226 E22.13836
G1 X82.331 Y39.950 E22.15934
G1 X82.676 Y39.950 E22.16639
G1 X81.951 Y39.226 E22.18736
G1 X82.296 Y39.226 E22.19441
G1 X83.020 Y39.950 E22.21538
G1 X83.364 Y39.950 E22.22243
G1 X82.640 Y39.226 E22.24341
G1 X82.984 Y39.226 E22.25046
G1 X83.709 Y39.950 E22.27143
G1 X84.053 Y39.950 E22.27848
G1 X83.329 Y39.226 E22.29945
G1 X83.673 Y39.226 E22.30651
G1 X84.397 Y39.950 E22.32748
G1 X84.742 Y39.950 E22.33453
G1 X84.017 Y39.226 E22.35550
G1 X84.362 Y39.226 E22.36255
G1 X85.086 Y39.950 E22.38353
G1 X85.430 Y39.950 E22.39058
G1 X84.706 Y39.226 E22.41155
G1 X85.050 Y39.226 E22.41860
G1 X85.775 Y39.950 E22.43957
G1 X86.119 Y39.950 E22.44663
G1 X85.395 Y39.226 E22.46760
G1 X85.739 Y39.226 E22.47465
G1 X86.463 Y39.950 E22.49562
G1 X86.808 Y39.950 E22.50267
G1 X86.083 Y39.226 E22.52365
G1 X86.428 Y39.226 E22.53070
G1 X87.152 Y39.950 E22.55167
G1 X87.496 Y39.950 E22.55872
G1 X86.772 Y39.226 E22.57969
G1 X87.116 Y39.226 E22.58674
G1 X89.207 Y41.316 E22.64728
G1 X89.207 Y41.660 E22.65433
G1 X87.664 Y40.118 E22.69901
G1 X87.664 Y40.462 E22.70606
G1 X89.207 Y42.005 E22.75074
G1 X89.207 Y42.349 E22.75779
G1 X87.664 Y40.806 E22.80246
G1 X87.664 Y41.151 E22.80951
G1 X89.207 Y42.693 E22.85419
G1 X89.207 Y43.038 E22.86124
G1 X87.664 Y41.495 E22.90592
G1 X87.664 Y41.839 E22.91297
G1 X89.207 Y43.382 E22.95765
G1 X89.207 Y43.726 E22.96470
G1 X87.664 Y42.184 E23.00937
G1 X87.664 Y42.528 E23.01643
G1 X89.207 Y44.071 E23.06110
G1 X89.207 Y44.415 E23.06815
G1 X87.664 Y42.872 E23.11283
G1 X87.664 Y43.217 E23.11988
G1 X89.207 Y44.759 E23.16456
G1 X89.207 Y45.104 E23.17161
G1 X87.664 Y43.561 E23.21629
G1 X87.664 Y43.905 E23.22334
G1 X89.207 Y45.448 E23.26801
G1 X89.207 Y45.792 E23.27507
G1 X87.664 Y44.250 E23.31974
G1 X87.664 Y44.594 E23.32679
G1 X89.207 Y46.137 E23.37147
G1 X89.207 Y46.481 E23.37852
G1 X87.664 Y44.938 E23.42320
G1 X87.664 Y45.283 E23.43025
G1 X89.207 Y46.825 E23.47493
G1 X89.207 Y47.170 E23.48198
G1 X87.664 Y45.627 E23.52665
G1 X87.664 Y45.971 E23.53370
G1 X89.207 Y47.514 E23.57838
G1 X89.207 Y47.858 E23.58543
G1 X87.664 Y46.316 E23.63011
G1 X87.664 Y46.660 E23.63716
G1 X89.207 Y48.203 E23.68184
G1 X89.207 Y48.547 E23.68889
G1 X87.664 Y47.004 E23.73356
G1 X87.664 Y47.349 E23.74062
G1 X89.207 Y48.891 E23.78529
G1 X89.207 Y49.235 E23.79234
G1 X87.664 Y47.693 E23.83702
G1 X87.664 Y48.037 E23.84407
G1 X89.207 Y49.580 E23.88875
G1 X89.207 Y49.924 E23.89580
G1 X87.664 Y48.382 E23.94048
G1 X87.664 Y48.726 E23.94753
G1 X89.207 Y50.268 E23.99220
G1 X89.207 Y50.613 E23.99925
G1 X87.664 Y49.070 E24.04393
G1 X87.664 Y49.415 E24.05098
G1 X89.207 Y50.957 E24.09566
G1 X89.207 Y51.301 E24.10271
G1 X87.664 Y49.759 E24.14739
G1 X87.664 Y50.103 E24.15444
G1 X89.207 Y51.646 E24.19911
G1 X89.207 Y51.990 E24.20617
G1 X87.664 Y50.447 E24.25084
G1 X87.664 Y50.792 E24.25789
G1 X89.207 Y52.334 E24.30257
G1 X89.207 Y52.679 E24.30962
G1 X87.664 Y51.136 E24.35430
G1 X87.664 Y51.480 E24.36135
G1 X89.207 Y53.023 E24.40603
G1 X89.207 Y53.367 E24.41308
G1 X87.664 Y51.825 E24.45775
G1 X87.664 Y52.169 E24.46480
G1 X89.207 Y53.712 E24.50948
G1 X89.207 Y54.056 E24.51653
G1 X87.664 Y52.513 E24.56121
G1 X87.664 Y52.858 E24.56826
G1 X89.207 Y54.400 E24.61294
G1 X89.207 Y54.745 E24.61999
G1 X87.664 Y53.202 E24.66466
G1 X87.664 Y53.546 E24.67172
G1 X89.207 Y55.089 E24.71639
G1 X89.207 Y55.433 E24.72344
G1 X87.664 Y53.891 E24.76812
G1 X87.664 Y54.235 E24.77517
G1 X89.207 Y55.778 E24.81985
G1 X89.207 Y56.122 E24.82690
G1 X87.664 Y54.579 E24.87158
G1 X87.664 Y54.924 E24.87863
G1 X89.207 Y56.466 E24.92330
G1 X89.207 Y56.811 E24.93036
G1 X87.664 Y55.268 E24.97503
G1 X87.664 Y55.612 E24.98208
G1 X89.207 Y57.155 E25.02676
G1 X89.207 Y57.499 E25.03381
G1 X87.664 Y55.957 E25.07849
G1 X87.664 Y56.301 E25.08554
G1 X89.207 Y57.844 E25.13021
G1 X89.207 Y58.188 E25.13727
G1 X87.664 Y56.645 E25.18194
G1 X87.664 Y56.990 E25.18899
G1 X89.207 Y58.532 E25.23367
G1 X89.207 Y58.877 E25.24072
G1 X87.664 Y57.334 E25.28540
G1 X87.664 Y57.678 E25.29245
G1 X89.207 Y59.221 E25.33713
G1 X89.207 Y59.565 E25.34418
G1 X87.664 Y58.023 E25.38885
G1 X87.664 Y58.367 E25.39591
G1 X89.207 Y59.910 E25.44058
G1 X89.207 Y60.254 E25.44763
G1 X87.664 Y58.711 E25.49231
G1 X87.664 Y59.056 E25.49936
G1 X89.207 Y60.598 E25.54404
G1 X89.038 Y60.774 E25.54902
G1 X87.664 Y59.400 E25.58882
G1 X87.664 Y59.744 E25.59588
G1 X88.694 Y60.774 E25.62570
G1 X88.350 Y60.774 E25.63275
G1 X87.545 Y59.969 E25.65606
G1 X87.200 Y59.969 E25.66311
G1 X88.005 Y60.774 E25.68642
G1 X87.661 Y60.774 E25.69347
G1 X86.856 Y59.969 E25.71678
G1 X86.512 Y59.969 E25.72383
G1 X87.317 Y60.774 E25.74714
G1 X86.972 Y60.774 E25.75419
G1 X86.167 Y59.969 E25.77750
G1 X85.823 Y59.969 E25.78455
G1 X86.628 Y60.774 E25.80786
G1 X86.284 Y60.774 E25.81491
G1 X85.479 Y59.969 E25.83822
G1 X85.134 Y59.969 E25.84527
G1 X85.939 Y60.774 E25.86858
G1 X85.595 Y60.774 E25.87563
G1 X84.790 Y59.969 E25.89894
G1 X84.446 Y59.969 E25.90599
G1 X85.251 Y60.774 E25.92929
G1 X84.906 Y60.774 E25.93635
G1 X84.101 Y59.969 E25.95965
G1 X83.757 Y59.969 E25.96670
G1 X84.562 Y60.774 E25.99001
G1 X84.218 Y60.774 E25.99706
G1 X83.413 Y59.969 E26.02037
G1 X83.068 Y59.969 E26.02742
G1 X83.873 Y60.774 E26.05073
G1 X83.529 Y60.774 E26.05778
G1 X82.724 Y59.969 E26.08109
