; generated by Slic3r 1.0.0RC1 on 2014-01-04 at 23:07:12

; layer_height = 0.2
; perimeters = 3
; top_solid_layers = 10
; bottom_solid_layers = 4
; fill_density = 0.2
; perimeter_speed = 50
; infill_speed = 50
; travel_speed = 150
; nozzle_diameter = 0.4
; filament_diameter = 1.74
; extrusion_multiplier = 1
; perimeters extrusion width = 0.40mm
; infill extrusion width = 0.67mm
; solid infill extrusion width = 0.67mm
; top infill extrusion width = 0.67mm
; first layer extrusion width = 0.20mm

G21 ; set units to millimeters
M107
G28 X0 Y0; home X and Y
M104 S205 ; set hotend temp, no wait.
M116 ; waiting for both temperatures
G28 Z0; home Z
M92 X80; calibrate X
M92 Y80; calibrate Y
M92 Z2387.0719; calibrate Z
M92 E65.35; calibrate E for direct drive
G90 ; use absolute coordinates
G92 E0
M82 ; use absolute distances for extrusion
G1 F1200.000 E-3.00000
G92 E0
G1 Z0.200 F9000.000
G1 X35.028 Y39.996 F9000.000
G1 E3.00000 F1200.000
G1 X36.098 Y39.166 E3.02767 F1800.000
G1 X46.208 Y32.786 E3.27193
G1 X47.928 Y32.016 E3.31043
G1 X49.798 Y31.746 E3.34903
G1 X89.718 Y31.746 E4.16467
G1 X91.528 Y31.996 E4.20200
G1 X93.208 Y32.726 E4.23943
G1 X103.798 Y39.156 E4.49256
G1 X104.898 Y39.986 E4.52071
G1 X105.808 Y41.026 E4.54895
G1 X106.478 Y42.226 E4.57703
G1 X106.898 Y43.536 E4.60514
G1 X107.038 Y44.906 E4.63328
G1 X107.038 Y55.136 E4.84229
G1 X106.898 Y56.506 E4.87043
G1 X106.478 Y57.826 E4.89873
G1 X105.798 Y59.026 E4.92691
G1 X104.888 Y60.066 E4.95515
G1 X103.778 Y60.896 E4.98347
G1 X93.188 Y67.276 E5.23607
G1 X91.518 Y67.996 E5.27323
G1 X89.718 Y68.246 E5.31036
G1 X49.798 Y68.246 E6.12599
G1 X47.928 Y67.976 E6.16460
G1 X46.208 Y67.206 E6.20310
G1 X36.098 Y60.826 E6.44736
G1 X35.028 Y59.996 E6.47503
G1 X34.148 Y58.966 E6.50271
G1 X33.498 Y57.776 E6.53041
G1 X33.098 Y56.486 E6.55800
G1 X32.958 Y55.136 E6.58574
G1 X32.958 Y44.856 E6.79577
G1 X33.098 Y43.506 E6.82350
G1 X33.498 Y42.216 E6.85110
G1 X34.148 Y41.026 E6.87880
G1 X35.004 Y40.024 E6.90574
G1 X35.198 Y40.176 F9000.000
G1 X36.228 Y39.376 E6.93239 F1800.000
G1 X46.338 Y32.996 E7.17664
G1 X47.998 Y32.246 E7.21386
G1 X49.798 Y31.986 E7.25102
G1 X89.718 Y31.986 E8.06665
G1 X91.468 Y32.226 E8.10274
G1 X93.088 Y32.936 E8.13888
G1 X103.678 Y39.366 E8.39202
G1 X104.728 Y40.166 E8.41899
G1 X105.608 Y41.166 E8.44620
G1 X106.258 Y42.316 E8.47319
G1 X106.658 Y43.586 E8.50040
G1 X106.798 Y44.906 E8.52752
G1 X106.798 Y55.136 E8.73654
G1 X106.658 Y56.456 E8.76366
G1 X106.248 Y57.726 E8.79093
G1 X105.598 Y58.886 E8.81809
G1 X104.718 Y59.886 E8.84531
G1 X103.658 Y60.696 E8.87257
G1 X93.068 Y67.076 E9.12517
G1 X91.458 Y67.766 E9.16096
G1 X89.718 Y68.006 E9.19685
G1 X49.798 Y68.006 E10.01248
G1 X47.998 Y67.746 E10.04964
G1 X46.338 Y66.996 E10.08686
G1 X36.228 Y60.616 E10.33112
G1 X35.198 Y59.816 E10.35776
G1 X34.348 Y58.826 E10.38442
G1 X33.718 Y57.676 E10.41122
G1 X33.338 Y56.436 E10.43771
G1 X33.198 Y55.136 E10.46443
G1 X33.198 Y44.856 E10.67447
G1 X33.338 Y43.556 E10.70118
G1 X33.718 Y42.316 E10.72768
G1 X34.348 Y41.166 E10.75447
G1 X35.174 Y40.204 E10.78039
G1 X35.368 Y40.346 F9000.000
G1 X36.358 Y39.576 E10.80601 F1800.000
G1 X46.468 Y33.196 E11.05027
G1 X48.068 Y32.476 E11.08612
G1 X49.798 Y32.236 E11.12180
G1 X89.718 Y32.236 E11.93744
G1 X91.398 Y32.466 E11.97208
G1 X92.958 Y33.136 E12.00677
G1 X103.548 Y39.566 E12.25991
G1 X104.568 Y40.346 E12.28614
G1 X105.408 Y41.306 E12.31221
G1 X106.038 Y42.416 E12.33828
G1 X106.418 Y43.636 E12.36439
G1 X106.548 Y44.906 E12.39047
G1 X106.548 Y55.136 E12.59949
G1 X106.418 Y56.416 E12.62578
G1 X106.028 Y57.636 E12.65195
G1 X105.398 Y58.746 E12.67803
G1 X104.558 Y59.716 E12.70424
G1 X103.528 Y60.486 E12.73052
G1 X92.938 Y66.866 E12.98312
G1 X91.388 Y67.526 E13.01754
G1 X89.718 Y67.756 E13.05199
G1 X49.798 Y67.756 E13.86762
G1 X48.068 Y67.516 E13.90331
G1 X46.468 Y66.796 E13.93916
G1 X36.358 Y60.416 E14.18341
G1 X35.368 Y59.646 E14.20904
G1 X34.548 Y58.686 E14.23483
G1 X33.948 Y57.586 E14.26043
G1 X33.568 Y56.386 E14.28615
G1 X33.448 Y55.136 E14.31181
G1 X33.448 Y44.856 E14.52185
G1 X33.568 Y43.606 E14.54751
G1 X33.948 Y42.406 E14.57322
G1 X34.548 Y41.306 E14.59882
G1 X35.344 Y40.374 E14.62388
G1 F1200.000 E11.62388
G92 E0
G1 X51.839 Y40.485 F9000.000
G1 E3.00000 F1200.000
G1 X60.458 Y40.485 E3.17610 F1800.000
G1 X60.458 Y59.657 E3.56781
G1 X51.839 Y59.657 E3.74390
G1 X51.839 Y40.522 E4.13487
G1 X52.082 Y40.728 F9000.000
G1 X60.215 Y40.728 E4.30104 F1800.000
G1 X60.215 Y59.414 E4.68282
G1 X52.082 Y59.414 E4.84899
G1 X52.082 Y40.765 E5.23003
G1 X52.325 Y40.971 F9000.000
G1 X59.972 Y40.971 E5.38628 F1080.000
G1 X59.972 Y59.171 E5.75813
G1 X52.325 Y59.171 E5.91438
G1 X52.325 Y41.008 E6.28549
G1 X52.325 Y40.728 F9000.000
G1 F1200.000 E3.28549
G92 E0
G1 X68.952 Y40.114 F9000.000
G1 E3.00000 F1200.000
G1 X87.261 Y40.114 E3.37409 F1800.000
G1 X87.261 Y59.806 E3.77642
G1 X68.952 Y59.806 E4.15051
G1 X68.952 Y40.150 E4.55210
G1 X69.195 Y40.357 F9000.000
G1 X87.018 Y40.357 E4.91626 F1800.000
G1 X87.018 Y59.563 E5.30867
G1 X69.195 Y59.563 E5.67284
G1 X69.195 Y40.393 E6.06450
G1 X69.438 Y40.600 F9000.000
G1 X86.776 Y40.600 E6.41874 F1080.000
G1 X86.776 Y59.320 E6.80122
G1 X69.438 Y59.320 E7.15545
G1 X69.438 Y40.636 E7.53719
G1 X69.438 Y40.357 F9000.000
G1 F1200.000 E4.53719
G92 E0
G1 X50.077 Y39.062 F9000.000
G1 E3.00000 F1200.000
G1 X89.456 Y39.062 E3.80458 F1800.000
G1 X94.037 Y44.169 E3.94475
G1 X94.037 Y55.831 E4.18301
G1 X89.456 Y60.938 E4.32319
G1 X50.077 Y60.938 E5.12776
G1 X45.636 Y55.668 E5.26857
G1 X43.010 Y54.553 E5.32687
G1 X40.273 Y54.553 E5.38278
G1 X40.273 Y45.447 E5.56883
G1 X43.010 Y45.447 E5.62475
G1 X45.636 Y44.332 E5.68304
G1 X50.054 Y39.090 E5.82311
G1 F1200.000 E2.82311
G92 E0
G1 X94.280 Y55.924 F9000.000
G1 E3.00000 F1200.000
G1 X89.565 Y61.181 E3.14429 F1800.000
G1 X49.964 Y61.181 E3.95339
G1 X45.488 Y55.869 E4.09532
G1 X42.961 Y54.796 E4.15142
G1 X40.030 Y54.796 E4.21129
G1 X40.030 Y45.204 E4.40727
G1 X42.961 Y45.204 E4.46713
G1 X45.488 Y44.131 E4.52323
G1 X49.964 Y38.819 E4.66516
G1 X89.565 Y38.819 E5.47427
G1 X94.280 Y44.076 E5.61855
G1 X94.280 Y55.887 E5.85987
G1 X94.522 Y56.017 F9000.000
G1 X89.673 Y61.424 E6.00827 F1080.000
G1 X49.851 Y61.424 E6.82190
G1 X45.339 Y56.070 E6.96495
G1 X42.911 Y55.039 E7.01886
G1 X39.788 Y55.039 E7.08268
G1 X39.788 Y44.961 E7.28858
G1 X42.911 Y44.961 E7.35240
G1 X45.339 Y43.930 E7.40631
G1 X49.851 Y38.576 E7.54936
G1 X89.673 Y38.576 E8.36299
G1 X94.522 Y43.983 E8.51139
G1 X94.522 Y55.980 E8.75650
G1 X94.280 Y56.025 F9000.000
G1 F1200.000 E5.75650
G92 E0
G1 X97.238 Y54.362 F9000.000
G1 E3.00000 F1200.000
G1 X97.238 Y45.501 E3.18105 F1080.000
G1 X99.727 Y45.501 E3.23191
G1 X99.727 Y54.518 E3.41614
G1 X97.274 Y54.364 E3.46635
G1 X96.995 Y54.590 F9000.000
G1 X96.995 Y45.258 E3.65702 F1080.000
G1 X99.970 Y45.258 E3.71781
G1 X99.970 Y54.776 E3.91228
G1 X97.031 Y54.593 E3.97244
G1 X96.752 Y54.818 F9000.000
G1 X96.752 Y45.015 E4.17274 F1080.000
G1 X100.212 Y45.015 E4.24345
G1 X100.212 Y55.035 E4.44818
G1 X96.788 Y54.821 E4.51828
G1 X96.878 Y54.611 F9000.000
G1 F1200.000 E1.51828
G92 E0
G1 X93.873 Y46.488 F9000.000
G1 E3.00000 F1200.000
G1 X87.425 Y40.041 E3.18679 F2160.000
G1 X87.425 Y40.386 E3.19384
G1 X93.873 Y46.833 E3.38063
G1 X93.873 Y47.177 E3.38769
G1 X87.425 Y40.730 E3.57448
G1 X87.425 Y41.074 E3.58153
G1 X93.873 Y47.522 E3.76832
G1 X93.873 Y47.866 E3.77538
G1 X87.425 Y41.419 E3.96216
G1 X87.425 Y41.763 E3.96922
G1 X93.873 Y48.211 E4.15601
G1 X93.873 Y48.555 E4.16306
G1 X87.425 Y42.108 E4.34985
G1 X87.425 Y42.452 E4.35691
G1 X93.873 Y48.900 E4.54370
G1 X93.873 Y49.244 E4.55075
G1 X87.425 Y42.797 E4.73754
G1 X87.425 Y43.141 E4.74460
G1 X93.873 Y49.589 E4.93138
G1 X93.873 Y49.933 E4.93844
G1 X87.425 Y43.486 E5.12523
G1 X87.425 Y43.830 E5.13228
G1 X93.873 Y50.277 E5.31907
G1 X93.873 Y50.622 E5.32613
G1 X87.425 Y44.174 E5.51291
G1 X87.425 Y44.519 E5.51997
G1 X93.873 Y50.966 E5.70676
G1 X93.873 Y51.311 E5.71381
G1 X87.425 Y44.863 E5.90060
G1 X87.425 Y45.208 E5.90766
G1 X93.873 Y51.655 E6.09445
G1 X93.873 Y52.000 E6.10150
G1 X87.425 Y45.552 E6.28829
G1 X87.425 Y45.897 E6.29535
G1 X93.873 Y52.344 E6.48213
G1 X93.873 Y52.689 E6.48919
G1 X87.425 Y46.241 E6.67598
G1 X87.425 Y46.586 E6.68303
G1 X93.873 Y53.033 E6.86982
G1 X93.873 Y53.377 E6.87688
G1 X87.425 Y46.930 E7.06367
G1 X87.425 Y47.275 E7.07072
G1 X93.873 Y53.722 E7.25751
G1 X93.873 Y54.066 E7.26457
G1 X87.425 Y47.619 E7.45135
G1 X87.425 Y47.963 E7.45841
G1 X93.873 Y54.411 E7.64520
G1 X93.873 Y54.755 E7.65225
G1 X87.425 Y48.308 E7.83904
G1 X87.425 Y48.652 E7.84610
G1 X93.873 Y55.100 E8.03289
G1 X93.873 Y55.444 E8.03994
G1 X87.425 Y48.997 E8.22673
G1 X87.425 Y49.341 E8.23379
G1 X93.863 Y55.779 E8.42029
G1 X93.700 Y55.960 E8.42529
G1 X87.425 Y49.686 E8.60707
G1 X87.425 Y50.030 E8.61413
G1 X93.537 Y56.142 E8.79120
G1 X93.374 Y56.324 E8.79620
G1 X87.425 Y50.375 E8.96855
G1 X87.425 Y50.719 E8.97560
G1 X93.211 Y56.505 E9.14324
G1 X93.049 Y56.687 E9.14823
G1 X87.425 Y51.063 E9.31115
G1 X87.425 Y51.408 E9.31820
G1 X92.886 Y56.868 E9.47640
G1 X92.723 Y57.050 E9.48140
G1 X87.425 Y51.752 E9.63488
G1 X87.425 Y52.097 E9.64193
G1 X92.560 Y57.232 E9.79069
G1 X92.397 Y57.413 E9.79569
G1 X87.425 Y52.441 E9.93973
G1 X87.425 Y52.786 E9.94679
G1 X92.234 Y57.595 E10.08611
G1 X92.072 Y57.776 E10.09111
G1 X87.425 Y53.130 E10.22572
G1 X87.425 Y53.475 E10.23277
G1 X91.909 Y57.958 E10.36266
G1 X91.746 Y58.140 E10.36766
G1 X87.425 Y53.819 E10.49283
G1 X87.425 Y54.163 E10.49988
G1 X91.583 Y58.321 E10.62034
G1 X91.420 Y58.503 E10.62533
G1 X87.425 Y54.508 E10.74107
G1 X87.425 Y54.852 E10.74812
G1 X91.257 Y58.684 E10.85914
G1 X91.094 Y58.866 E10.86414
G1 X87.425 Y55.197 E10.97044
G1 X87.425 Y55.541 E10.97749
G1 X90.932 Y59.048 E11.07907
G1 X90.769 Y59.229 E11.08407
G1 X87.425 Y55.886 E11.18093
G1 X87.425 Y56.230 E11.18799
G1 X90.606 Y59.411 E11.28013
G1 X90.443 Y59.592 E11.28513
G1 X87.425 Y56.575 E11.37255
G1 X87.425 Y56.919 E11.37961
G1 X90.280 Y59.774 E11.46232
G1 X90.117 Y59.955 E11.46732
G1 X87.425 Y57.263 E11.54531
G1 X87.425 Y57.608 E11.55236
G1 X89.954 Y60.137 E11.62563
G1 X89.792 Y60.319 E11.63063
G1 X87.425 Y57.952 E11.69919
G1 X87.425 Y58.297 E11.70624
G1 X89.629 Y60.500 E11.77008
G1 X89.462 Y60.678 E11.77507
G1 X87.425 Y58.641 E11.83407
G1 X87.425 Y58.986 E11.84113
G1 X89.214 Y60.774 E11.89294
G1 X88.869 Y60.774 E11.90000
G1 X87.425 Y59.330 E11.94184
G1 X87.425 Y59.675 E11.94889
G1 X88.525 Y60.774 E11.98075
G1 X88.181 Y60.774 E11.98781
G1 X87.376 Y59.969 E12.01113
G1 X87.031 Y59.969 E12.01818
G1 X87.836 Y60.774 E12.04150
G1 X87.492 Y60.774 E12.04855
G1 X86.687 Y59.969 E12.07187
G1 X86.342 Y59.969 E12.07893
G1 X87.147 Y60.774 E12.10224
G1 X86.803 Y60.774 E12.10930
G1 X85.998 Y59.969 E12.13261
G1 X85.653 Y59.969 E12.13967
G1 X86.458 Y60.774 E12.16299
G1 X86.114 Y60.774 E12.17004
G1 X85.309 Y59.969 E12.19336
G1 X84.965 Y59.969 E12.20042
G1 X85.769 Y60.774 E12.22373
G1 X85.425 Y60.774 E12.23079
G1 X84.620 Y59.969 E12.25410
G1 X84.276 Y59.969 E12.26116
G1 X85.080 Y60.774 E12.28448
G1 X84.736 Y60.774 E12.29153
G1 X83.931 Y59.969 E12.31485
G1 X83.587 Y59.969 E12.32190
G1 X84.392 Y60.774 E12.34522
G1 X84.047 Y60.774 E12.35228
G1 X83.242 Y59.969 E12.37559
G1 X82.898 Y59.969 E12.38265
G1 X83.703 Y60.774 E12.40596
G1 X83.358 Y60.774 E12.41302
G1 X82.553 Y59.969 E12.43634
G1 X82.209 Y59.969 E12.44339
G1 X83.014 Y60.774 E12.46671
G1 X82.669 Y60.774 E12.47377
G1 X81.865 Y59.969 E12.49708
G1 X81.520 Y59.969 E12.50414
G1 X82.325 Y60.774 E12.52745
G1 X81.980 Y60.774 E12.53451
G1 X81.176 Y59.969 E12.55783
G1 X80.831 Y59.969 E12.56488
G1 X81.636 Y60.774 E12.58820
G1 X81.292 Y60.774 E12.59525
G1 X80.487 Y59.969 E12.61857
G1 X80.142 Y59.969 E12.62563
G1 X80.947 Y60.774 E12.64894
G1 X80.603 Y60.774 E12.65600
G1 X79.798 Y59.969 E12.67931
G1 X79.453 Y59.969 E12.68637
G1 X80.258 Y60.774 E12.70969
G1 X79.914 Y60.774 E12.71674
G1 X79.109 Y59.969 E12.74006
G1 X78.765 Y59.969 E12.74712
G1 X79.569 Y60.774 E12.77043
G1 X79.225 Y60.774 E12.77749
G1 X78.420 Y59.969 E12.80080
G1 X78.076 Y59.969 E12.80786
G1 X78.880 Y60.774 E12.83118
G1 X78.536 Y60.774 E12.83823
G1 X77.731 Y59.969 E12.86155
G1 X77.387 Y59.969 E12.86860
G1 X78.192 Y60.774 E12.89192
G1 X77.847 Y60.774 E12.89898
G1 X77.042 Y59.969 E12.92229
G1 X76.698 Y59.969 E12.92935
G1 X77.503 Y60.774 E12.95267
G1 X77.158 Y60.774 E12.95972
G1 X76.353 Y59.969 E12.98304
G1 X76.009 Y59.969 E12.99009
G1 X76.814 Y60.774 E13.01341
G1 X76.469 Y60.774 E13.02047
G1 X75.665 Y59.969 E13.04378
G1 X75.320 Y59.969 E13.05084
G1 X76.125 Y60.774 E13.07415
G1 X75.780 Y60.774 E13.08121
G1 X74.976 Y59.969 E13.10453
G1 X74.631 Y59.969 E13.11158
G1 X75.436 Y60.774 E13.13490
G1 X75.092 Y60.774 E13.14195
G1 X74.287 Y59.969 E13.16527
G1 X73.942 Y59.969 E13.17233
G1 X74.747 Y60.774 E13.19564
G1 X74.403 Y60.774 E13.20270
G1 X73.598 Y59.969 E13.22602
G1 X73.253 Y59.969 E13.23307
G1 X74.058 Y60.774 E13.25639
G1 X73.714 Y60.774 E13.26344
G1 X72.909 Y59.969 E13.28676
G1 X72.564 Y59.969 E13.29382
G1 X73.369 Y60.774 E13.31713
G1 X73.025 Y60.774 E13.32419
G1 X72.220 Y59.969 E13.34750
G1 X71.876 Y59.969 E13.35456
G1 X72.680 Y60.774 E13.37788
G1 X72.336 Y60.774 E13.38493
G1 X71.531 Y59.969 E13.40825
G1 X71.187 Y59.969 E13.41531
G1 X71.992 Y60.774 E13.43862
G1 X71.647 Y60.774 E13.44568
G1 X70.842 Y59.969 E13.46899
G1 X70.498 Y59.969 E13.47605
G1 X71.303 Y60.774 E13.49937
G1 X70.958 Y60.774 E13.50642
G1 X70.153 Y59.969 E13.52974
G1 X69.809 Y59.969 E13.53679
G1 X70.614 Y60.774 E13.56011
G1 X70.269 Y60.774 E13.56717
G1 X69.464 Y59.969 E13.59048
G1 X69.120 Y59.969 E13.59754
G1 X69.925 Y60.774 E13.62085
G1 F1200.000 E10.62085
G92 E0
G1 X51.675 Y59.403 F9000.000
G1 E3.00000 F1200.000
G1 X40.437 Y48.165 E3.32558 F2160.000
G1 X40.437 Y47.820 E3.33264
G1 X51.675 Y59.058 E3.65822
G1 X51.675 Y58.714 E3.66528
G1 X40.437 Y47.476 E3.99086
G1 X40.437 Y47.131 E3.99791
G1 X51.675 Y58.369 E4.32349
G1 X51.675 Y58.025 E4.33055
G1 X40.437 Y46.787 E4.65613
G1 X40.437 Y46.442 E4.66319
G1 X51.675 Y57.681 E4.98877
G1 X51.675 Y57.336 E4.99583
G1 X40.437 Y46.098 E5.32141
G1 X40.437 Y45.754 E5.32846
G1 X51.675 Y56.992 E5.65405
G1 X51.675 Y56.647 E5.66110
G1 X40.639 Y45.611 E5.98084
G1 X40.984 Y45.611 E5.98789
G1 X51.675 Y56.303 E6.29765
G1 X51.675 Y55.958 E6.30470
G1 X41.328 Y45.611 E6.60448
G1 X41.672 Y45.611 E6.61154
G1 X51.675 Y55.614 E6.90133
G1 X51.675 Y55.269 E6.90839
G1 X42.017 Y45.611 E7.18821
G1 X42.361 Y45.611 E7.19526
G1 X51.675 Y54.925 E7.46510
G1 X51.675 Y54.581 E7.47216
G1 X42.706 Y45.611 E7.73202
G1 X43.048 Y45.609 E7.73903
G1 X51.675 Y54.236 E7.98897
G1 X51.675 Y53.892 E7.99603
G1 X43.290 Y45.506 E8.23897
G1 X43.532 Y45.403 E8.24435
G1 X51.675 Y53.547 E8.48028
G1 X51.675 Y53.203 E8.48734
G1 X43.773 Y45.301 E8.71626
G1 X44.015 Y45.198 E8.72165
G1 X51.675 Y52.858 E8.94357
G1 X51.675 Y52.514 E8.95063
G1 X44.257 Y45.095 E9.16555
G1 X44.499 Y44.993 E9.17093
G1 X51.675 Y52.169 E9.37885
G1 X51.675 Y51.825 E9.38590
G1 X44.740 Y44.890 E9.58681
G1 X44.982 Y44.787 E9.59220
G1 X51.675 Y51.481 E9.78610
G1 X51.675 Y51.136 E9.79316
G1 X45.224 Y44.685 E9.98007
G1 X45.466 Y44.582 E9.98545
G1 X51.675 Y50.792 E10.16535
G1 X51.675 Y50.447 E10.17240
G1 X45.708 Y44.479 E10.34530
G1 X45.875 Y44.302 E10.35029
G1 X51.675 Y50.103 E10.51834
G1 X51.675 Y49.758 E10.52539
G1 X46.033 Y44.115 E10.68887
G1 X46.190 Y43.929 E10.69388
G1 X51.675 Y49.414 E10.85279
G1 X51.675 Y49.069 E10.85985
G1 X46.348 Y43.742 E11.01420
G1 X46.505 Y43.555 E11.01921
G1 X51.675 Y48.725 E11.16900
G1 X51.675 Y48.381 E11.17606
G1 X46.663 Y43.368 E11.32128
G1 X46.820 Y43.181 E11.32629
G1 X51.675 Y48.036 E11.46695
G1 X51.675 Y47.692 E11.47400
G1 X46.978 Y42.994 E11.61010
G1 X47.135 Y42.807 E11.61511
G1 X51.675 Y47.347 E11.74664
G1 X51.675 Y47.003 E11.75370
G1 X47.293 Y42.620 E11.88067
G1 X47.450 Y42.433 E11.88567
G1 X51.675 Y46.658 E12.00808
G1 X51.675 Y46.314 E12.01514
G1 X47.608 Y42.246 E12.13298
G1 X47.765 Y42.059 E12.13798
G1 X51.675 Y45.969 E12.25126
G1 X51.675 Y45.625 E12.25832
G1 X47.923 Y41.872 E12.36703
G1 X48.080 Y41.686 E12.37204
G1 X51.675 Y45.280 E12.47619
G1 X51.675 Y44.936 E12.48325
G1 X48.238 Y41.499 E12.58283
