; generated by Slic3r 1.0.0RC1 on 2014-01-04 at 12:40:06

; layer_height = 0.2
; perimeters = 3
; top_solid_layers = 10
; bottom_solid_layers = 4
; fill_density = 0.2
; perimeter_speed = 60
; infill_speed = 60
; travel_speed = 150
; nozzle_diameter = 0.4
; filament_diameter = 1.74
; extrusion_multiplier = 1
; perimeters extrusion width = 0.40mm
; infill extrusion width = 0.67mm
; solid infill extrusion width = 0.67mm
; top infill extrusion width = 0.67mm
; first layer extrusion width = 0.20mm

G21 ; set units to millimeters
M107
G28 X0 Y0; home X and Y
M104 S205 ; set hotend temp, no wait.
M116 ; waiting for both temperatures
G28 Z0; home Z
M92 X80; calibrate X
M92 Y80; calibrate Y
M92 Z2387.0719; calibrate Z
M92 E65.35; calibrate E for direct drive
G90 ; use absolute coordinates
G92 E0
M82 ; use absolute distances for extrusion
G1 F1200.000 E-3.00000
G92 E0
G1 Z0.200 F9000.000
G1 X44.844 Y35.224 F9000.000
G1 E3.00000 F1200.000
G1 X45.674 Y34.204 E3.02687 F3240.000
G1 X46.694 Y33.374 E3.05374
G1 X47.864 Y32.744 E3.08089
G1 X49.124 Y32.364 E3.10778
G1 X50.434 Y32.234 E3.13467
G1 X89.564 Y32.234 E3.93417
G1 X90.874 Y32.364 E3.96106
G1 X92.134 Y32.744 E3.98795
G1 X93.304 Y33.374 E4.01510
G1 X94.324 Y34.204 E4.04197
G1 X95.154 Y35.224 E4.06884
G1 X95.784 Y36.394 E4.09599
G1 X96.164 Y37.654 E4.12288
G1 X96.294 Y38.964 E4.14978
G1 X96.294 Y61.034 E4.60071
G1 X96.164 Y62.344 E4.62760
G1 X95.784 Y63.604 E4.65449
G1 X95.154 Y64.774 E4.68164
G1 X94.324 Y65.794 E4.70851
G1 X93.304 Y66.624 E4.73538
G1 X92.134 Y67.254 E4.76253
G1 X90.874 Y67.634 E4.78942
G1 X89.564 Y67.764 E4.81632
G1 X50.434 Y67.764 E5.61581
G1 X49.124 Y67.634 E5.64271
G1 X47.864 Y67.254 E5.66960
G1 X46.694 Y66.624 E5.69675
G1 X45.674 Y65.794 E5.72362
G1 X44.844 Y64.774 E5.75048
G1 X44.214 Y63.604 E5.77764
G1 X43.834 Y62.344 E5.80452
G1 X43.704 Y61.034 E5.83142
G1 X43.704 Y38.964 E6.28235
G1 X43.834 Y37.654 E6.30925
G1 X44.214 Y36.394 E6.33614
G1 X44.826 Y35.256 E6.36254
G1 X45.044 Y35.364 F9000.000
G1 X45.844 Y34.374 E6.38855 F3240.000
G1 X46.834 Y33.574 E6.41455
G1 X47.954 Y32.974 E6.44052
G1 X49.164 Y32.604 E6.46637
G1 X50.434 Y32.474 E6.49245
G1 X89.564 Y32.474 E7.29195
G1 X90.834 Y32.604 E7.31803
G1 X92.044 Y32.974 E7.34388
G1 X93.164 Y33.574 E7.36984
G1 X94.154 Y34.374 E7.39585
G1 X94.954 Y35.364 E7.42185
G1 X95.554 Y36.484 E7.44782
G1 X95.924 Y37.694 E7.47367
G1 X96.054 Y38.964 E7.49975
G1 X96.054 Y61.034 E7.95068
G1 X95.924 Y62.304 E7.97676
G1 X95.554 Y63.514 E8.00262
G1 X94.954 Y64.634 E8.02858
G1 X94.154 Y65.624 E8.05458
G1 X93.164 Y66.424 E8.08059
G1 X92.044 Y67.024 E8.10655
G1 X90.834 Y67.394 E8.13240
G1 X89.564 Y67.524 E8.15849
G1 X50.434 Y67.524 E8.95798
G1 X49.164 Y67.394 E8.98406
G1 X47.954 Y67.024 E9.00992
G1 X46.834 Y66.424 E9.03588
G1 X45.844 Y65.624 E9.06188
G1 X45.044 Y64.634 E9.08789
G1 X44.444 Y63.514 E9.11385
G1 X44.074 Y62.304 E9.13970
G1 X43.944 Y61.034 E9.16579
G1 X43.944 Y38.964 E9.61671
G1 X44.074 Y37.694 E9.64280
G1 X44.444 Y36.484 E9.66865
G1 X45.026 Y35.396 E9.69387
G1 X45.244 Y35.494 F9000.000
G1 X46.024 Y34.554 E9.71882 F3240.000
G1 X46.964 Y33.774 E9.74378
G1 X48.044 Y33.194 E9.76883
G1 X49.214 Y32.844 E9.79378
G1 X50.434 Y32.724 E9.81883
G1 X89.564 Y32.724 E10.61832
G1 X90.784 Y32.844 E10.64337
G1 X91.954 Y33.194 E10.66832
G1 X93.034 Y33.774 E10.69337
G1 X93.974 Y34.554 E10.71832
G1 X94.754 Y35.494 E10.74328
G1 X95.334 Y36.574 E10.76833
G1 X95.684 Y37.744 E10.79328
G1 X95.804 Y38.964 E10.81833
G1 X95.804 Y61.034 E11.26926
G1 X95.684 Y62.254 E11.29430
G1 X95.334 Y63.424 E11.31925
G1 X94.754 Y64.504 E11.34430
G1 X93.974 Y65.444 E11.36926
G1 X93.034 Y66.224 E11.39421
G1 X91.954 Y66.804 E11.41926
G1 X90.784 Y67.154 E11.44421
G1 X89.564 Y67.274 E11.46926
G1 X50.434 Y67.274 E12.26876
G1 X49.214 Y67.154 E12.29380
G1 X48.044 Y66.804 E12.31875
G1 X46.964 Y66.224 E12.34380
G1 X46.024 Y65.444 E12.36876
G1 X45.244 Y64.504 E12.39371
G1 X44.664 Y63.424 E12.41876
G1 X44.314 Y62.254 E12.44371
G1 X44.194 Y61.034 E12.46876
G1 X44.194 Y38.964 E12.91969
G1 X44.314 Y37.744 E12.94474
G1 X44.664 Y36.574 E12.96969
G1 X45.226 Y35.526 E12.99399
G1 F1200.000 E9.99399
G92 E0
G1 X51.020 Y39.550 F9000.000
G1 E3.00000 F1200.000
G1 X88.980 Y39.550 E3.77561 F3240.000
G1 X88.980 Y60.450 E4.20262
G1 X51.020 Y60.450 E4.97823
G1 X51.020 Y39.587 E5.40450
G1 F1200.000 E2.40450
G92 E0
G1 X89.223 Y39.307 F9000.000
G1 E3.00000 F1200.000
G1 X89.223 Y60.693 E3.43694 F3240.000
G1 X50.777 Y60.693 E4.22248
G1 X50.777 Y39.307 E4.65942
G1 X89.187 Y39.307 E5.44421
G1 X89.466 Y39.064 F9000.000
G1 X89.466 Y60.936 E5.89108 F1944.000
G1 X50.534 Y60.936 E6.68654
G1 X50.534 Y39.064 E7.13340
G1 X89.430 Y39.064 E7.92812
G1 X89.345 Y39.275 F9000.000
G1 X88.817 Y39.738 F9000.000
G1 X88.792 Y39.714 E7.92882 F3240.000
G1 X88.448 Y39.714 E7.93587
G1 X88.817 Y40.083 E7.94653
G1 X88.817 Y40.427 E7.95357
G1 X88.104 Y39.714 E7.97419
G1 X87.760 Y39.714 E7.98124
G1 X88.817 Y40.771 E8.01182
G1 X88.817 Y41.115 E8.01886
G1 X87.416 Y39.714 E8.05940
G1 X87.072 Y39.714 E8.06644
G1 X88.817 Y41.459 E8.11695
G1 X88.817 Y41.803 E8.12399
G1 X86.728 Y39.714 E8.18445
G1 X86.383 Y39.714 E8.19149
G1 X88.817 Y42.147 E8.26192
G1 X88.817 Y42.491 E8.26896
G1 X86.039 Y39.714 E8.34934
G1 X85.695 Y39.714 E8.35638
G1 X88.817 Y42.835 E8.44672
G1 X88.817 Y43.180 E8.45377
G1 X85.351 Y39.714 E8.55407
G1 X85.007 Y39.714 E8.56111
G1 X88.817 Y43.524 E8.67137
G1 X88.817 Y43.868 E8.67842
G1 X84.663 Y39.714 E8.79864
G1 X84.319 Y39.714 E8.80568
G1 X88.817 Y44.212 E8.93586
G1 X88.817 Y44.556 E8.94291
G1 X83.975 Y39.714 E9.08305
G1 X83.630 Y39.714 E9.09009
G1 X88.817 Y44.900 E9.24019
G1 X88.817 Y45.244 E9.24724
G1 X83.286 Y39.714 E9.40730
G1 X82.942 Y39.714 E9.41434
G1 X88.817 Y45.588 E9.58436
G1 X88.817 Y45.933 E9.59141
G1 X82.598 Y39.714 E9.77139
G1 X82.254 Y39.714 E9.77843
G1 X88.817 Y46.277 E9.96837
G1 X88.817 Y46.621 E9.97541
G1 X81.910 Y39.714 E10.17532
G1 X81.566 Y39.714 E10.18236
G1 X88.817 Y46.965 E10.39222
G1 X88.817 Y47.309 E10.39926
G1 X81.222 Y39.714 E10.61909
G1 X80.878 Y39.714 E10.62613
G1 X88.817 Y47.653 E10.85591
G1 X88.817 Y47.997 E10.86295
G1 X80.533 Y39.714 E11.10270
G1 X80.189 Y39.714 E11.10974
G1 X88.817 Y48.341 E11.35944
G1 X88.817 Y48.685 E11.36648
G1 X79.845 Y39.714 E11.62615
G1 X79.501 Y39.714 E11.63319
G1 X88.817 Y49.030 E11.90281
G1 X88.817 Y49.374 E11.90985
G1 X79.157 Y39.714 E12.18944
G1 X78.813 Y39.714 E12.19648
G1 X88.817 Y49.718 E12.48602
G1 X88.817 Y50.062 E12.49306
G1 X78.469 Y39.714 E12.79257
G1 X78.125 Y39.714 E12.79961
G1 X88.817 Y50.406 E13.10907
G1 X88.817 Y50.750 E13.11611
G1 X77.780 Y39.714 E13.43554
G1 X77.436 Y39.714 E13.44258
G1 X88.817 Y51.094 E13.77196
G1 X88.817 Y51.438 E13.77900
G1 X77.092 Y39.714 E14.11835
G1 X76.748 Y39.714 E14.12539
G1 X88.817 Y51.783 E14.47469
G1 X88.817 Y52.127 E14.48174
G1 X76.404 Y39.714 E14.84100
G1 X76.060 Y39.714 E14.84804
G1 X88.817 Y52.471 E15.21726
G1 X88.817 Y52.815 E15.22431
G1 X75.716 Y39.714 E15.60349
G1 X75.372 Y39.714 E15.61053
G1 X88.817 Y53.159 E15.99967
G1 X88.817 Y53.503 E16.00672
G1 X75.028 Y39.714 E16.40582
G1 X74.683 Y39.714 E16.41286
G1 X88.817 Y53.847 E16.82192
G1 X88.817 Y54.191 E16.82897
G1 X74.339 Y39.714 E17.24799
G1 X73.995 Y39.714 E17.25503
G1 X88.817 Y54.536 E17.68401
G1 X88.817 Y54.880 E17.69106
G1 X73.651 Y39.714 E18.13000
G1 X73.307 Y39.714 E18.13704
G1 X88.817 Y55.224 E18.58594
G1 X88.817 Y55.568 E18.59299
G1 X72.963 Y39.714 E19.05185
G1 X72.619 Y39.714 E19.05889
G1 X88.817 Y55.912 E19.52772
G1 X88.817 Y56.256 E19.53476
G1 X72.275 Y39.714 E20.01354
G1 X71.930 Y39.714 E20.02058
G1 X88.817 Y56.600 E20.50933
G1 X88.817 Y56.944 E20.51637
G1 X71.586 Y39.714 E21.01507
G1 X71.242 Y39.714 E21.02211
G1 X88.817 Y57.288 E21.53078
G1 X88.817 Y57.633 E21.53782
G1 X70.898 Y39.714 E22.05644
G1 X70.554 Y39.714 E22.06349
G1 X88.817 Y57.977 E22.59207
G1 X88.817 Y58.321 E22.59911
G1 X70.210 Y39.714 E23.13765
G1 X69.866 Y39.714 E23.14470
G1 X88.817 Y58.665 E23.69320
G1 X88.817 Y59.009 E23.70024
G1 X69.522 Y39.714 E24.25871
G1 X69.177 Y39.714 E24.26575
G1 X88.817 Y59.353 E24.83417
G1 X88.817 Y59.697 E24.84121
G1 X68.833 Y39.714 E25.41960
G1 X68.489 Y39.714 E25.42664
G1 X88.817 Y60.041 E26.01498
G1 X88.717 Y60.286 E26.02038
G1 X68.145 Y39.714 E26.61580
G1 X67.801 Y39.714 E26.62284
G1 X88.373 Y60.286 E27.21826
G1 X88.029 Y60.286 E27.22530
G1 X67.457 Y39.714 E27.82072
G1 X67.113 Y39.714 E27.82776
G1 X87.684 Y60.286 E28.42318
G1 X87.340 Y60.286 E28.43022
G1 X66.769 Y39.714 E29.02564
G1 X66.425 Y39.714 E29.03268
G1 X86.996 Y60.286 E29.62810
G1 X86.652 Y60.286 E29.63514
G1 X66.080 Y39.714 E30.23056
G1 X65.736 Y39.714 E30.23760
G1 X86.308 Y60.286 E30.83302
G1 X85.964 Y60.286 E30.84006
G1 X65.392 Y39.714 E31.43548
G1 X65.048 Y39.714 E31.44252
G1 X85.620 Y60.286 E32.03794
G1 X85.276 Y60.286 E32.04498
G1 X64.704 Y39.714 E32.64040
G1 X64.360 Y39.714 E32.64744
G1 X84.932 Y60.286 E33.24286
G1 X84.587 Y60.286 E33.24990
G1 X64.016 Y39.714 E33.84532
G1 X63.672 Y39.714 E33.85236
G1 X84.243 Y60.286 E34.44778
G1 X83.899 Y60.286 E34.45482
G1 X63.327 Y39.714 E35.05023
G1 X62.983 Y39.714 E35.05728
G1 X83.555 Y60.286 E35.65269
G1 X83.211 Y60.286 E35.65974
G1 X62.639 Y39.714 E36.25515
G1 X62.295 Y39.714 E36.26220
G1 X82.867 Y60.286 E36.85761
G1 X82.523 Y60.286 E36.86466
G1 X61.951 Y39.714 E37.46007
G1 X61.607 Y39.714 E37.46712
G1 X82.179 Y60.286 E38.06253
G1 X81.834 Y60.286 E38.06958
G1 X61.263 Y39.714 E38.66499
G1 X60.919 Y39.714 E38.67204
G1 X81.490 Y60.286 E39.26745
G1 X81.146 Y60.286 E39.27449
G1 X60.574 Y39.714 E39.86991
G1 X60.230 Y39.714 E39.87695
G1 X80.802 Y60.286 E40.47237
G1 X80.458 Y60.286 E40.47941
G1 X59.886 Y39.714 E41.07483
G1 X59.542 Y39.714 E41.08187
G1 X80.114 Y60.286 E41.67729
G1 X79.770 Y60.286 E41.68433
G1 X59.198 Y39.714 E42.27975
G1 X58.854 Y39.714 E42.28679
G1 X79.426 Y60.286 E42.88221
G1 X79.081 Y60.286 E42.88925
G1 X58.510 Y39.714 E43.48467
G1 X58.166 Y39.714 E43.49171
G1 X78.737 Y60.286 E44.08713
G1 X78.393 Y60.286 E44.09417
G1 X57.822 Y39.714 E44.68959
G1 X57.477 Y39.714 E44.69663
G1 X78.049 Y60.286 E45.29205
G1 X77.705 Y60.286 E45.29909
G1 X57.133 Y39.714 E45.89451
G1 X56.789 Y39.714 E45.90155
G1 X77.361 Y60.286 E46.49697
G1 X77.017 Y60.286 E46.50401
G1 X56.445 Y39.714 E47.09943
G1 X56.101 Y39.714 E47.10647
G1 X76.673 Y60.286 E47.70189
G1 X76.329 Y60.286 E47.70893
G1 X55.757 Y39.714 E48.30435
G1 X55.413 Y39.714 E48.31139
G1 X75.984 Y60.286 E48.90680
G1 X75.640 Y60.286 E48.91385
G1 X55.069 Y39.714 E49.50926
G1 X54.724 Y39.714 E49.51631
G1 X75.296 Y60.286 E50.11172
G1 X74.952 Y60.286 E50.11877
G1 X54.380 Y39.714 E50.71418
G1 X54.036 Y39.714 E50.72123
G1 X74.608 Y60.286 E51.31664
G1 X74.264 Y60.286 E51.32369
G1 X53.692 Y39.714 E51.91910
G1 X53.348 Y39.714 E51.92615
G1 X73.920 Y60.286 E52.52156
G1 X73.576 Y60.286 E52.52861
G1 X53.004 Y39.714 E53.12402
G1 X52.660 Y39.714 E53.13106
G1 X73.231 Y60.286 E53.72648
G1 X72.887 Y60.286 E53.73352
G1 X52.316 Y39.714 E54.32894
G1 X51.972 Y39.714 E54.33598
G1 X72.543 Y60.286 E54.93140
G1 X72.199 Y60.286 E54.93844
G1 X51.627 Y39.714 E55.53386
G1 X51.283 Y39.714 E55.54090
G1 X71.855 Y60.286 E56.13632
G1 X71.511 Y60.286 E56.14336
G1 X51.183 Y39.958 E56.73171
G1 X51.183 Y40.303 E56.73875
G1 X71.167 Y60.286 E57.31714
G1 X70.823 Y60.286 E57.32418
G1 X51.183 Y40.647 E57.89260
G1 X51.183 Y40.991 E57.89965
G1 X70.478 Y60.286 E58.45811
G1 X70.134 Y60.286 E58.46515
G1 X51.183 Y41.335 E59.01366
G1 X51.183 Y41.679 E59.02070
G1 X69.790 Y60.286 E59.55925
G1 X69.446 Y60.286 E59.56629
G1 X51.183 Y42.023 E60.09488
G1 X51.183 Y42.367 E60.10192
G1 X69.102 Y60.286 E60.62054
G1 X68.758 Y60.286 E60.62759
G1 X51.183 Y42.711 E61.13625
G1 X51.183 Y43.056 E61.14330
G1 X68.414 Y60.286 E61.64200
G1 X68.070 Y60.286 E61.64904
G1 X51.183 Y43.400 E62.13779
G1 X51.183 Y43.744 E62.14483
G1 X67.726 Y60.286 E62.62362
G1 X67.381 Y60.286 E62.63066
G1 X51.183 Y44.088 E63.09948
G1 X51.183 Y44.432 E63.10653
G1 X67.037 Y60.286 E63.56539
G1 X66.693 Y60.286 E63.57243
G1 X51.183 Y44.776 E64.02134
G1 X51.183 Y45.120 E64.02838
G1 X66.349 Y60.286 E64.46733
G1 X66.005 Y60.286 E64.47437
G1 X51.183 Y45.464 E64.90336
G1 X51.183 Y45.808 E64.91040
G1 X65.661 Y60.286 E65.32942
G1 X65.317 Y60.286 E65.33647
G1 X51.183 Y46.153 E65.74553
G1 X51.183 Y46.497 E65.75257
G1 X64.973 Y60.286 E66.15168
G1 X64.628 Y60.286 E66.15872
G1 X51.183 Y46.841 E66.54787
G1 X51.183 Y47.185 E66.55491
G1 X64.284 Y60.286 E66.93409
G1 X63.940 Y60.286 E66.94114
G1 X51.183 Y47.529 E67.31036
G1 X51.183 Y47.873 E67.31741
G1 X63.596 Y60.286 E67.67667
G1 X63.252 Y60.286 E67.68371
G1 X51.183 Y48.217 E68.03302
G1 X51.183 Y48.561 E68.04006
G1 X62.908 Y60.286 E68.37941
G1 X62.564 Y60.286 E68.38645
G1 X51.183 Y48.906 E68.71583
G1 X51.183 Y49.250 E68.72288
G1 X62.220 Y60.286 E69.04230
G1 X61.875 Y60.286 E69.04934
G1 X51.183 Y49.594 E69.35881
G1 X51.183 Y49.938 E69.36585
G1 X61.531 Y60.286 E69.66536
G1 X61.187 Y60.286 E69.67240
G1 X51.183 Y50.282 E69.96194
G1 X51.183 Y50.626 E69.96899
G1 X60.843 Y60.286 E70.24857
G1 X60.499 Y60.286 E70.25561
G1 X51.183 Y50.970 E70.52524
G1 X51.183 Y51.314 E70.53228
G1 X60.155 Y60.286 E70.79195
G1 X59.811 Y60.286 E70.79899
G1 X51.183 Y51.659 E71.04869
G1 X51.183 Y52.003 E71.05574
G1 X59.467 Y60.286 E71.29548
G1 X59.123 Y60.286 E71.30252
G1 X51.183 Y52.347 E71.53231
G1 X51.183 Y52.691 E71.53935
G1 X58.778 Y60.286 E71.75918
G1 X58.434 Y60.286 E71.76622
G1 X51.183 Y53.035 E71.97608
G1 X51.183 Y53.379 E71.98313
G1 X58.090 Y60.286 E72.18303
G1 X57.746 Y60.286 E72.19007
G1 X51.183 Y53.723 E72.38002
G1 X51.183 Y54.067 E72.38706
G1 X57.402 Y60.286 E72.56705
G1 X57.058 Y60.286 E72.57409
G1 X51.183 Y54.411 E72.74411
G1 X51.183 Y54.756 E72.75116
G1 X56.714 Y60.286 E72.91122
G1 X56.370 Y60.286 E72.91826
G1 X51.183 Y55.100 E73.06837
G1 X51.183 Y55.444 E73.07541
G1 X56.025 Y60.286 E73.21556
G1 X55.681 Y60.286 E73.22260
G1 X51.183 Y55.788 E73.35278
G1 X51.183 Y56.132 E73.35983
G1 X55.337 Y60.286 E73.48005
G1 X54.993 Y60.286 E73.48709
G1 X51.183 Y56.476 E73.59736
G1 X51.183 Y56.820 E73.60440
G1 X54.649 Y60.286 E73.70470
G1 X54.305 Y60.286 E73.71175
G1 X51.183 Y57.164 E73.80209
G1 X51.183 Y57.509 E73.80913
G1 X53.961 Y60.286 E73.88952
G1 X53.617 Y60.286 E73.89656
G1 X51.183 Y57.853 E73.96699
G1 X51.183 Y58.197 E73.97403
G1 X53.273 Y60.286 E74.03449
G1 X52.928 Y60.286 E74.04154
G1 X51.183 Y58.541 E74.09204
G1 X51.183 Y58.885 E74.09908
G1 X52.584 Y60.286 E74.13963
G1 X52.240 Y60.286 E74.14667
G1 X51.183 Y59.229 E74.17725
G1 X51.183 Y59.573 E74.18430
G1 X51.896 Y60.286 E74.20492
G1 X51.552 Y60.286 E74.21196
G1 X51.183 Y59.917 E74.22263
G1 X51.183 Y60.262 E74.22967
G1 X51.208 Y60.286 E74.23038
M106 S192
G1 F1200.000 E71.23038
G92 E0
G1 Z0.400 F9000.000
G1 X51.434 Y60.036 F9000.000
G1 E3.00000 F1200.000
G1 X51.434 Y39.964 E3.67527 F3600
G1 X88.566 Y39.964 E4.92454
G1 X88.566 Y60.036 E5.59981
G1 X51.494 Y60.036 E6.84706
G1 F1200.000 E3.84706
G92 E0
G1 X88.966 Y60.436 F9000.000
G1 E3.00000 F1200.000
G1 X51.034 Y60.436 E4.27619 F3600
G1 X51.034 Y39.564 E4.97837
G1 X88.966 Y39.564 E6.25456
G1 X88.966 Y60.376 E6.95472
G1 X89.366 Y60.836 F9000.000
G1 X50.634 Y60.836 E8.25782 F2160
G1 X50.634 Y39.164 E8.98692
G1 X89.366 Y39.164 E10.29002
G1 X89.366 Y60.776 E11.01710
G1 X89.020 Y60.636 F9000.000
G1 X88.257 Y59.662 F9000.000
G1 X88.193 Y59.726 E11.02193 F3600
G1 X87.292 Y59.726 E11.07017
G1 X88.257 Y58.762 E11.14321
G1 X88.257 Y57.861 E11.19145
G1 X86.392 Y59.726 E11.33272
G1 X85.491 Y59.726 E11.38096
G1 X88.257 Y56.961 E11.59045
G1 X88.257 Y56.060 E11.63869
G1 X84.591 Y59.726 E11.91641
G1 X83.690 Y59.726 E11.96465
G1 X88.257 Y55.159 E12.31058
G1 X88.257 Y54.259 E12.35882
G1 X82.789 Y59.726 E12.77298
G1 X81.889 Y59.726 E12.82122
G1 X88.257 Y53.358 E13.30360
G1 X88.257 Y52.457 E13.35184
G1 X80.988 Y59.726 E13.90244
G1 X80.088 Y59.726 E13.95068
G1 X88.257 Y51.557 E14.56951
G1 X88.257 Y50.656 E14.61775
G1 X79.187 Y59.726 E15.30479
G1 X78.286 Y59.726 E15.35303
G1 X88.257 Y49.756 E16.10830
G1 X88.257 Y48.855 E16.15654
G1 X77.386 Y59.726 E16.98003
G1 X76.485 Y59.726 E17.02827
G1 X88.257 Y47.954 E17.91998
G1 X88.257 Y47.054 E17.96823
G1 X75.584 Y59.726 E18.92816
