; generated by Slic3r 1.0.0RC1 on 2014-01-04 at 13:27:25

; layer_height = 0.2
; perimeters = 3
; top_solid_layers = 10
; bottom_solid_layers = 4
; fill_density = 0.2
; perimeter_speed = 60
; infill_speed = 60
; travel_speed = 150
; nozzle_diameter = 0.4
; filament_diameter = 1.74
; extrusion_multiplier = 1
; perimeters extrusion width = 0.40mm
; infill extrusion width = 0.67mm
; solid infill extrusion width = 0.67mm
; top infill extrusion width = 0.67mm
; first layer extrusion width = 0.20mm

G21 ; set units to millimeters
M107
G28 X0 Y0; home X and Y
M104 S205 ; set hotend temp, no wait.
M116 ; waiting for both temperatures
G28 Z0; home Z
M92 X80; calibrate X
M92 Y80; calibrate Y
M92 Z2387.0719; calibrate Z
M92 E65.35; calibrate E for direct drive
G90 ; use absolute coordinates
G92 E0
M82 ; use absolute distances for extrusion
G1 F1200.000 E-3.00000
G92 E0
G1 Z0.200 F9000.000
G1 X44.844 Y35.224 F9000.000
G1 E3.00000 F1200.000
G1 X45.674 Y34.204 E3.02687 F3240.000
G1 X46.694 Y33.374 E3.05374
G1 X47.864 Y32.744 E3.08089
G1 X49.124 Y32.364 E3.10778
G1 X50.434 Y32.234 E3.13467
G1 X89.564 Y32.234 E3.93417
G1 X90.874 Y32.364 E3.96106
G1 X92.134 Y32.744 E3.98795
G1 X93.304 Y33.374 E4.01510
G1 X94.324 Y34.204 E4.04197
G1 X95.154 Y35.224 E4.06884
G1 X95.784 Y36.394 E4.09599
G1 X96.164 Y37.654 E4.12288
G1 X96.294 Y38.964 E4.14978
G1 X96.294 Y61.034 E4.60071
G1 X96.164 Y62.344 E4.62760
G1 X95.784 Y63.604 E4.65449
G1 X95.154 Y64.774 E4.68164
G1 X94.324 Y65.794 E4.70851
G1 X93.304 Y66.624 E4.73538
G1 X92.134 Y67.254 E4.76253
G1 X90.874 Y67.634 E4.78942
G1 X89.564 Y67.764 E4.81632
G1 X50.434 Y67.764 E5.61581
G1 X49.124 Y67.634 E5.64271
G1 X47.864 Y67.254 E5.66960
G1 X46.694 Y66.624 E5.69675
G1 X45.674 Y65.794 E5.72362
G1 X44.844 Y64.774 E5.75048
G1 X44.214 Y63.604 E5.77764
G1 X43.834 Y62.344 E5.80452
G1 X43.704 Y61.034 E5.83142
G1 X43.704 Y38.964 E6.28235
G1 X43.834 Y37.654 E6.30925
G1 X44.214 Y36.394 E6.33614
G1 X44.826 Y35.256 E6.36254
G1 X45.044 Y35.364 F9000.000
G1 X45.844 Y34.374 E6.38855 F3240.000
G1 X46.834 Y33.574 E6.41455
G1 X47.954 Y32.974 E6.44052
G1 X49.164 Y32.604 E6.46637
G1 X50.434 Y32.474 E6.49245
G1 X89.564 Y32.474 E7.29195
G1 X90.834 Y32.604 E7.31803
G1 X92.044 Y32.974 E7.34388
G1 X93.164 Y33.574 E7.36984
G1 X94.154 Y34.374 E7.39585
G1 X94.954 Y35.364 E7.42185
G1 X95.554 Y36.484 E7.44782
G1 X95.924 Y37.694 E7.47367
G1 X96.054 Y38.964 E7.49975
G1 X96.054 Y61.034 E7.95068
G1 X95.924 Y62.304 E7.97676
G1 X95.554 Y63.514 E8.00262
G1 X94.954 Y64.634 E8.02858
G1 X94.154 Y65.624 E8.05458
G1 X93.164 Y66.424 E8.08059
G1 X92.044 Y67.024 E8.10655
G1 X90.834 Y67.394 E8.13240
G1 X89.564 Y67.524 E8.15849
G1 X50.434 Y67.524 E8.95798
G1 X49.164 Y67.394 E8.98406
G1 X47.954 Y67.024 E9.00992
G1 X46.834 Y66.424 E9.03588
G1 X45.844 Y65.624 E9.06188
G1 X45.044 Y64.634 E9.08789
G1 X44.444 Y63.514 E9.11385
G1 X44.074 Y62.304 E9.13970
G1 X43.944 Y61.034 E9.16579
G1 X43.944 Y38.964 E9.61671
G1 X44.074 Y37.694 E9.64280
G1 X44.444 Y36.484 E9.66865
G1 X45.026 Y35.396 E9.69387
G1 X45.244 Y35.494 F9000.000
G1 X46.024 Y34.554 E9.71882 F3240.000
G1 X46.964 Y33.774 E9.74378
G1 X48.044 Y33.194 E9.76883
G1 X49.214 Y32.844 E9.79378
G1 X50.434 Y32.724 E9.81883
G1 X89.564 Y32.724 E10.61832
G1 X90.784 Y32.844 E10.64337
G1 X91.954 Y33.194 E10.66832
G1 X93.034 Y33.774 E10.69337
G1 X93.974 Y34.554 E10.71832
G1 X94.754 Y35.494 E10.74328
G1 X95.334 Y36.574 E10.76833
G1 X95.684 Y37.744 E10.79328
G1 X95.804 Y38.964 E10.81833
G1 X95.804 Y61.034 E11.26926
G1 X95.684 Y62.254 E11.29430
G1 X95.334 Y63.424 E11.31925
G1 X94.754 Y64.504 E11.34430
G1 X93.974 Y65.444 E11.36926
G1 X93.034 Y66.224 E11.39421
G1 X91.954 Y66.804 E11.41926
G1 X90.784 Y67.154 E11.44421
G1 X89.564 Y67.274 E11.46926
G1 X50.434 Y67.274 E12.26876
G1 X49.214 Y67.154 E12.29380
G1 X48.044 Y66.804 E12.31875
G1 X46.964 Y66.224 E12.34380
G1 X46.024 Y65.444 E12.36876
G1 X45.244 Y64.504 E12.39371
G1 X44.664 Y63.424 E12.41876
G1 X44.314 Y62.254 E12.44371
G1 X44.194 Y61.034 E12.46876
G1 X44.194 Y38.964 E12.91969
G1 X44.314 Y37.744 E12.94474
G1 X44.664 Y36.574 E12.96969
G1 X45.226 Y35.526 E12.99399
G1 F1200.000 E9.99399
G92 E0
G1 X69.213 Y41.760 F9000.000
G1 E3.00000 F1200.000
G1 X87.522 Y41.760 E3.37409 F3240.000
G1 X87.522 Y58.072 E3.70737
G1 X69.213 Y58.072 E4.08146
G1 X69.213 Y41.796 E4.41400
G1 X69.456 Y42.003 F9000.000
G1 X87.279 Y42.003 E4.77816 F3240.000
G1 X87.279 Y57.829 E5.10152
G1 X69.456 Y57.829 E5.46568
G1 X69.456 Y42.039 E5.78830
G1 X69.699 Y42.246 F9000.000
G1 X87.036 Y42.246 E6.14253 F1944.000
G1 X87.036 Y57.586 E6.45597
G1 X69.699 Y57.586 E6.81020
G1 X69.699 Y42.282 E7.12289
G1 X69.699 Y42.003 F9000.000
G1 F1200.000 E4.12289
G92 E0
G1 X51.020 Y39.550 F9000.000
G1 E3.00000 F1200.000
G1 X88.980 Y39.550 E3.77561 F3240.000
G1 X88.980 Y60.450 E4.20262
G1 X51.020 Y60.450 E4.97823
G1 X51.020 Y39.587 E5.40450
G1 F1200.000 E2.40450
G92 E0
G1 X50.777 Y60.693 F9000.000
G1 E3.00000 F1200.000
G1 X50.777 Y39.307 E3.43694 F3240.000
G1 X89.223 Y39.307 E4.22248
G1 X89.223 Y60.693 E4.65942
G1 X50.813 Y60.693 E5.44421
G1 X50.534 Y60.936 F9000.000
G1 X50.534 Y39.064 E5.89108 F1944.000
G1 X89.466 Y39.064 E6.68654
G1 X89.466 Y60.936 E7.13340
G1 X50.570 Y60.936 E7.92812
G1 X50.655 Y60.725 F9000.000
G1 X51.208 Y60.286 F9000.000
G1 X51.183 Y60.262 E7.92883 F3240.000
G1 X51.183 Y59.917 E7.93587
G1 X51.552 Y60.286 E7.94653
G1 X51.896 Y60.286 E7.95358
G1 X51.183 Y59.573 E7.97420
G1 X51.183 Y59.229 E7.98124
G1 X52.240 Y60.286 E8.01183
G1 X52.584 Y60.286 E8.01887
G1 X51.183 Y58.885 E8.05941
G1 X51.183 Y58.541 E8.06646
G1 X52.928 Y60.286 E8.11696
G1 X53.273 Y60.286 E8.12400
G1 X51.183 Y58.197 E8.18447
G1 X51.183 Y57.853 E8.19151
G1 X53.617 Y60.286 E8.26194
G1 X53.961 Y60.286 E8.26898
G1 X51.183 Y57.509 E8.34936
G1 X51.183 Y57.164 E8.35641
G1 X54.305 Y60.286 E8.44675
G1 X54.649 Y60.286 E8.45379
G1 X51.183 Y56.820 E8.55410
G1 X51.183 Y56.476 E8.56114
G1 X54.993 Y60.286 E8.67140
G1 X55.337 Y60.286 E8.67845
G1 X51.183 Y56.132 E8.79867
G1 X51.183 Y55.788 E8.80572
G1 X55.681 Y60.286 E8.93590
G1 X56.025 Y60.286 E8.94294
G1 X51.183 Y55.444 E9.08309
G1 X51.183 Y55.100 E9.09013
G1 X56.370 Y60.286 E9.24023
G1 X56.714 Y60.286 E9.24728
G1 X51.183 Y54.756 E9.40734
G1 X51.183 Y54.411 E9.41438
G1 X57.058 Y60.286 E9.58441
G1 X57.402 Y60.286 E9.59145
G1 X51.183 Y54.067 E9.77144
G1 X51.183 Y53.723 E9.77848
G1 X57.746 Y60.286 E9.96842
G1 X58.090 Y60.286 E9.97547
G1 X51.183 Y53.379 E10.17537
G1 X51.183 Y53.035 E10.18241
G1 X58.434 Y60.286 E10.39228
G1 X58.778 Y60.286 E10.39932
G1 X51.183 Y52.691 E10.61915
G1 X51.183 Y52.347 E10.62619
G1 X59.123 Y60.286 E10.85597
G1 X59.467 Y60.286 E10.86302
G1 X51.183 Y52.003 E11.10276
G1 X51.183 Y51.659 E11.10980
G1 X59.811 Y60.286 E11.35951
G1 X60.155 Y60.286 E11.36655
G1 X51.183 Y51.314 E11.62622
G1 X51.183 Y50.970 E11.63326
G1 X60.499 Y60.286 E11.90288
G1 X60.843 Y60.286 E11.90993
G1 X51.183 Y50.626 E12.18951
G1 X51.183 Y50.282 E12.19655
G1 X61.187 Y60.286 E12.48610
G1 X61.531 Y60.286 E12.49314
G1 X51.183 Y49.938 E12.79265
G1 X51.183 Y49.594 E12.79969
G1 X61.875 Y60.286 E13.10915
G1 X62.220 Y60.286 E13.11620
G1 X51.183 Y49.250 E13.43562
G1 X51.183 Y48.906 E13.44266
G1 X62.564 Y60.286 E13.77205
G1 X62.908 Y60.286 E13.77909
G1 X51.183 Y48.561 E14.11844
G1 X51.183 Y48.217 E14.12548
G1 X63.252 Y60.286 E14.47478
G1 X63.596 Y60.286 E14.48183
G1 X51.183 Y47.873 E14.84109
G1 X51.183 Y47.529 E14.84814
G1 X63.940 Y60.286 E15.21736
G1 X64.284 Y60.286 E15.22440
G1 X51.183 Y47.185 E15.60359
G1 X51.183 Y46.841 E15.61063
G1 X64.628 Y60.286 E15.99978
G1 X64.973 Y60.286 E16.00682
G1 X51.183 Y46.497 E16.40592
G1 X51.183 Y46.153 E16.41297
G1 X65.317 Y60.286 E16.82203
G1 X65.661 Y60.286 E16.82907
G1 X51.183 Y45.808 E17.24810
G1 X51.183 Y45.464 E17.25514
G1 X66.005 Y60.286 E17.68413
G1 X66.349 Y60.286 E17.69117
G1 X51.183 Y45.120 E18.13012
G1 X51.183 Y44.776 E18.13716
G1 X66.693 Y60.286 E18.58606
G1 X67.037 Y60.286 E18.59311
G1 X51.183 Y44.432 E19.05197
G1 X51.183 Y44.088 E19.05901
G1 X67.381 Y60.286 E19.52784
G1 X67.726 Y60.286 E19.53488
G1 X51.183 Y43.744 E20.01367
G1 X51.183 Y43.400 E20.02071
G1 X68.070 Y60.286 E20.50945
G1 X68.414 Y60.286 E20.51650
G1 X51.183 Y43.056 E21.01520
G1 X51.183 Y42.711 E21.02225
G1 X68.758 Y60.286 E21.53091
G1 X69.102 Y60.286 E21.53795
G1 X51.183 Y42.367 E22.05658
G1 X51.183 Y42.023 E22.06362
G1 X69.446 Y60.286 E22.59221
G1 X69.790 Y60.286 E22.59925
G1 X51.183 Y41.679 E23.13779
G1 X51.183 Y41.335 E23.14484
G1 X70.134 Y60.286 E23.69334
G1 X70.478 Y60.286 E23.70039
G1 X51.183 Y40.991 E24.25885
G1 X51.183 Y40.647 E24.26589
G1 X70.823 Y60.286 E24.83432
G1 X71.167 Y60.286 E24.84136
G1 X51.183 Y40.303 E25.41975
G1 X51.183 Y39.958 E25.42679
G1 X69.049 Y57.824 E25.94388
G1 X69.049 Y57.480 E25.95092
G1 X51.283 Y39.714 E26.46512
G1 X51.627 Y39.714 E26.47216
G1 X69.049 Y57.136 E26.97640
G1 X69.049 Y56.792 E26.98345
G1 X51.972 Y39.714 E27.47772
G1 X52.316 Y39.714 E27.48477
G1 X69.049 Y56.447 E27.96909
G1 X69.049 Y56.103 E27.97613
G1 X52.660 Y39.714 E28.45049
G1 X53.004 Y39.714 E28.45753
G1 X69.049 Y55.759 E28.92193
G1 X69.049 Y55.415 E28.92897
G1 X53.348 Y39.714 E29.38341
G1 X53.692 Y39.714 E29.39046
G1 X69.049 Y55.071 E29.83494
G1 X69.049 Y54.727 E29.84198
G1 X54.036 Y39.714 E30.27650
G1 X54.380 Y39.714 E30.28354
G1 X69.049 Y54.383 E30.70810
G1 X69.049 Y54.039 E30.71514
G1 X54.724 Y39.714 E31.12974
G1 X55.069 Y39.714 E31.13678
G1 X69.049 Y53.694 E31.54142
G1 X69.049 Y53.350 E31.54847
G1 X55.413 Y39.714 E31.94315
G1 X55.757 Y39.714 E31.95019
G1 X69.049 Y53.006 E32.33491
G1 X69.049 Y52.662 E32.34195
G1 X56.101 Y39.714 E32.71671
G1 X56.445 Y39.714 E32.72375
G1 X69.049 Y52.318 E33.08855
G1 X69.049 Y51.974 E33.09559
G1 X56.789 Y39.714 E33.45043
G1 X57.133 Y39.714 E33.45748
G1 X69.049 Y51.630 E33.80236
G1 X69.049 Y51.286 E33.80940
G1 X57.477 Y39.714 E34.14432
G1 X57.822 Y39.714 E34.15136
G1 X69.049 Y50.942 E34.47632
G1 X69.049 Y50.597 E34.48336
G1 X58.166 Y39.714 E34.79836
G1 X58.510 Y39.714 E34.80540
G1 X69.049 Y50.253 E35.11044
G1 X69.049 Y49.909 E35.11749
G1 X58.854 Y39.714 E35.41257
G1 X59.198 Y39.714 E35.41961
G1 X69.049 Y49.565 E35.70473
G1 X69.049 Y49.221 E35.71177
G1 X59.542 Y39.714 E35.98693
G1 X59.886 Y39.714 E35.99397
G1 X69.049 Y48.877 E36.25917
G1 X69.049 Y48.533 E36.26621
G1 X60.230 Y39.714 E36.52145
G1 X60.574 Y39.714 E36.52850
G1 X69.049 Y48.189 E36.77377
G1 X69.049 Y47.844 E36.78082
G1 X60.919 Y39.714 E37.01614
G1 X61.263 Y39.714 E37.02318
G1 X69.049 Y47.500 E37.24854
G1 X69.049 Y47.156 E37.25558
G1 X61.607 Y39.714 E37.47098
G1 X61.951 Y39.714 E37.47802
G1 X69.049 Y46.812 E37.68346
G1 X69.049 Y46.468 E37.69050
G1 X62.295 Y39.714 E37.88598
G1 X62.639 Y39.714 E37.89303
G1 X69.049 Y46.124 E38.07854
G1 X69.049 Y45.780 E38.08559
G1 X62.983 Y39.714 E38.26115
G1 X63.327 Y39.714 E38.26819
G1 X69.049 Y45.436 E38.43379
G1 X69.049 Y45.091 E38.44083
G1 X63.672 Y39.714 E38.59647
G1 X64.016 Y39.714 E38.60351
G1 X69.049 Y44.747 E38.74919
G1 X69.049 Y44.403 E38.75623
G1 X64.360 Y39.714 E38.89195
G1 X64.704 Y39.714 E38.89899
G1 X69.049 Y44.059 E39.02475
G1 X69.049 Y43.715 E39.03180
G1 X65.048 Y39.714 E39.14759
G1 X65.392 Y39.714 E39.15464
G1 X69.049 Y43.371 E39.26048
G1 X69.049 Y43.027 E39.26752
G1 X65.736 Y39.714 E39.36340
G1 X66.080 Y39.714 E39.37044
G1 X69.049 Y42.683 E39.45636
G1 X69.049 Y42.339 E39.46340
G1 X66.425 Y39.714 E39.53936
G1 X66.769 Y39.714 E39.54640
G1 X69.049 Y41.994 E39.61240
G1 X69.049 Y41.650 E39.61945
G1 X67.113 Y39.714 E39.67548
G1 X67.457 Y39.714 E39.68253
G1 X69.339 Y41.596 E39.73699
G1 X69.683 Y41.596 E39.74404
G1 X67.801 Y39.714 E39.79850
G1 X68.145 Y39.714 E39.80555
G1 X70.027 Y41.596 E39.86001
G1 X70.371 Y41.596 E39.86705
G1 X68.489 Y39.714 E39.92152
G1 X68.833 Y39.714 E39.92856
G1 X70.715 Y41.596 E39.98303
G1 X71.059 Y41.596 E39.99007
G1 X69.177 Y39.714 E40.04454
G1 X69.522 Y39.714 E40.05158
G1 X71.403 Y41.596 E40.10605
G1 X71.748 Y41.596 E40.11309
G1 X69.866 Y39.714 E40.16756
G1 X70.210 Y39.714 E40.17460
G1 X72.092 Y41.596 E40.22907
G1 X72.436 Y41.596 E40.23611
G1 X70.554 Y39.714 E40.29058
G1 X70.898 Y39.714 E40.29762
G1 X72.780 Y41.596 E40.35209
G1 X73.124 Y41.596 E40.35913
G1 X71.242 Y39.714 E40.41360
G1 X71.586 Y39.714 E40.42064
G1 X73.468 Y41.596 E40.47511
G1 X73.812 Y41.596 E40.48215
G1 X71.930 Y39.714 E40.53661
G1 X72.275 Y39.714 E40.54366
G1 X74.156 Y41.596 E40.59812
G1 X74.500 Y41.596 E40.60517
G1 X72.619 Y39.714 E40.65963
G1 X72.963 Y39.714 E40.66668
G1 X74.845 Y41.596 E40.72114
G1 X75.189 Y41.596 E40.72819
G1 X73.307 Y39.714 E40.78265
G1 X73.651 Y39.714 E40.78969
G1 X75.533 Y41.596 E40.84416
G1 X75.877 Y41.596 E40.85120
G1 X73.995 Y39.714 E40.90567
G1 X74.339 Y39.714 E40.91271
G1 X76.221 Y41.596 E40.96718
G1 X76.565 Y41.596 E40.97422
G1 X74.683 Y39.714 E41.02869
G1 X75.028 Y39.714 E41.03573
G1 X76.909 Y41.596 E41.09020
G1 X77.253 Y41.596 E41.09724
G1 X75.372 Y39.714 E41.15171
G1 X75.716 Y39.714 E41.15875
G1 X77.598 Y41.596 E41.21322
G1 X77.942 Y41.596 E41.22026
G1 X76.060 Y39.714 E41.27473
G1 X76.404 Y39.714 E41.28177
G1 X78.286 Y41.596 E41.33624
G1 X78.630 Y41.596 E41.34328
G1 X76.748 Y39.714 E41.39775
G1 X77.092 Y39.714 E41.40479
G1 X78.974 Y41.596 E41.45926
G1 X79.318 Y41.596 E41.46630
G1 X77.436 Y39.714 E41.52076
G1 X77.780 Y39.714 E41.52781
G1 X79.662 Y41.596 E41.58227
G1 X80.006 Y41.596 E41.58932
G1 X78.125 Y39.714 E41.64378
G1 X78.469 Y39.714 E41.65083
G1 X80.351 Y41.596 E41.70529
G1 X80.695 Y41.596 E41.71234
G1 X78.813 Y39.714 E41.76680
G1 X79.157 Y39.714 E41.77384
G1 X81.039 Y41.596 E41.82831
G1 X81.383 Y41.596 E41.83535
G1 X79.501 Y39.714 E41.88982
G1 X79.845 Y39.714 E41.89686
G1 X81.727 Y41.596 E41.95133
G1 X82.071 Y41.596 E41.95837
G1 X80.189 Y39.714 E42.01284
G1 X80.533 Y39.714 E42.01988
G1 X82.415 Y41.596 E42.07435
G1 X82.759 Y41.596 E42.08139
G1 X80.878 Y39.714 E42.13586
G1 X81.222 Y39.714 E42.14290
G1 X83.103 Y41.596 E42.19737
G1 X83.448 Y41.596 E42.20441
G1 X81.566 Y39.714 E42.25888
G1 X81.910 Y39.714 E42.26592
G1 X83.792 Y41.596 E42.32039
G1 X84.136 Y41.596 E42.32743
G1 X82.254 Y39.714 E42.38190
G1 X82.598 Y39.714 E42.38894
G1 X84.480 Y41.596 E42.44340
G1 X84.824 Y41.596 E42.45045
G1 X82.942 Y39.714 E42.50491
G1 X83.286 Y39.714 E42.51196
G1 X85.168 Y41.596 E42.56642
G1 X85.512 Y41.596 E42.57347
G1 X83.630 Y39.714 E42.62793
G1 X83.975 Y39.714 E42.63498
G1 X85.856 Y41.596 E42.68944
G1 X86.201 Y41.596 E42.69648
G1 X84.319 Y39.714 E42.75095
G1 X84.663 Y39.714 E42.75799
G1 X86.545 Y41.596 E42.81246
G1 X86.889 Y41.596 E42.81950
G1 X85.007 Y39.714 E42.87397
G1 X85.351 Y39.714 E42.88101
G1 X87.233 Y41.596 E42.93548
G1 X87.577 Y41.596 E42.94252
G1 X85.695 Y39.714 E42.99699
G1 X86.039 Y39.714 E43.00403
G1 X88.817 Y42.491 E43.08441
G1 X88.817 Y42.835 E43.09146
G1 X87.686 Y41.705 E43.12418
G1 X87.686 Y42.049 E43.13122
G1 X88.817 Y43.180 E43.16395
G1 X88.817 Y43.524 E43.17099
G1 X87.686 Y42.393 E43.20372
G1 X87.686 Y42.737 E43.21076
G1 X88.817 Y43.868 E43.24349
G1 X88.817 Y44.212 E43.25053
G1 X87.686 Y43.081 E43.28325
G1 X87.686 Y43.425 E43.29030
G1 X88.817 Y44.556 E43.32302
G1 X88.817 Y44.900 E43.33007
G1 X87.686 Y43.770 E43.36279
G1 X87.686 Y44.114 E43.36983
G1 X88.817 Y45.244 E43.40256
G1 X88.817 Y45.588 E43.40960
G1 X87.686 Y44.458 E43.44233
G1 X87.686 Y44.802 E43.44937
G1 X88.817 Y45.933 E43.48210
G1 X88.817 Y46.277 E43.48914
G1 X87.686 Y45.146 E43.52186
G1 X87.686 Y45.490 E43.52891
G1 X88.817 Y46.621 E43.56163
G1 X88.817 Y46.965 E43.56867
G1 X87.686 Y45.834 E43.60140
G1 X87.686 Y46.178 E43.60844
G1 X88.817 Y47.309 E43.64117
G1 X88.817 Y47.653 E43.64821
G1 X87.686 Y46.522 E43.68094
G1 X87.686 Y46.867 E43.68798
G1 X88.817 Y47.997 E43.72070
G1 X88.817 Y48.341 E43.72775
G1 X87.686 Y47.211 E43.76047
G1 X87.686 Y47.555 E43.76752
G1 X88.817 Y48.685 E43.80024
G1 X88.817 Y49.030 E43.80728
G1 X87.686 Y47.899 E43.84001
G1 X87.686 Y48.243 E43.84705
G1 X88.817 Y49.374 E43.87978
G1 X88.817 Y49.718 E43.88682
G1 X87.686 Y48.587 E43.91955
G1 X87.686 Y48.931 E43.92659
G1 X88.817 Y50.062 E43.95931
G1 X88.817 Y50.406 E43.96636
G1 X87.686 Y49.275 E43.99908
G1 X87.686 Y49.620 E44.00613
G1 X88.817 Y50.750 E44.03885
G1 X88.817 Y51.094 E44.04589
