; generated by Slic3r 1.0.0RC1 on 2014-01-05 at 11:47:19

; layer_height = 0.2
; perimeters = 3
; top_solid_layers = 10
; bottom_solid_layers = 4
; fill_density = 0.2
; perimeter_speed = 50
; infill_speed = 50
; travel_speed = 150
; nozzle_diameter = 0.4
; filament_diameter = 1.74
; extrusion_multiplier = 1
; perimeters extrusion width = 0.40mm
; infill extrusion width = 0.67mm
; solid infill extrusion width = 0.67mm
; top infill extrusion width = 0.67mm
; first layer extrusion width = 0.20mm

G21 ; set units to millimeters
M107
G28 X0 Y0; home X and Y
M104 S205 ; set hotend temp, no wait.
M116 ; waiting for both temperatures
G28 Z0; home Z
M92 X80; calibrate X
M92 Y80; calibrate Y
M92 Z2387.0719; calibrate Z
M92 E65.35; calibrate E for direct drive
G90 ; use absolute coordinates
G92 E0
M82 ; use absolute distances for extrusion
G1 F1200.000 E-3.00000
G92 E0
G1 Z0.200 F9000.000
G1 X45.610 Y36.113 F9000.000
G1 E3.00000 F1200.000
G1 X46.440 Y35.093 E3.02687 F1800.000
G1 X47.460 Y34.263 E3.05374
G1 X48.630 Y33.633 E3.08089
G1 X49.890 Y33.253 E3.10778
G1 X51.200 Y33.123 E3.13467
G1 X88.790 Y33.123 E3.90270
G1 X90.100 Y33.253 E3.92960
G1 X91.360 Y33.633 E3.95649
G1 X92.530 Y34.263 E3.98364
G1 X93.550 Y35.093 E4.01051
G1 X94.380 Y36.113 E4.03738
G1 X95.010 Y37.283 E4.06453
G1 X95.390 Y38.543 E4.09142
G1 X95.520 Y39.853 E4.11831
G1 X95.520 Y60.143 E4.53287
G1 X95.390 Y61.453 E4.55977
G1 X95.010 Y62.713 E4.58666
G1 X94.380 Y63.883 E4.61381
G1 X93.550 Y64.903 E4.64068
G1 X92.530 Y65.733 E4.66755
G1 X91.360 Y66.363 E4.69470
G1 X90.100 Y66.743 E4.72159
G1 X88.790 Y66.873 E4.74848
G1 X51.200 Y66.873 E5.51651
G1 X49.890 Y66.743 E5.54341
G1 X48.630 Y66.363 E5.57030
G1 X47.460 Y65.733 E5.59745
G1 X46.440 Y64.903 E5.62432
G1 X45.610 Y63.883 E5.65119
G1 X44.980 Y62.713 E5.67834
G1 X44.600 Y61.453 E5.70523
G1 X44.470 Y60.143 E5.73212
G1 X44.470 Y39.853 E6.14668
G1 X44.600 Y38.543 E6.17358
G1 X44.980 Y37.283 E6.20047
G1 X45.593 Y36.145 E6.22688
G1 X45.810 Y36.253 F9000.000
G1 X46.610 Y35.263 E6.25288 F1800.000
G1 X47.600 Y34.463 E6.27889
G1 X48.720 Y33.863 E6.30485
G1 X49.930 Y33.493 E6.33070
G1 X51.200 Y33.363 E6.35678
G1 X88.790 Y33.363 E7.12481
G1 X90.060 Y33.493 E7.15090
G1 X91.270 Y33.863 E7.17675
G1 X92.390 Y34.463 E7.20271
G1 X93.380 Y35.263 E7.22872
G1 X94.180 Y36.253 E7.25472
G1 X94.780 Y37.373 E7.28068
G1 X95.150 Y38.583 E7.30654
G1 X95.280 Y39.853 E7.33262
G1 X95.280 Y60.143 E7.74718
G1 X95.150 Y61.413 E7.77326
G1 X94.780 Y62.623 E7.79912
G1 X94.180 Y63.743 E7.82508
G1 X93.380 Y64.733 E7.85108
G1 X92.390 Y65.533 E7.87709
G1 X91.270 Y66.133 E7.90305
G1 X90.060 Y66.503 E7.92890
G1 X88.790 Y66.633 E7.95499
G1 X51.200 Y66.633 E8.72302
G1 X49.930 Y66.503 E8.74910
G1 X48.720 Y66.133 E8.77495
G1 X47.600 Y65.533 E8.80091
G1 X46.610 Y64.733 E8.82692
G1 X45.810 Y63.743 E8.85292
G1 X45.210 Y62.623 E8.87888
G1 X44.840 Y61.413 E8.90474
G1 X44.710 Y60.143 E8.93082
G1 X44.710 Y39.853 E9.34538
G1 X44.840 Y38.583 E9.37147
G1 X45.210 Y37.373 E9.39732
G1 X45.793 Y36.285 E9.42253
G1 X46.010 Y36.383 F9000.000
G1 X46.790 Y35.443 E9.44749 F1800.000
G1 X47.730 Y34.663 E9.47245
G1 X48.810 Y34.083 E9.49749
G1 X49.980 Y33.733 E9.52245
G1 X51.200 Y33.613 E9.54749
G1 X88.790 Y33.613 E10.31552
G1 X90.010 Y33.733 E10.34057
G1 X91.180 Y34.083 E10.36552
G1 X92.260 Y34.663 E10.39057
G1 X93.200 Y35.443 E10.41553
G1 X93.980 Y36.383 E10.44048
G1 X94.560 Y37.463 E10.46553
G1 X94.910 Y38.633 E10.49048
G1 X95.030 Y39.853 E10.51553
G1 X95.030 Y60.143 E10.93009
G1 X94.910 Y61.363 E10.95514
G1 X94.560 Y62.533 E10.98009
G1 X93.980 Y63.613 E11.00513
G1 X93.200 Y64.553 E11.03009
G1 X92.260 Y65.333 E11.05505
G1 X91.180 Y65.913 E11.08009
G1 X90.010 Y66.263 E11.10505
G1 X88.790 Y66.383 E11.13009
G1 X51.200 Y66.383 E11.89812
G1 X49.980 Y66.263 E11.92317
G1 X48.810 Y65.913 E11.94812
G1 X47.730 Y65.333 E11.97317
G1 X46.790 Y64.553 E11.99813
G1 X46.010 Y63.613 E12.02308
G1 X45.430 Y62.533 E12.04813
G1 X45.080 Y61.363 E12.07308
G1 X44.960 Y60.143 E12.09813
G1 X44.960 Y39.853 E12.51269
G1 X45.080 Y38.633 E12.53774
G1 X45.430 Y37.463 E12.56269
G1 X45.993 Y36.415 E12.58699
G1 F1200.000 E9.58699
G92 E0
G1 X51.786 Y40.439 F9000.000
G1 E3.00000 F1200.000
G1 X88.214 Y40.439 E3.74427 F1800.000
G1 X88.214 Y59.561 E4.13497
G1 X51.786 Y59.561 E4.87925
G1 X51.786 Y40.475 E5.26920
G1 F1200.000 E2.26920
G92 E0
G1 X51.543 Y59.804 F9000.000
G1 E3.00000 F1200.000
G1 X51.543 Y40.196 E3.40063 F1800.000
G1 X88.457 Y40.196 E4.15483
G1 X88.457 Y59.804 E4.55545
G1 X51.580 Y59.804 E5.30891
G1 X51.300 Y60.047 F9000.000
G1 X51.300 Y39.953 E5.71946 F1080.000
G1 X88.700 Y39.953 E6.48359
G1 X88.700 Y60.047 E6.89414
G1 X51.337 Y60.047 E7.65753
G1 X51.422 Y59.837 F9000.000
G1 X51.975 Y59.397 F9000.000
G1 X51.950 Y59.373 E7.65824 F2160.000
G1 X51.950 Y59.028 E7.66531
G1 X52.320 Y59.397 E7.67603
G1 X52.664 Y59.397 E7.68310
G1 X51.950 Y58.683 E7.70383
G1 X51.950 Y58.338 E7.71090
G1 X53.009 Y59.397 E7.74163
G1 X53.354 Y59.397 E7.74871
G1 X51.950 Y57.993 E7.78945
G1 X51.950 Y57.648 E7.79652
G1 X53.699 Y59.397 E7.84727
G1 X54.044 Y59.397 E7.85434
G1 X51.950 Y57.303 E7.91510
G1 X51.950 Y56.958 E7.92217
G1 X54.389 Y59.397 E7.99293
G1 X54.734 Y59.397 E8.00001
G1 X51.950 Y56.613 E8.08078
G1 X51.950 Y56.268 E8.08785
G1 X55.079 Y59.397 E8.17863
G1 X55.424 Y59.397 E8.18571
G1 X51.950 Y55.923 E8.28649
G1 X51.950 Y55.578 E8.29356
G1 X55.769 Y59.397 E8.40435
G1 X56.114 Y59.397 E8.41143
G1 X51.950 Y55.234 E8.53223
G1 X51.950 Y54.889 E8.53930
G1 X56.459 Y59.397 E8.67011
G1 X56.804 Y59.397 E8.67719
G1 X51.950 Y54.544 E8.81800
G1 X51.950 Y54.199 E8.82507
G1 X57.149 Y59.397 E8.97589
G1 X57.494 Y59.397 E8.98297
G1 X51.950 Y53.854 E9.14380
G1 X51.950 Y53.509 E9.15087
G1 X57.839 Y59.397 E9.32171
G1 X58.184 Y59.397 E9.32879
G1 X51.950 Y53.164 E9.50963
G1 X51.950 Y52.819 E9.51671
G1 X58.528 Y59.397 E9.70756
G1 X58.873 Y59.397 E9.71463
G1 X51.950 Y52.474 E9.91549
G1 X51.950 Y52.129 E9.92257
G1 X59.218 Y59.397 E10.13343
G1 X59.563 Y59.397 E10.14051
G1 X51.950 Y51.784 E10.36138
G1 X51.950 Y51.439 E10.36846
G1 X59.908 Y59.397 E10.59934
G1 X60.253 Y59.397 E10.60641
G1 X51.950 Y51.094 E10.84730
G1 X51.950 Y50.749 E10.85438
G1 X60.598 Y59.397 E11.10527
G1 X60.943 Y59.397 E11.11235
G1 X51.950 Y50.404 E11.37325
G1 X51.950 Y50.059 E11.38033
G1 X61.288 Y59.397 E11.65124
G1 X61.633 Y59.397 E11.65831
G1 X51.950 Y49.715 E11.93923
G1 X51.950 Y49.370 E11.94631
G1 X61.978 Y59.397 E12.23723
G1 X62.323 Y59.397 E12.24431
G1 X51.950 Y49.025 E12.54524
G1 X51.950 Y48.680 E12.55232
G1 X62.668 Y59.397 E12.86326
G1 X63.013 Y59.397 E12.87033
G1 X51.950 Y48.335 E13.19128
G1 X51.950 Y47.990 E13.19836
G1 X63.358 Y59.397 E13.52931
G1 X63.703 Y59.397 E13.53639
G1 X51.950 Y47.645 E13.87735
G1 X51.950 Y47.300 E13.88443
G1 X64.047 Y59.397 E14.23540
G1 X64.392 Y59.397 E14.24247
G1 X51.950 Y46.955 E14.60345
G1 X51.950 Y46.610 E14.61053
G1 X64.737 Y59.397 E14.98151
G1 X65.082 Y59.397 E14.98859
G1 X51.950 Y46.265 E15.36958
G1 X51.950 Y45.920 E15.37666
G1 X65.427 Y59.397 E15.76766
G1 X65.772 Y59.397 E15.77473
G1 X51.950 Y45.575 E16.17574
G1 X51.950 Y45.230 E16.18282
G1 X66.117 Y59.397 E16.59383
G1 X66.462 Y59.397 E16.60091
G1 X51.950 Y44.885 E17.02193
G1 X51.950 Y44.540 E17.02901
G1 X66.807 Y59.397 E17.46004
G1 X67.152 Y59.397 E17.46711
G1 X51.950 Y44.196 E17.90815
G1 X51.950 Y43.851 E17.91523
G1 X67.497 Y59.397 E18.36627
G1 X67.842 Y59.397 E18.37335
G1 X51.950 Y43.506 E18.83440
G1 X51.950 Y43.161 E18.84148
G1 X68.187 Y59.397 E19.31253
G1 X68.532 Y59.397 E19.31961
G1 X51.950 Y42.816 E19.80068
G1 X51.950 Y42.471 E19.80775
G1 X68.877 Y59.397 E20.29883
G1 X69.222 Y59.397 E20.30591
G1 X51.950 Y42.126 E20.80699
G1 X51.950 Y41.781 E20.81406
G1 X69.566 Y59.397 E21.32515
G1 X69.911 Y59.397 E21.33223
G1 X51.950 Y41.436 E21.85333
G1 X51.950 Y41.091 E21.86040
G1 X70.256 Y59.397 E22.39151
G1 X70.601 Y59.397 E22.39859
G1 X51.950 Y40.746 E22.93970
G1 X52.152 Y40.603 E22.94477
G1 X70.946 Y59.397 E23.49004
G1 X71.291 Y59.397 E23.49712
G1 X52.497 Y40.603 E24.04239
G1 X52.842 Y40.603 E24.04947
G1 X71.636 Y59.397 E24.59474
G1 X71.981 Y59.397 E24.60181
G1 X53.187 Y40.603 E25.14708
G1 X53.532 Y40.603 E25.15416
G1 X72.326 Y59.397 E25.69943
G1 X72.671 Y59.397 E25.70651
G1 X53.877 Y40.603 E26.25178
G1 X54.221 Y40.603 E26.25885
G1 X73.016 Y59.397 E26.80412
G1 X73.361 Y59.397 E26.81120
G1 X54.566 Y40.603 E27.35647
G1 X54.911 Y40.603 E27.36355
G1 X73.706 Y59.397 E27.90882
G1 X74.051 Y59.397 E27.91589
G1 X55.256 Y40.603 E28.46116
G1 X55.601 Y40.603 E28.46824
G1 X74.396 Y59.397 E29.01351
G1 X74.741 Y59.397 E29.02059
G1 X55.946 Y40.603 E29.56586
G1 X56.291 Y40.603 E29.57293
G1 X75.086 Y59.397 E30.11820
G1 X75.430 Y59.397 E30.12528
G1 X56.636 Y40.603 E30.67055
G1 X56.981 Y40.603 E30.67763
G1 X75.775 Y59.397 E31.22290
G1 X76.120 Y59.397 E31.22997
G1 X57.326 Y40.603 E31.77524
G1 X57.671 Y40.603 E31.78232
G1 X76.465 Y59.397 E32.32759
G1 X76.810 Y59.397 E32.33467
G1 X58.016 Y40.603 E32.87994
G1 X58.361 Y40.603 E32.88701
G1 X77.155 Y59.397 E33.43228
G1 X77.500 Y59.397 E33.43936
G1 X58.706 Y40.603 E33.98463
G1 X59.051 Y40.603 E33.99171
G1 X77.845 Y59.397 E34.53698
G1 X78.190 Y59.397 E34.54405
G1 X59.396 Y40.603 E35.08932
G1 X59.740 Y40.603 E35.09640
G1 X78.535 Y59.397 E35.64167
G1 X78.880 Y59.397 E35.64875
G1 X60.085 Y40.603 E36.19402
G1 X60.430 Y40.603 E36.20109
G1 X79.225 Y59.397 E36.74636
G1 X79.570 Y59.397 E36.75344
G1 X60.775 Y40.603 E37.29871
G1 X61.120 Y40.603 E37.30579
G1 X79.915 Y59.397 E37.85106
G1 X80.260 Y59.397 E37.85813
G1 X61.465 Y40.603 E38.40340
G1 X61.810 Y40.603 E38.41048
G1 X80.605 Y59.397 E38.95575
G1 X80.949 Y59.397 E38.96283
G1 X62.155 Y40.603 E39.50810
G1 X62.500 Y40.603 E39.51517
G1 X81.294 Y59.397 E40.06045
G1 X81.639 Y59.397 E40.06752
G1 X62.845 Y40.603 E40.61279
G1 X63.190 Y40.603 E40.61987
G1 X81.984 Y59.397 E41.16514
G1 X82.329 Y59.397 E41.17221
G1 X63.535 Y40.603 E41.71749
G1 X63.880 Y40.603 E41.72456
G1 X82.674 Y59.397 E42.26983
G1 X83.019 Y59.397 E42.27691
G1 X64.225 Y40.603 E42.82218
G1 X64.570 Y40.603 E42.82926
G1 X83.364 Y59.397 E43.37453
G1 X83.709 Y59.397 E43.38160
G1 X64.915 Y40.603 E43.92687
G1 X65.260 Y40.603 E43.93395
G1 X84.054 Y59.397 E44.47922
G1 X84.399 Y59.397 E44.48630
G1 X65.604 Y40.603 E45.03157
G1 X65.949 Y40.603 E45.03864
G1 X84.744 Y59.397 E45.58391
G1 X85.089 Y59.397 E45.59099
G1 X66.294 Y40.603 E46.13626
G1 X66.639 Y40.603 E46.14334
G1 X85.434 Y59.397 E46.68861
G1 X85.779 Y59.397 E46.69568
G1 X66.984 Y40.603 E47.24095
G1 X67.329 Y40.603 E47.24803
G1 X86.124 Y59.397 E47.79330
G1 X86.468 Y59.397 E47.80038
G1 X67.674 Y40.603 E48.34565
G1 X68.019 Y40.603 E48.35272
G1 X86.813 Y59.397 E48.89799
G1 X87.158 Y59.397 E48.90507
G1 X68.364 Y40.603 E49.45034
G1 X68.709 Y40.603 E49.45742
G1 X87.503 Y59.397 E50.00269
G1 X87.848 Y59.397 E50.00976
G1 X69.054 Y40.603 E50.55503
G1 X69.399 Y40.603 E50.56211
G1 X88.050 Y59.254 E51.10322
G1 X88.050 Y58.909 E51.11030
G1 X69.744 Y40.603 E51.64140
G1 X70.089 Y40.603 E51.64847
G1 X88.050 Y58.564 E52.16957
G1 X88.050 Y58.219 E52.17665
G1 X70.434 Y40.603 E52.68773
G1 X70.779 Y40.603 E52.69481
G1 X88.050 Y57.874 E53.19589
G1 X88.050 Y57.529 E53.20297
G1 X71.123 Y40.603 E53.69404
G1 X71.468 Y40.603 E53.70111
G1 X88.050 Y57.184 E54.18218
G1 X88.050 Y56.839 E54.18926
G1 X71.813 Y40.603 E54.66031
G1 X72.158 Y40.603 E54.66739
G1 X88.050 Y56.494 E55.12844
G1 X88.050 Y56.149 E55.13552
G1 X72.503 Y40.603 E55.58656
G1 X72.848 Y40.603 E55.59363
G1 X88.050 Y55.804 E56.03467
G1 X88.050 Y55.459 E56.04175
G1 X73.193 Y40.603 E56.47277
G1 X73.538 Y40.603 E56.47985
G1 X88.050 Y55.115 E56.90087
G1 X88.050 Y54.770 E56.90795
G1 X73.883 Y40.603 E57.31896
G1 X74.228 Y40.603 E57.32603
G1 X88.050 Y54.425 E57.72704
G1 X88.050 Y54.080 E57.73412
G1 X74.573 Y40.603 E58.12511
G1 X74.918 Y40.603 E58.13219
G1 X88.050 Y53.735 E58.51318
G1 X88.050 Y53.390 E58.52026
G1 X75.263 Y40.603 E58.89124
G1 X75.608 Y40.603 E58.89831
G1 X88.050 Y53.045 E59.25929
G1 X88.050 Y52.700 E59.26637
G1 X75.953 Y40.603 E59.61733
G1 X76.298 Y40.603 E59.62441
G1 X88.050 Y52.355 E59.96537
G1 X88.050 Y52.010 E59.97245
G1 X76.642 Y40.603 E60.30340
G1 X76.987 Y40.603 E60.31047
G1 X88.050 Y51.665 E60.63142
G1 X88.050 Y51.320 E60.63850
G1 X77.332 Y40.603 E60.94943
G1 X77.677 Y40.603 E60.95651
G1 X88.050 Y50.975 E61.25744
G1 X88.050 Y50.630 E61.26452
G1 X78.022 Y40.603 E61.55544
G1 X78.367 Y40.603 E61.56252
G1 X88.050 Y50.285 E61.84343
G1 X88.050 Y49.940 E61.85051
G1 X78.712 Y40.603 E62.12141
G1 X79.057 Y40.603 E62.12849
G1 X88.050 Y49.596 E62.38939
G1 X88.050 Y49.251 E62.39647
G1 X79.402 Y40.603 E62.64736
G1 X79.747 Y40.603 E62.65444
G1 X88.050 Y48.906 E62.89532
G1 X88.050 Y48.561 E62.90240
G1 X80.092 Y40.603 E63.13327
G1 X80.437 Y40.603 E63.14035
G1 X88.050 Y48.216 E63.36122
G1 X88.050 Y47.871 E63.36830
G1 X80.782 Y40.603 E63.57916
G1 X81.127 Y40.603 E63.58624
G1 X88.050 Y47.526 E63.78709
G1 X88.050 Y47.181 E63.79417
G1 X81.472 Y40.603 E63.98502
G1 X81.817 Y40.603 E63.99209
G1 X88.050 Y46.836 E64.17293
G1 X88.050 Y46.491 E64.18001
G1 X82.162 Y40.603 E64.35084
G1 X82.506 Y40.603 E64.35792
G1 X88.050 Y46.146 E64.51874
G1 X88.050 Y45.801 E64.52582
G1 X82.851 Y40.603 E64.67664
G1 X83.196 Y40.603 E64.68371
G1 X88.050 Y45.456 E64.82452
G1 X88.050 Y45.111 E64.83160
G1 X83.541 Y40.603 E64.96240
G1 X83.886 Y40.603 E64.96948
G1 X88.050 Y44.766 E65.09027
G1 X88.050 Y44.421 E65.09735
G1 X84.231 Y40.603 E65.20814
G1 X84.576 Y40.603 E65.21521
G1 X88.050 Y44.076 E65.31599
G1 X88.050 Y43.732 E65.32307
G1 X84.921 Y40.603 E65.41384
G1 X85.266 Y40.603 E65.42092
G1 X88.050 Y43.387 E65.50168
G1 X88.050 Y43.042 E65.50876
G1 X85.611 Y40.603 E65.57952
G1 X85.956 Y40.603 E65.58659
G1 X88.050 Y42.697 E65.64734
G1 X88.050 Y42.352 E65.65442
G1 X86.301 Y40.603 E65.70516
G1 X86.646 Y40.603 E65.71224
G1 X88.050 Y42.007 E65.75298
G1 X88.050 Y41.662 E65.76005
G1 X86.991 Y40.603 E65.79078
G1 X87.336 Y40.603 E65.79786
G1 X88.050 Y41.317 E65.81858
G1 X88.050 Y40.972 E65.82565
G1 X87.681 Y40.603 E65.83637
G1 X88.025 Y40.603 E65.84344
G1 X88.050 Y40.627 E65.84415
M106 S197
G1 F1200.000 E62.84415
G92 E0
G1 Z0.400 F9000.000
G1 X87.800 Y40.853 F9000.000
G1 E3.00000 F1200.000
G1 X87.800 Y59.147 E3.61547 F3000
G1 X52.200 Y59.147 E4.81315
G1 X52.200 Y40.853 E5.42862
G1 X87.740 Y40.853 E6.62428
G1 F1200.000 E3.62428
G92 E0
G1 X51.800 Y59.547 F9000.000
G1 E3.00000 F1200.000
G1 X51.800 Y40.453 E3.64239 F3000
G1 X88.200 Y40.453 E4.86698
G1 X88.200 Y59.547 E5.50936
G1 X51.860 Y59.547 E6.73194
G1 X51.400 Y59.947 F9000.000
G1 X51.400 Y40.053 E7.40124 F1800
G1 X88.600 Y40.053 E8.65274
G1 X88.600 Y59.947 E9.32205
G1 X51.460 Y59.947 E10.57153
G1 X51.600 Y59.601 F9000.000
G1 F1200.000 E7.57153
G92 E0
G1 X52.573 Y41.163 F9000.000
G1 E3.00000 F1200.000
G1 X52.510 Y41.226 E3.00471 F3600
G1 X52.510 Y42.116 E3.05185
G1 X53.464 Y41.163 E3.12323
G1 X54.354 Y41.163 E3.17037
G1 X52.510 Y43.006 E3.30842
G1 X52.510 Y43.897 E3.35556
G1 X55.244 Y41.163 E3.56027
G1 X56.134 Y41.163 E3.60741
G1 X52.510 Y44.787 E3.87879
G1 X52.510 Y45.677 E3.92593
G1 X57.025 Y41.163 E4.26398
G1 X57.915 Y41.163 E4.31112
G1 X52.510 Y46.568 E4.71583
G1 X52.510 Y47.458 E4.76297
G1 X58.805 Y41.163 E5.23435
G1 X59.696 Y41.163 E5.28149
G1 X52.510 Y48.348 E5.81954
G1 X52.510 Y49.239 E5.86668
G1 X60.586 Y41.163 E6.47140
G1 X61.476 Y41.163 E6.51854
G1 X52.510 Y50.129 E7.18992
G1 X52.510 Y51.019 E7.23706
G1 X62.367 Y41.163 E7.97511
G1 X63.257 Y41.163 E8.02225
G1 X52.510 Y51.909 E8.82697
G1 X52.510 Y52.800 E8.87411
G1 X64.147 Y41.163 E9.74549
G1 X65.037 Y41.163 E9.79263
G1 X52.510 Y53.690 E10.73068
G1 X52.510 Y54.580 E10.77783
G1 X65.928 Y41.163 E11.78254
G1 X66.818 Y41.163 E11.82968
G1 X52.510 Y55.471 E12.90107
G1 X52.510 Y56.361 E12.94821
G1 X67.708 Y41.163 E14.08627
G1 X68.599 Y41.163 E14.13341
G1 X52.510 Y57.251 E15.33813
G1 X52.510 Y58.141 E15.38527
G1 X69.489 Y41.163 E16.65666
G1 X70.379 Y41.163 E16.70380
G1 X52.705 Y58.837 E18.02727
G1 X53.595 Y58.837 E18.07441
G1 X71.270 Y41.163 E19.39789
G1 X72.160 Y41.163 E19.44503
G1 X54.486 Y58.837 E20.76851
G1 X55.376 Y58.837 E20.81565
G1 X73.050 Y41.163 E22.13912
G1 X73.940 Y41.163 E22.18626
G1 X56.266 Y58.837 E23.50974
