; generated by Slic3r 1.0.0RC1 on 2014-01-05 at 12:56:33

; layer_height = 0.2
; perimeters = 3
; top_solid_layers = 10
; bottom_solid_layers = 4
; fill_density = 0.2
; perimeter_speed = 50
; infill_speed = 50
; travel_speed = 150
; nozzle_diameter = 0.4
; filament_diameter = 1.74
; extrusion_multiplier = 1
; perimeters extrusion width = 0.40mm
; infill extrusion width = 0.67mm
; solid infill extrusion width = 0.67mm
; top infill extrusion width = 0.67mm
; first layer extrusion width = 0.20mm

G21 ; set units to millimeters
M107
G28 X0 Y0; home X and Y
M104 S205 ; set hotend temp, no wait.
M116 ; waiting for both temperatures
G28 Z0; home Z
M92 X80; calibrate X
M92 Y80; calibrate Y
M92 Z2387.0719; calibrate Z
M92 E65.35; calibrate E for direct drive
G90 ; use absolute coordinates
G92 E0
M82 ; use absolute distances for extrusion
G1 F1200.000 E-3.00000
G92 E0
G1 Z0.200 F9000.000
G1 X32.800 Y25.934 F9000.000
G1 E3.00000 F1200.000
G1 X32.880 Y25.834 E3.00262 F1800.000
G1 X34.060 Y24.684 E3.03628
G1 X35.480 Y23.854 E3.06989
G1 X35.690 Y23.764 E3.07456
G1 X36.730 Y23.414 E3.09698
G1 X37.810 Y23.234 E3.11935
G1 X64.670 Y21.124 E3.66983
G1 X65.200 Y21.104 E3.68067
G1 X102.790 Y21.104 E4.44870
G1 X104.100 Y21.234 E4.47560
G1 X105.360 Y21.614 E4.50249
G1 X106.530 Y22.244 E4.52964
G1 X107.550 Y23.074 E4.55650
G1 X108.380 Y24.094 E4.58337
G1 X109.010 Y25.264 E4.61052
G1 X109.390 Y26.524 E4.63741
G1 X109.520 Y27.834 E4.66431
G1 X109.520 Y48.124 E5.07887
G1 X109.310 Y49.784 E5.11306
G1 X108.700 Y51.344 E5.14728
G1 X107.720 Y52.704 E5.18153
G1 X91.000 Y70.694 E5.68334
G1 X90.310 Y71.334 E5.70257
G1 X89.960 Y71.614 E5.71172
G1 X84.920 Y75.414 E5.84069
G1 X83.680 Y76.154 E5.87019
G1 X82.310 Y76.614 E5.89972
G1 X80.870 Y76.774 E5.92932
G1 X71.180 Y76.774 E6.12731
G1 X69.740 Y76.614 E6.15691
G1 X68.370 Y76.154 E6.18644
G1 X67.130 Y75.414 E6.21594
G1 X62.050 Y71.594 E6.34580
G1 X61.390 Y71.044 E6.36336
G1 X33.390 Y45.044 E7.14405
G1 X32.670 Y44.264 E7.16574
G1 X32.090 Y43.384 E7.18728
G1 X31.660 Y42.494 E7.20747
G1 X31.350 Y41.494 E7.22886
G1 X31.240 Y40.924 E7.24072
G1 X31.170 Y40.344 E7.25266
G1 X31.140 Y39.714 E7.26555
G1 X31.150 Y30.684 E7.45005
G1 X31.200 Y29.884 E7.46642
G1 X31.240 Y29.554 E7.47321
G1 X31.530 Y28.264 E7.50023
G1 X32.060 Y27.054 E7.52722
G1 X32.190 Y26.824 E7.53262
G1 X32.780 Y25.964 E7.55392
G1 X32.990 Y26.084 F9000.000
G1 X33.070 Y25.984 E7.55653 F1800.000
G1 X34.200 Y24.874 E7.58890
G1 X35.580 Y24.074 E7.62149
G1 X35.790 Y23.984 E7.62616
G1 X36.790 Y23.644 E7.64774
G1 X37.830 Y23.474 E7.66927
G1 X64.690 Y21.364 E8.21976
G1 X65.200 Y21.344 E8.23018
G1 X102.790 Y21.344 E8.99821
G1 X104.060 Y21.474 E9.02430
G1 X105.270 Y21.844 E9.05015
G1 X106.390 Y22.444 E9.07611
G1 X107.380 Y23.244 E9.10212
G1 X108.180 Y24.234 E9.12812
G1 X108.780 Y25.354 E9.15408
G1 X109.150 Y26.564 E9.17994
G1 X109.280 Y27.834 E9.20602
G1 X109.280 Y48.124 E9.62058
G1 X109.070 Y49.724 E9.65355
G1 X108.480 Y51.234 E9.68667
G1 X107.540 Y52.544 E9.71962
G1 X90.820 Y70.534 E10.22142
G1 X90.160 Y71.144 E10.23979
G1 X89.810 Y71.424 E10.24894
G1 X84.770 Y75.224 E10.37791
G1 X83.580 Y75.934 E10.40622
G1 X82.260 Y76.384 E10.43472
G1 X80.870 Y76.534 E10.46328
G1 X71.180 Y76.534 E10.66127
G1 X69.790 Y76.384 E10.68983
G1 X68.470 Y75.934 E10.71832
G1 X67.280 Y75.224 E10.74664
G1 X62.200 Y71.394 E10.87662
G1 X61.560 Y70.864 E10.89360
G1 X33.560 Y44.864 E11.67430
G1 X32.870 Y44.114 E11.69512
G1 X32.300 Y43.264 E11.71603
G1 X31.890 Y42.404 E11.73550
G1 X31.590 Y41.434 E11.75624
G1 X31.480 Y40.884 E11.76770
G1 X31.410 Y40.324 E11.77923
G1 X31.380 Y39.714 E11.79171
G1 X31.390 Y30.684 E11.97621
G1 X31.440 Y29.914 E11.99198
G1 X31.480 Y29.584 E11.99877
G1 X31.760 Y28.334 E12.02494
G1 X32.270 Y27.174 E12.05083
G1 X32.400 Y26.944 E12.05623
G1 X32.970 Y26.114 E12.07679
G1 X33.180 Y26.234 F9000.000
G1 X33.260 Y26.134 E12.07941 F1800.000
G1 X34.350 Y25.064 E12.11062
G1 X35.670 Y24.294 E12.14184
G1 X35.880 Y24.204 E12.14651
G1 X36.850 Y23.884 E12.16738
G1 X37.850 Y23.724 E12.18807
G1 X64.710 Y21.614 E12.73856
G1 X65.200 Y21.594 E12.74858
G1 X102.790 Y21.594 E13.51661
G1 X104.010 Y21.714 E13.54165
G1 X105.180 Y22.064 E13.56660
G1 X106.260 Y22.644 E13.59165
G1 X107.200 Y23.424 E13.61661
G1 X107.980 Y24.364 E13.64157
G1 X108.560 Y25.444 E13.66661
G1 X108.910 Y26.614 E13.69156
G1 X109.030 Y27.834 E13.71661
G1 X109.030 Y48.124 E14.13117
G1 X108.840 Y49.664 E14.16288
G1 X108.270 Y51.114 E14.19471
G1 X107.360 Y52.374 E14.22646
G1 X90.640 Y70.364 E14.72827
G1 X90.010 Y70.964 E14.74605
G1 X89.850 Y71.094 E14.75026
G1 X84.630 Y75.024 E14.88376
G1 X83.480 Y75.714 E14.91116
G1 X82.200 Y76.144 E14.93875
G1 X80.870 Y76.284 E14.96607
G1 X71.180 Y76.284 E15.16406
G1 X69.850 Y76.144 E15.19138
G1 X68.570 Y75.714 E15.21897
G1 X67.420 Y75.024 E15.24637
G1 X62.350 Y71.204 E15.37607
G1 X61.720 Y70.684 E15.39276
G1 X33.720 Y44.684 E16.17346
G1 X33.060 Y43.964 E16.19342
G1 X32.510 Y43.144 E16.21359
G1 X32.110 Y42.314 E16.23241
G1 X31.820 Y41.374 E16.25251
G1 X31.710 Y40.844 E16.26357
G1 X31.650 Y40.304 E16.27467
G1 X31.630 Y39.714 E16.28674
G1 X31.640 Y30.684 E16.47123
G1 X31.680 Y29.944 E16.48638
G1 X31.720 Y29.614 E16.49317
G1 X31.990 Y28.414 E16.51830
G1 X32.490 Y27.294 E16.54336
G1 X32.620 Y27.064 E16.54876
G1 X33.160 Y26.264 E16.56847
G1 F1200.000 E13.56847
G92 E0
G1 X65.786 Y28.420 F9000.000
G1 E3.00000 F1200.000
G1 X102.214 Y28.420 E3.74427 F1800.000
G1 X102.214 Y47.542 E4.13497
G1 X65.786 Y47.542 E4.87925
G1 X65.786 Y28.456 E5.26920
G1 F1200.000 E2.26920
G92 E0
G1 X102.457 Y28.177 F9000.000
G1 E3.00000 F1200.000
G1 X102.457 Y47.785 E3.40063 F1800.000
G1 X65.543 Y47.785 E4.15483
G1 X65.543 Y28.177 E4.55545
G1 X102.420 Y28.177 E5.30891
G1 X102.700 Y27.934 F9000.000
G1 X102.700 Y48.028 E5.71946 F1080.000
G1 X65.300 Y48.028 E6.48359
G1 X65.300 Y27.934 E6.89414
G1 X102.663 Y27.934 E7.65753
G1 X102.578 Y28.144 F9000.000
G1 X102.050 Y28.608 F9000.000
G1 X102.025 Y28.584 E7.65823 F2160.000
G1 X101.681 Y28.584 E7.66531
G1 X102.050 Y28.953 E7.67602
G1 X102.050 Y29.298 E7.68310
G1 X101.336 Y28.584 E7.70382
G1 X100.991 Y28.584 E7.71090
G1 X102.050 Y29.643 E7.74162
G1 X102.050 Y29.988 E7.74870
G1 X100.646 Y28.584 E7.78943
G1 X100.301 Y28.584 E7.79651
G1 X102.050 Y30.333 E7.84725
G1 X102.050 Y30.678 E7.85433
G1 X99.956 Y28.584 E7.91508
G1 X99.611 Y28.584 E7.92216
G1 X102.050 Y31.023 E7.99291
G1 X102.050 Y31.368 E7.99999
G1 X99.266 Y28.584 E8.08076
G1 X98.921 Y28.584 E8.08783
G1 X102.050 Y31.713 E8.17860
G1 X102.050 Y32.057 E8.18568
G1 X98.576 Y28.584 E8.28646
G1 X98.231 Y28.584 E8.29354
G1 X102.050 Y32.402 E8.40433
G1 X102.050 Y32.747 E8.41140
G1 X97.886 Y28.584 E8.53220
G1 X97.541 Y28.584 E8.53927
G1 X102.050 Y33.092 E8.67008
G1 X102.050 Y33.437 E8.67715
G1 X97.196 Y28.584 E8.81796
G1 X96.851 Y28.584 E8.82504
G1 X102.050 Y33.782 E8.97586
G1 X102.050 Y34.127 E8.98293
G1 X96.506 Y28.584 E9.14376
G1 X96.162 Y28.584 E9.15083
G1 X102.050 Y34.472 E9.32167
G1 X102.050 Y34.817 E9.32874
G1 X95.817 Y28.584 E9.50958
G1 X95.472 Y28.584 E9.51666
G1 X102.050 Y35.162 E9.70751
G1 X102.050 Y35.507 E9.71458
G1 X95.127 Y28.584 E9.91544
G1 X94.782 Y28.584 E9.92251
G1 X102.050 Y35.852 E10.13338
G1 X102.050 Y36.197 E10.14045
G1 X94.437 Y28.584 E10.36132
G1 X94.092 Y28.584 E10.36840
G1 X102.050 Y36.542 E10.59928
G1 X102.050 Y36.887 E10.60635
G1 X93.747 Y28.584 E10.84724
G1 X93.402 Y28.584 E10.85432
G1 X102.050 Y37.232 E11.10521
G1 X102.050 Y37.576 E11.11228
G1 X93.057 Y28.584 E11.37318
G1 X92.712 Y28.584 E11.38026
G1 X102.050 Y37.921 E11.65117
G1 X102.050 Y38.266 E11.65824
G1 X92.367 Y28.584 E11.93916
G1 X92.022 Y28.584 E11.94624
G1 X102.050 Y38.611 E12.23716
G1 X102.050 Y38.956 E12.24423
G1 X91.677 Y28.584 E12.54516
G1 X91.332 Y28.584 E12.55224
G1 X102.050 Y39.301 E12.86318
G1 X102.050 Y39.646 E12.87025
G1 X90.987 Y28.584 E13.19120
G1 X90.642 Y28.584 E13.19828
G1 X102.050 Y39.991 E13.52923
G1 X102.050 Y40.336 E13.53631
G1 X90.298 Y28.584 E13.87727
G1 X89.953 Y28.584 E13.88434
G1 X102.050 Y40.681 E14.23531
G1 X102.050 Y41.026 E14.24239
G1 X89.608 Y28.584 E14.60336
G1 X89.263 Y28.584 E14.61044
G1 X102.050 Y41.371 E14.98142
G1 X102.050 Y41.716 E14.98850
G1 X88.918 Y28.584 E15.36949
G1 X88.573 Y28.584 E15.37656
G1 X102.050 Y42.061 E15.76756
G1 X102.050 Y42.406 E15.77464
G1 X88.228 Y28.584 E16.17564
G1 X87.883 Y28.584 E16.18272
G1 X102.050 Y42.751 E16.59373
G1 X102.050 Y43.096 E16.60081
G1 X87.538 Y28.584 E17.02183
G1 X87.193 Y28.584 E17.02890
G1 X102.050 Y43.440 E17.45993
G1 X102.050 Y43.785 E17.46701
G1 X86.848 Y28.584 E17.90804
G1 X86.503 Y28.584 E17.91512
G1 X102.050 Y44.130 E18.36616
G1 X102.050 Y44.475 E18.37324
G1 X86.158 Y28.584 E18.83429
G1 X85.813 Y28.584 E18.84136
G1 X102.050 Y44.820 E19.31242
G1 X102.050 Y45.165 E19.31950
G1 X85.468 Y28.584 E19.80056
G1 X85.123 Y28.584 E19.80764
G1 X102.050 Y45.510 E20.29871
G1 X102.050 Y45.855 E20.30579
G1 X84.779 Y28.584 E20.80687
G1 X84.434 Y28.584 E20.81394
G1 X102.050 Y46.200 E21.32503
G1 X102.050 Y46.545 E21.33211
G1 X84.089 Y28.584 E21.85320
G1 X83.744 Y28.584 E21.86028
G1 X102.050 Y46.890 E22.39138
G1 X102.050 Y47.235 E22.39846
G1 X83.399 Y28.584 E22.93957
G1 X83.054 Y28.584 E22.94664
G1 X101.848 Y47.378 E23.49191
G1 X101.503 Y47.378 E23.49899
G1 X82.709 Y28.584 E24.04426
G1 X82.364 Y28.584 E24.05134
G1 X101.158 Y47.378 E24.59661
G1 X100.813 Y47.378 E24.60368
G1 X82.019 Y28.584 E25.14895
G1 X81.674 Y28.584 E25.15603
G1 X100.468 Y47.378 E25.70130
G1 X100.124 Y47.378 E25.70838
G1 X81.329 Y28.584 E26.25365
G1 X80.984 Y28.584 E26.26072
G1 X99.779 Y47.378 E26.80599
G1 X99.434 Y47.378 E26.81307
G1 X80.639 Y28.584 E27.35834
G1 X80.294 Y28.584 E27.36542
G1 X99.089 Y47.378 E27.91069
G1 X98.744 Y47.378 E27.91776
G1 X79.949 Y28.584 E28.46303
G1 X79.604 Y28.584 E28.47011
G1 X98.399 Y47.378 E29.01538
G1 X98.054 Y47.378 E29.02246
G1 X79.260 Y28.584 E29.56773
G1 X78.915 Y28.584 E29.57480
G1 X97.709 Y47.378 E30.12007
G1 X97.364 Y47.378 E30.12715
G1 X78.570 Y28.584 E30.67242
G1 X78.225 Y28.584 E30.67950
G1 X97.019 Y47.378 E31.22477
G1 X96.674 Y47.378 E31.23184
G1 X77.880 Y28.584 E31.77711
G1 X77.535 Y28.584 E31.78419
G1 X96.329 Y47.378 E32.32946
G1 X95.984 Y47.378 E32.33654
G1 X77.190 Y28.584 E32.88181
G1 X76.845 Y28.584 E32.88888
G1 X95.639 Y47.378 E33.43415
G1 X95.294 Y47.378 E33.44123
G1 X76.500 Y28.584 E33.98650
G1 X76.155 Y28.584 E33.99358
G1 X94.949 Y47.378 E34.53885
G1 X94.605 Y47.378 E34.54592
G1 X75.810 Y28.584 E35.09119
G1 X75.465 Y28.584 E35.09827
G1 X94.260 Y47.378 E35.64354
G1 X93.915 Y47.378 E35.65062
G1 X75.120 Y28.584 E36.19589
G1 X74.775 Y28.584 E36.20296
G1 X93.570 Y47.378 E36.74823
G1 X93.225 Y47.378 E36.75531
G1 X74.430 Y28.584 E37.30058
G1 X74.085 Y28.584 E37.30766
G1 X92.880 Y47.378 E37.85293
G1 X92.535 Y47.378 E37.86000
G1 X73.740 Y28.584 E38.40527
G1 X73.396 Y28.584 E38.41235
G1 X92.190 Y47.378 E38.95762
G1 X91.845 Y47.378 E38.96470
G1 X73.051 Y28.584 E39.50997
G1 X72.706 Y28.584 E39.51704
G1 X91.500 Y47.378 E40.06231
G1 X91.155 Y47.378 E40.06939
G1 X72.361 Y28.584 E40.61466
G1 X72.016 Y28.584 E40.62174
G1 X90.810 Y47.378 E41.16701
G1 X90.465 Y47.378 E41.17408
G1 X71.671 Y28.584 E41.71935
G1 X71.326 Y28.584 E41.72643
G1 X90.120 Y47.378 E42.27170
G1 X89.775 Y47.378 E42.27878
G1 X70.981 Y28.584 E42.82405
G1 X70.636 Y28.584 E42.83112
G1 X89.430 Y47.378 E43.37639
G1 X89.086 Y47.378 E43.38347
G1 X70.291 Y28.584 E43.92874
G1 X69.946 Y28.584 E43.93582
G1 X88.741 Y47.378 E44.48109
G1 X88.396 Y47.378 E44.48816
G1 X69.601 Y28.584 E45.03343
G1 X69.256 Y28.584 E45.04051
G1 X88.051 Y47.378 E45.58578
G1 X87.706 Y47.378 E45.59286
G1 X68.911 Y28.584 E46.13813
G1 X68.566 Y28.584 E46.14520
G1 X87.361 Y47.378 E46.69048
G1 X87.016 Y47.378 E46.69755
G1 X68.221 Y28.584 E47.24282
G1 X67.877 Y28.584 E47.24990
G1 X86.671 Y47.378 E47.79517
G1 X86.326 Y47.378 E47.80224
G1 X67.532 Y28.584 E48.34752
G1 X67.187 Y28.584 E48.35459
G1 X85.981 Y47.378 E48.89986
G1 X85.636 Y47.378 E48.90694
G1 X66.842 Y28.584 E49.45221
G1 X66.497 Y28.584 E49.45929
G1 X85.291 Y47.378 E50.00456
G1 X84.946 Y47.378 E50.01163
G1 X66.152 Y28.584 E50.55690
G1 X65.950 Y28.727 E50.56198
G1 X84.601 Y47.378 E51.10309
G1 X84.256 Y47.378 E51.11017
G1 X65.950 Y29.072 E51.64127
G1 X65.950 Y29.417 E51.64835
G1 X83.911 Y47.378 E52.16944
G1 X83.566 Y47.378 E52.17652
G1 X65.950 Y29.762 E52.68761
G1 X65.950 Y30.107 E52.69469
G1 X83.222 Y47.378 E53.19577
G1 X82.877 Y47.378 E53.20285
G1 X65.950 Y30.452 E53.69392
G1 X65.950 Y30.797 E53.70100
G1 X82.532 Y47.378 E54.18206
G1 X82.187 Y47.378 E54.18914
G1 X65.950 Y31.142 E54.66020
G1 X65.950 Y31.487 E54.66728
G1 X81.842 Y47.378 E55.12833
G1 X81.497 Y47.378 E55.13540
G1 X65.950 Y31.832 E55.58645
G1 X65.950 Y32.176 E55.59353
G1 X81.152 Y47.378 E56.03456
G1 X80.807 Y47.378 E56.04164
G1 X65.950 Y32.521 E56.47267
G1 X65.950 Y32.866 E56.47975
G1 X80.462 Y47.378 E56.90077
G1 X80.117 Y47.378 E56.90784
G1 X65.950 Y33.211 E57.31886
G1 X65.950 Y33.556 E57.32594
G1 X79.772 Y47.378 E57.72694
G1 X79.427 Y47.378 E57.73402
G1 X65.950 Y33.901 E58.12502
G1 X65.950 Y34.246 E58.13210
G1 X79.082 Y47.378 E58.51309
G1 X78.737 Y47.378 E58.52016
G1 X65.950 Y34.591 E58.89115
G1 X65.950 Y34.936 E58.89823
G1 X78.392 Y47.378 E59.25920
G1 X78.047 Y47.378 E59.26628
G1 X65.950 Y35.281 E59.61725
G1 X65.950 Y35.626 E59.62433
G1 X77.703 Y47.378 E59.96529
G1 X77.358 Y47.378 E59.97236
G1 X65.950 Y35.971 E60.30332
G1 X65.950 Y36.316 E60.31040
G1 X77.013 Y47.378 E60.63134
G1 X76.668 Y47.378 E60.63842
G1 X65.950 Y36.661 E60.94936
G1 X65.950 Y37.006 E60.95644
G1 X76.323 Y47.378 E61.25737
G1 X75.978 Y47.378 E61.26444
G1 X65.950 Y37.351 E61.55537
G1 X65.950 Y37.696 E61.56245
G1 X75.633 Y47.378 E61.84336
G1 X75.288 Y47.378 E61.85044
G1 X65.950 Y38.040 E62.12135
G1 X65.950 Y38.385 E62.12843
G1 X74.943 Y47.378 E62.38933
G1 X74.598 Y47.378 E62.39640
G1 X65.950 Y38.730 E62.64730
G1 X65.950 Y39.075 E62.65438
G1 X74.253 Y47.378 E62.89526
G1 X73.908 Y47.378 E62.90234
G1 X65.950 Y39.420 E63.13322
G1 X65.950 Y39.765 E63.14030
G1 X73.563 Y47.378 E63.36117
G1 X73.218 Y47.378 E63.36824
G1 X65.950 Y40.110 E63.57911
G1 X65.950 Y40.455 E63.58619
G1 X72.873 Y47.378 E63.78704
G1 X72.528 Y47.378 E63.79412
G1 X65.950 Y40.800 E63.98497
G1 X65.950 Y41.145 E63.99205
G1 X72.184 Y47.378 E64.17289
G1 X71.839 Y47.378 E64.17996
G1 X65.950 Y41.490 E64.35080
G1 X65.950 Y41.835 E64.35788
G1 X71.494 Y47.378 E64.51870
G1 X71.149 Y47.378 E64.52578
G1 X65.950 Y42.180 E64.67660
G1 X65.950 Y42.525 E64.68368
G1 X70.804 Y47.378 E64.82449
G1 X70.459 Y47.378 E64.83157
G1 X65.950 Y42.870 E64.96237
G1 X65.950 Y43.215 E64.96945
G1 X70.114 Y47.378 E65.09024
G1 X69.769 Y47.378 E65.09732
G1 X65.950 Y43.559 E65.20811
G1 X65.950 Y43.904 E65.21519
G1 X69.424 Y47.378 E65.31597
G1 X69.079 Y47.378 E65.32305
G1 X65.950 Y44.249 E65.41382
G1 X65.950 Y44.594 E65.42090
G1 X68.734 Y47.378 E65.50166
G1 X68.389 Y47.378 E65.50874
G1 X65.950 Y44.939 E65.57950
G1 X65.950 Y45.284 E65.58658
G1 X68.044 Y47.378 E65.64733
G1 X67.699 Y47.378 E65.65441
G1 X65.950 Y45.629 E65.70515
G1 X65.950 Y45.974 E65.71223
G1 X67.354 Y47.378 E65.75297
G1 X67.009 Y47.378 E65.76004
G1 X65.950 Y46.319 E65.79077
G1 X65.950 Y46.664 E65.79785
G1 X66.664 Y47.378 E65.81857
G1 X66.320 Y47.378 E65.82565
G1 X65.950 Y47.009 E65.83636
G1 X65.950 Y47.354 E65.84344
G1 X65.975 Y47.378 E65.84415
G1 F1200.000 E62.84415
G92 E0
G1 X57.591 Y39.711 F9000.000
G1 E3.00000 F1200.000
G1 X53.329 Y39.711 E3.08708 F1800.000
G1 X53.000 Y39.847 E3.09437
G1 X52.347 Y39.712 E3.10799
G1 X52.342 Y43.464 E3.18465
G1 X43.713 Y43.464 E3.36096
G1 X43.708 Y39.712 E3.43762
G1 X43.055 Y39.847 E3.45125
G1 X42.726 Y39.711 E3.45853
G1 X38.464 Y39.711 E3.54561
G1 X38.464 Y31.014 E3.72331
G1 X38.491 Y30.537 E3.73307
G1 X41.334 Y30.535 E3.79115
G1 X41.335 Y34.302 E3.86811
G1 X42.033 Y34.287 E3.88237
G1 X46.464 Y34.287 E3.97290
G1 X47.004 Y34.294 E3.98395
G1 X47.468 Y34.328 E3.99344
G1 X47.931 Y34.294 E4.00293
G1 X48.588 Y34.328 E4.01637
G1 X49.051 Y34.294 E4.02586
G1 X49.592 Y34.287 E4.03691
G1 X54.022 Y34.287 E4.12743
G1 X54.720 Y34.302 E4.14169
G1 X54.721 Y30.535 E4.21865
G1 X57.564 Y30.537 E4.27674
G1 X57.591 Y31.015 E4.28650
