; generated by Slic3r 1.0.0RC1 on 2014-01-04 at 15:17:01

; layer_height = 0.2
; perimeters = 3
; top_solid_layers = 10
; bottom_solid_layers = 4
; fill_density = 0.2
; perimeter_speed = 60
; infill_speed = 60
; travel_speed = 150
; nozzle_diameter = 0.4
; filament_diameter = 1.74
; extrusion_multiplier = 1
; perimeters extrusion width = 0.40mm
; infill extrusion width = 0.67mm
; solid infill extrusion width = 0.67mm
; top infill extrusion width = 0.67mm
; first layer extrusion width = 0.20mm

G21 ; set units to millimeters
M107
G28 X0 Y0; home X and Y
M104 S205 ; set hotend temp, no wait.
M116 ; waiting for both temperatures
G28 Z0; home Z
M92 X80; calibrate X
M92 Y80; calibrate Y
M92 Z2387.0719; calibrate Z
M92 E65.35; calibrate E for direct drive
G90 ; use absolute coordinates
G92 E0
M82 ; use absolute distances for extrusion
G1 F1200.000 E-3.00000
G92 E0
G1 Z0.200 F9000.000
G1 X30.033 Y37.684 F9000.000
G1 E3.00000 F1200.000
G1 X31.453 Y36.854 E3.03361 F3240.000
G1 X31.663 Y36.764 E3.03827
G1 X32.963 Y36.354 E3.06612
G1 X34.313 Y36.214 E3.09386
G1 X105.673 Y36.214 E4.55187
G1 X107.023 Y36.354 E4.57960
G1 X108.323 Y36.764 E4.60745
G1 X108.533 Y36.854 E4.61212
G1 X109.803 Y37.564 E4.64184
G1 X110.883 Y38.534 E4.67150
G1 X111.503 Y39.294 E4.69154
G1 X111.943 Y40.024 E4.70896
G1 X112.063 Y40.254 E4.71426
G1 X112.493 Y41.274 E4.73687
G1 X112.743 Y42.354 E4.75952
G1 X112.793 Y42.684 E4.76634
G1 X112.873 Y43.694 E4.78704
G1 X112.873 Y52.864 E4.97440
G1 X112.823 Y53.684 E4.99119
G1 X112.673 Y54.494 E5.00802
G1 X112.633 Y54.654 E5.01139
G1 X112.253 Y55.744 E5.03497
G1 X111.703 Y56.754 E5.05847
G1 X111.023 Y57.644 E5.08136
G1 X110.283 Y58.334 E5.10203
G1 X104.893 Y62.414 E5.24015
G1 X103.653 Y63.154 E5.26965
G1 X102.283 Y63.614 E5.29918
G1 X100.843 Y63.774 E5.32878
G1 X39.153 Y63.774 E6.58922
G1 X37.713 Y63.614 E6.61882
G1 X36.343 Y63.154 E6.64835
G1 X35.103 Y62.414 E6.67785
G1 X29.853 Y58.464 E6.81209
G1 X28.853 Y57.514 E6.84027
G1 X28.063 Y56.384 E6.86844
G1 X27.633 Y55.494 E6.88864
G1 X27.363 Y54.654 E6.90666
G1 X27.213 Y53.924 E6.92189
G1 X27.143 Y53.344 E6.93383
G1 X27.113 Y52.714 E6.94671
G1 X27.123 Y43.684 E7.13121
G1 X27.173 Y42.884 E7.14759
G1 X27.213 Y42.554 E7.15438
G1 X27.503 Y41.264 E7.18140
G1 X28.033 Y40.054 E7.20839
G1 X28.163 Y39.824 E7.21378
G1 X28.853 Y38.834 E7.23844
G1 X30.007 Y37.709 E7.27136
G1 X30.173 Y37.874 F9000.000
G1 X31.553 Y37.074 E7.30395 F3240.000
G1 X31.763 Y36.984 E7.30862
G1 X33.013 Y36.594 E7.33537
G1 X34.313 Y36.454 E7.36209
G1 X105.673 Y36.454 E8.82010
G1 X106.973 Y36.594 E8.84681
G1 X108.223 Y36.984 E8.87357
G1 X108.433 Y37.074 E8.87823
G1 X109.663 Y37.764 E8.90705
G1 X110.703 Y38.694 E8.93556
G1 X111.303 Y39.434 E8.95502
G1 X111.723 Y40.134 E8.97170
G1 X111.843 Y40.364 E8.97700
G1 X112.263 Y41.354 E8.99897
G1 X112.503 Y42.394 E9.02078
G1 X112.553 Y42.724 E9.02760
G1 X112.633 Y43.694 E9.04749
G1 X112.633 Y52.864 E9.23485
G1 X112.583 Y53.654 E9.25102
G1 X112.433 Y54.434 E9.26725
G1 X112.033 Y55.644 E9.29329
G1 X111.503 Y56.624 E9.31605
G1 X110.843 Y57.474 E9.33804
G1 X110.133 Y58.144 E9.35798
G1 X104.743 Y62.224 E9.49610
G1 X103.553 Y62.934 E9.52442
G1 X102.233 Y63.384 E9.55291
G1 X100.843 Y63.534 E9.58147
G1 X39.153 Y63.534 E10.84191
G1 X37.763 Y63.384 E10.87047
G1 X36.443 Y62.934 E10.89897
G1 X35.253 Y62.224 E10.92728
G1 X30.003 Y58.264 E11.06164
G1 X29.033 Y57.354 E11.08882
G1 X28.273 Y56.264 E11.11596
G1 X27.863 Y55.404 E11.13543
G1 X27.603 Y54.594 E11.15281
G1 X27.453 Y53.884 E11.16764
G1 X27.383 Y53.324 E11.17917
G1 X27.353 Y52.714 E11.19165
G1 X27.363 Y43.684 E11.37615
G1 X27.413 Y42.914 E11.39191
G1 X27.453 Y42.584 E11.39870
G1 X27.733 Y41.334 E11.42488
G1 X28.243 Y40.174 E11.45077
G1 X28.373 Y39.944 E11.45617
G1 X29.043 Y38.984 E11.48008
G1 X30.147 Y37.900 E11.51170
G1 X30.323 Y38.064 F9000.000
G1 X31.643 Y37.294 E11.54293 F3240.000
G1 X31.853 Y37.204 E11.54759
G1 X33.053 Y36.824 E11.57331
G1 X34.313 Y36.704 E11.59917
G1 X105.673 Y36.704 E13.05718
G1 X106.933 Y36.824 E13.08304
G1 X108.133 Y37.204 E13.10876
G1 X108.343 Y37.294 E13.11343
G1 X109.513 Y37.954 E13.14088
G1 X110.523 Y38.854 E13.16852
G1 X111.103 Y39.574 E13.18741
G1 X111.503 Y40.244 E13.20335
G1 X111.623 Y40.474 E13.20865
G1 X112.023 Y41.424 E13.22971
G1 X112.263 Y42.424 E13.25072
G1 X112.313 Y42.754 E13.25754
G1 X112.383 Y43.694 E13.27680
G1 X112.383 Y52.864 E13.46416
G1 X112.343 Y53.624 E13.47971
G1 X112.203 Y54.374 E13.49530
G1 X111.813 Y55.554 E13.52069
G1 X111.293 Y56.484 E13.54246
G1 X110.663 Y57.314 E13.56375
G1 X109.983 Y57.964 E13.58297
G1 X104.603 Y62.024 E13.72068
G1 X103.453 Y62.714 E13.74808
G1 X102.173 Y63.144 E13.77567
G1 X100.843 Y63.284 E13.80300
G1 X39.153 Y63.284 E15.06343
G1 X37.823 Y63.144 E15.09076
G1 X36.543 Y62.714 E15.11834
G1 X35.393 Y62.024 E15.14575
G1 X30.153 Y58.074 E15.27982
G1 X29.223 Y57.194 E15.30598
G1 X28.483 Y56.144 E15.33222
G1 X28.083 Y55.314 E15.35105
G1 X27.833 Y54.534 E15.36778
G1 X27.683 Y53.844 E15.38221
G1 X27.613 Y53.164 E15.39618
G1 X27.603 Y52.714 E15.40538
G1 X27.613 Y43.684 E15.58987
G1 X27.653 Y42.944 E15.60502
G1 X27.693 Y42.614 E15.61181
G1 X27.963 Y41.414 E15.63694
G1 X28.463 Y40.294 E15.66200
G1 X28.593 Y40.064 E15.66740
G1 X29.233 Y39.134 E15.69046
G1 X30.297 Y38.090 E15.72093
G1 F1200.000 E12.72093
G92 E0
G1 X60.464 Y43.537 F9000.000
G1 E3.00000 F1200.000
G1 X63.306 Y43.535 E3.05808 F3240.000
G1 X63.308 Y47.302 E3.13504
G1 X64.005 Y47.287 E3.14931
G1 X68.436 Y47.287 E3.23983
G1 X68.977 Y47.294 E3.25088
G1 X69.440 Y47.328 E3.26037
G1 X69.903 Y47.294 E3.26986
G1 X70.560 Y47.328 E3.28330
G1 X71.023 Y47.294 E3.29279
G1 X71.564 Y47.287 E3.30384
G1 X75.995 Y47.287 E3.39436
G1 X76.692 Y47.302 E3.40862
G1 X76.694 Y43.535 E3.48558
G1 X79.536 Y43.537 E3.54367
G1 X79.564 Y44.015 E3.55343
G1 X79.564 Y52.711 E3.73112
G1 X75.301 Y52.711 E3.81821
G1 X74.972 Y52.847 E3.82549
G1 X74.319 Y52.712 E3.83911
G1 X74.315 Y56.464 E3.91577
G1 X65.685 Y56.464 E4.09208
G1 X65.681 Y52.712 E4.16874
G1 X65.028 Y52.847 E4.18237
G1 X64.698 Y52.711 E4.18965
G1 X60.436 Y52.711 E4.27673
G1 X60.436 Y44.014 E4.45443
G1 X60.460 Y43.574 E4.46345
G1 F1200.000 E1.46345
G92 E0
G1 X79.687 Y43.325 F9000.000
G1 E3.00000 F1200.000
G1 X79.776 Y43.496 E3.00395 F3240.000
G1 X79.804 Y43.735 E3.00886
G1 X79.803 Y52.874 E3.19559
G1 X79.734 Y52.934 E3.19745
G1 X79.580 Y52.954 E3.20063
G1 X75.349 Y52.954 E3.28706
G1 X74.982 Y53.098 E3.29512
G1 X74.562 Y53.010 E3.30388
G1 X74.562 Y56.238 E3.36982
G1 X74.540 Y56.706 E3.37939
G1 X65.460 Y56.706 E3.56492
G1 X65.438 Y56.238 E3.57449
G1 X65.438 Y53.010 E3.64043
G1 X65.018 Y53.098 E3.64919
G1 X64.651 Y52.954 E3.65725
G1 X60.420 Y52.954 E3.74368
G1 X60.266 Y52.934 E3.74686
G1 X60.197 Y52.874 E3.74872
G1 X60.196 Y43.735 E3.93545
G1 X60.224 Y43.496 E3.94036
G1 X60.313 Y43.325 E3.94431
G1 X60.391 Y43.294 E3.94601
G1 X63.488 Y43.294 E4.00929
G1 X63.541 Y43.487 E4.01338
G1 X63.559 Y43.712 E4.01800
G1 X63.553 Y47.054 E4.08627
G1 X68.437 Y47.044 E4.18606
G1 X68.986 Y47.051 E4.19729
G1 X69.440 Y47.084 E4.20658
G1 X70.000 Y47.050 E4.21804
G1 X70.560 Y47.084 E4.22951
G1 X71.014 Y47.051 E4.23880
G1 X71.563 Y47.044 E4.25003
G1 X76.447 Y47.054 E4.34981
G1 X76.441 Y43.712 E4.41809
G1 X76.459 Y43.487 E4.42271
G1 X76.512 Y43.294 E4.42680
G1 X79.609 Y43.294 E4.49008
G1 X79.653 Y43.311 E4.49103
G1 X79.716 Y43.075 F9000.000
G1 X79.828 Y43.119 E4.49348 F1944.000
G1 X79.893 Y43.195 E4.49553
G1 X80.005 Y43.408 E4.50043
G1 X80.046 Y43.709 E4.50664
G1 X80.050 Y52.729 E4.69094
G1 X80.046 Y52.862 E4.69365
G1 X80.012 Y52.986 E4.69629
G1 X79.972 Y53.049 E4.69780
G1 X79.841 Y53.162 E4.70134
G1 X79.668 Y53.193 E4.70493
G1 X75.397 Y53.197 E4.79219
G1 X75.004 Y53.342 E4.80075
G1 X74.805 Y53.309 E4.80487
G1 X74.804 Y56.352 E4.86704
G1 X74.760 Y56.946 E4.87923
G1 X65.240 Y56.946 E5.07372
G1 X65.196 Y56.352 E5.08591
G1 X65.195 Y53.309 E5.14808
G1 X64.996 Y53.342 E5.15220
G1 X64.603 Y53.197 E5.16076
G1 X60.332 Y53.193 E5.24802
G1 X60.159 Y53.162 E5.25161
G1 X60.028 Y53.049 E5.25515
G1 X59.988 Y52.986 E5.25666
G1 X59.954 Y52.862 E5.25930
G1 X59.950 Y52.729 E5.26201
G1 X59.954 Y43.709 E5.44631
G1 X59.995 Y43.408 E5.45251
G1 X60.107 Y43.195 E5.45742
G1 X60.172 Y43.119 E5.45947
G1 X60.339 Y43.051 E5.46315
G1 X63.566 Y43.051 E5.52908
G1 X63.625 Y43.083 E5.53045
G1 X63.710 Y43.188 E5.53321
G1 X63.781 Y43.444 E5.53865
G1 X63.802 Y43.702 E5.54395
G1 X63.799 Y46.805 E5.60735
G1 X68.438 Y46.801 E5.70213
G1 X68.996 Y46.808 E5.71354
G1 X69.440 Y46.841 E5.72263
G1 X70.000 Y46.807 E5.73410
G1 X70.560 Y46.841 E5.74556
G1 X71.004 Y46.808 E5.75466
G1 X71.562 Y46.801 E5.76606
G1 X76.201 Y46.805 E5.86085
G1 X76.198 Y43.702 E5.92425
G1 X76.219 Y43.444 E5.92955
G1 X76.290 Y43.188 E5.93498
G1 X76.375 Y43.083 E5.93775
G1 X76.434 Y43.051 E5.93912
G1 X79.683 Y43.061 E6.00550
G1 X79.748 Y43.191 F9000.000
G1 X79.358 Y43.701 F9000.000
G1 X79.383 Y43.726 E6.00622 F3240.000
G1 X79.400 Y44.088 E6.01364
G1 X79.013 Y43.701 E6.02486
G1 X78.668 Y43.701 E6.03193
G1 X79.400 Y44.433 E6.05315
G1 X79.400 Y44.777 E6.06022
G1 X78.323 Y43.700 E6.09145
G1 X77.978 Y43.700 E6.09852
G1 X79.400 Y45.122 E6.13975
G1 X79.400 Y45.467 E6.14682
G1 X77.633 Y43.700 E6.19805
G1 X77.288 Y43.700 E6.20513
G1 X79.400 Y45.812 E6.26637
G1 X79.400 Y46.156 E6.27343
G1 X76.943 Y43.699 E6.34468
G1 X76.848 Y43.950 E6.35016
G1 X79.400 Y46.501 E6.42414
G1 X79.400 Y46.846 E6.43121
G1 X76.849 Y44.295 E6.50516
G1 X76.850 Y44.641 E6.51225
G1 X79.400 Y47.191 E6.58618
G1 X79.400 Y47.535 E6.59325
G1 X76.851 Y44.986 E6.66716
G1 X76.852 Y45.332 E6.67424
G1 X79.400 Y47.880 E6.74813
G1 X79.400 Y48.225 E6.75520
G1 X76.853 Y45.677 E6.82906
G1 X76.853 Y46.023 E6.83614
G1 X79.400 Y48.569 E6.90998
G1 X79.400 Y48.914 E6.91705
G1 X76.854 Y46.369 E6.99086
G1 X76.855 Y46.714 E6.99795
G1 X79.400 Y49.259 E7.07174
G1 X79.400 Y49.604 E7.07881
G1 X76.856 Y47.060 E7.15257
G1 X76.857 Y47.405 E7.15966
G1 X79.400 Y49.948 E7.23340
G1 X79.400 Y50.293 E7.24047
G1 X76.570 Y47.463 E7.32253
G1 X76.218 Y47.456 E7.32975
G1 X79.400 Y50.638 E7.42202
G1 X79.400 Y50.983 E7.42909
G1 X75.868 Y47.451 E7.53150
G1 X75.523 Y47.451 E7.53857
G1 X79.400 Y51.327 E7.65098
G1 X79.400 Y51.672 E7.65804
G1 X75.179 Y47.451 E7.78045
G1 X74.834 Y47.451 E7.78752
G1 X79.400 Y52.017 E7.91991
G1 X79.400 Y52.362 E7.92698
G1 X74.489 Y47.451 E8.06938
G1 X74.144 Y47.451 E8.07644
G1 X79.241 Y52.547 E8.22423
G1 X78.896 Y52.547 E8.23129
G1 X73.800 Y47.451 E8.37907
G1 X73.455 Y47.451 E8.38614
G1 X78.551 Y52.547 E8.53392
G1 X78.207 Y52.547 E8.54099
G1 X73.110 Y47.451 E8.68877
G1 X72.765 Y47.451 E8.69584
G1 X77.862 Y52.547 E8.84361
G1 X77.517 Y52.547 E8.85068
G1 X72.421 Y47.451 E8.99846
G1 X72.076 Y47.451 E9.00553
G1 X77.172 Y52.547 E9.15331
G1 X76.827 Y52.547 E9.16037
G1 X71.731 Y47.451 E9.30815
G1 X71.389 Y47.453 E9.31517
G1 X76.483 Y52.547 E9.46288
G1 X76.138 Y52.547 E9.46995
G1 X71.048 Y47.458 E9.61753
G1 X70.726 Y47.480 E9.62416
G1 X75.793 Y52.547 E9.77109
G1 X75.448 Y52.547 E9.77816
G1 X70.384 Y47.483 E9.92500
G1 X70.021 Y47.464 E9.93247
G1 X75.152 Y52.596 E10.08126
G1 X74.871 Y52.659 E10.08717
G1 X69.686 Y47.474 E10.23751
G1 X69.353 Y47.486 E10.24435
G1 X74.436 Y52.569 E10.39173
G1 X74.156 Y52.633 E10.39762
G1 X68.981 Y47.459 E10.54767
G1 X68.631 Y47.453 E10.55485
G1 X74.155 Y52.978 E10.71503
G1 X74.155 Y53.322 E10.72209
G1 X68.284 Y47.451 E10.89233
G1 X67.939 Y47.451 E10.89940
G1 X74.154 Y53.666 E11.07962
G1 X74.154 Y54.011 E11.08668
G1 X67.594 Y47.451 E11.27688
G1 X67.249 Y47.451 E11.28395
G1 X74.153 Y54.355 E11.48414
G1 X74.153 Y54.699 E11.49120
G1 X66.905 Y47.451 E11.70138
G1 X66.560 Y47.451 E11.70844
G1 X74.153 Y55.044 E11.92860
G1 X74.152 Y55.388 E11.93566
G1 X66.215 Y47.451 E12.16580
G1 X65.870 Y47.451 E12.17287
G1 X74.152 Y55.732 E12.41300
G1 X74.151 Y56.077 E12.42006
G1 X65.526 Y47.451 E12.67017
G1 X65.181 Y47.451 E12.67724
G1 X74.030 Y56.300 E12.93382
G1 X73.685 Y56.300 E12.94089
G1 X64.836 Y47.451 E13.19748
G1 X64.491 Y47.451 E13.20455
G1 X73.340 Y56.300 E13.46113
G1 X72.996 Y56.300 E13.46820
G1 X64.147 Y47.451 E13.72479
G1 X63.806 Y47.455 E13.73177
G1 X72.651 Y56.300 E13.98823
G1 X72.306 Y56.300 E13.99530
G1 X63.469 Y47.462 E14.25155
G1 F1200.000 E11.25155
G92 E0
G1 X62.808 Y43.700 F9000.000
G1 E3.00000 F1200.000
G1 X63.143 Y44.034 E3.00969 F3240.000
G1 X63.143 Y44.378 E3.01676
G1 X62.464 Y43.700 E3.03643
G1 X62.120 Y43.700 E3.04350
G1 X63.143 Y44.723 E3.07316
G1 X63.143 Y45.068 E3.08024
G1 X61.775 Y43.700 E3.11990
G1 X61.431 Y43.701 E3.12696
G1 X63.143 Y45.413 E3.17661
G1 X63.143 Y45.758 E3.18368
G1 X61.086 Y43.701 E3.24333
G1 X60.742 Y43.701 E3.25039
G1 X63.143 Y46.103 E3.32003
G1 X63.143 Y46.448 E3.32710
G1 X60.606 Y43.911 E3.40066
G1 X60.600 Y44.249 E3.40760
G1 X63.143 Y46.792 E3.48135
G1 X63.144 Y47.137 E3.48842
G1 X60.600 Y44.594 E3.56216
G1 X60.600 Y44.939 E3.56923
G1 X71.961 Y56.300 E3.89866
G1 X71.617 Y56.300 E3.90573
G1 X60.600 Y45.283 E4.22517
G1 X60.600 Y45.628 E4.23224
G1 X71.272 Y56.300 E4.54168
G1 X70.927 Y56.300 E4.54874
G1 X60.600 Y45.973 E4.84819
G1 X60.600 Y46.318 E4.85526
G1 X70.582 Y56.300 E5.14470
G1 X70.238 Y56.300 E5.15177
G1 X60.600 Y46.662 E5.43122
G1 X60.600 Y47.007 E5.43829
G1 X69.893 Y56.300 E5.70774
G1 F1200.000 E2.70774
G92 E0
G1 X66.101 Y56.300 F9000.000
G1 E3.00000 F1200.000
G1 X65.849 Y56.048 E3.00731 F3240.000
G1 X65.848 Y55.703 E3.01438
G1 X66.445 Y56.300 E3.03170
G1 X66.790 Y56.300 E3.03877
G1 X65.848 Y55.358 E3.06609
G1 X65.847 Y55.012 E3.07317
G1 X67.135 Y56.300 E3.11050
G1 X67.480 Y56.300 E3.11757
G1 X65.847 Y54.667 E3.16491
G1 X65.847 Y54.322 E3.17199
G1 X67.824 Y56.300 E3.22934
G1 X68.169 Y56.300 E3.23641
G1 X65.846 Y53.977 E3.30377
G1 X65.846 Y53.632 E3.31085
G1 X68.514 Y56.300 E3.38821
G1 X68.859 Y56.300 E3.39528
G1 X65.845 Y53.286 E3.48266
G1 X65.845 Y52.941 E3.48974
G1 X69.203 Y56.300 E3.58712
G1 X69.548 Y56.300 E3.59419
G1 X60.600 Y47.352 E3.85365
G1 X60.600 Y47.697 E3.86072
G1 X65.488 Y52.584 E4.00244
G1 X65.203 Y52.644 E4.00842
G1 X60.600 Y48.041 E4.14187
G1 X60.600 Y48.386 E4.14894
G1 X64.783 Y52.568 E4.27021
G1 X64.417 Y52.547 E4.27773
G1 X60.600 Y48.731 E4.38839
G1 X60.600 Y49.076 E4.39546
G1 X64.072 Y52.547 E4.49612
G1 X63.727 Y52.547 E4.50319
G1 X60.600 Y49.420 E4.59386
G1 X60.600 Y49.765 E4.60093
G1 X63.382 Y52.547 E4.68160
G1 X63.038 Y52.547 E4.68867
G1 X60.600 Y50.110 E4.75934
G1 X60.600 Y50.455 E4.76641
G1 X62.693 Y52.547 E4.82709
G1 X62.348 Y52.547 E4.83416
G1 X60.600 Y50.799 E4.88485
G1 X60.600 Y51.144 E4.89191
G1 X62.003 Y52.547 E4.93260
G1 X61.659 Y52.547 E4.93967
G1 X60.600 Y51.489 E4.97037
G1 X60.600 Y51.834 E4.97743
G1 X61.314 Y52.547 E4.99813
G1 X60.969 Y52.547 E5.00520
G1 X60.600 Y52.178 E5.01590
G1 X60.600 Y52.523 E5.02297
G1 X60.625 Y52.547 E5.02368
G1 F1200.000 E2.02368
G92 E0
G1 X53.564 Y52.480 F9000.000
G1 E3.00000 F1200.000
G1 X53.564 Y52.711 E3.00472 F3240.000
G1 X49.301 Y52.711 E3.09180
G1 X48.972 Y52.847 E3.09909
G1 X48.319 Y52.712 E3.11271
G1 X48.315 Y56.464 E3.18937
G1 X39.685 Y56.464 E3.36568
G1 X39.681 Y52.712 E3.44234
G1 X39.028 Y52.847 E3.45596
G1 X38.699 Y52.711 E3.46324
G1 X34.436 Y52.711 E3.55033
G1 X34.436 Y44.014 E3.72802
G1 X34.464 Y43.537 E3.73778
G1 X37.306 Y43.535 E3.79587
G1 X37.308 Y47.302 E3.87283
G1 X38.005 Y47.287 E3.88709
G1 X42.436 Y47.287 E3.97761
G1 X42.977 Y47.294 E3.98866
G1 X43.440 Y47.328 E3.99815
G1 X43.903 Y47.294 E4.00764
G1 X44.560 Y47.328 E4.02108
G1 X45.023 Y47.294 E4.03058
G1 X45.564 Y47.287 E4.04162
G1 X49.995 Y47.287 E4.13215
G1 X50.692 Y47.302 E4.14641
G1 X50.694 Y43.535 E4.22337
G1 X53.536 Y43.537 E4.28145
G1 X53.564 Y44.015 E4.29122
G1 X53.563 Y52.444 E4.46344
G1 F1200.000 E1.46344
G92 E0
G1 X53.803 Y48.070 F9000.000
G1 E3.00000 F1200.000
G1 X53.803 Y52.874 E3.09816 F3240.000
G1 X53.734 Y52.934 E3.10001
G1 X53.580 Y52.954 E3.10319
G1 X49.349 Y52.954 E3.18962
G1 X48.982 Y53.098 E3.19768
G1 X48.562 Y53.010 E3.20644
G1 X48.562 Y56.238 E3.27238
G1 X48.540 Y56.706 E3.28195
G1 X39.460 Y56.706 E3.46749
G1 X39.438 Y56.238 E3.47706
G1 X39.438 Y53.010 E3.54300
G1 X39.018 Y53.098 E3.55176
G1 X38.651 Y52.954 E3.55982
G1 X34.420 Y52.954 E3.64625
G1 X34.266 Y52.934 E3.64943
G1 X34.197 Y52.874 E3.65128
