; generated by Slic3r 1.0.0RC1 on 2014-01-05 at 11:26:15

; layer_height = 0.2
; perimeters = 3
; top_solid_layers = 10
; bottom_solid_layers = 4
; fill_density = 0.2
; perimeter_speed = 50
; infill_speed = 50
; travel_speed = 150
; nozzle_diameter = 0.4
; filament_diameter = 1.74
; extrusion_multiplier = 1
; perimeters extrusion width = 0.40mm
; infill extrusion width = 0.67mm
; solid infill extrusion width = 0.67mm
; top infill extrusion width = 0.67mm
; first layer extrusion width = 0.20mm

G21 ; set units to millimeters
M107
G28 X0 Y0; home X and Y
M104 S205 ; set hotend temp, no wait.
M116 ; waiting for both temperatures
G28 Z0; home Z
M92 X80; calibrate X
M92 Y80; calibrate Y
M92 Z2387.0719; calibrate Z
M92 E65.35; calibrate E for direct drive
G90 ; use absolute coordinates
G92 E0
M82 ; use absolute distances for extrusion
G1 F1200.000 E-3.00000
G92 E0
G1 Z0.200 F9000.000
G1 X28.033 Y14.054 F9000.000
G1 E3.00000 F1200.000
G1 X28.163 Y13.824 E3.00540 F1800.000
G1 X28.853 Y12.834 E3.03005
G1 X30.033 Y11.684 E3.06372
G1 X31.453 Y10.854 E3.09732
G1 X31.663 Y10.764 E3.10199
G1 X32.963 Y10.354 E3.12984
G1 X34.313 Y10.214 E3.15757
G1 X105.673 Y10.214 E4.61558
G1 X107.023 Y10.354 E4.64331
G1 X108.323 Y10.764 E4.67117
G1 X108.533 Y10.854 E4.67583
G1 X109.803 Y11.564 E4.70556
G1 X110.883 Y12.534 E4.73522
G1 X110.973 Y12.634 E4.73797
G1 X111.503 Y13.294 E4.75527
G1 X112.063 Y14.254 E4.77797
G1 X112.493 Y15.274 E4.80059
G1 X112.743 Y16.354 E4.82324
G1 X112.793 Y16.684 E4.83006
G1 X112.873 Y17.694 E4.85076
G1 X112.873 Y78.864 E6.10057
G1 X112.823 Y79.684 E6.11735
G1 X112.673 Y80.494 E6.13419
G1 X112.633 Y80.654 E6.13756
G1 X112.253 Y81.744 E6.16114
G1 X111.703 Y82.754 E6.18464
G1 X111.023 Y83.644 E6.20752
G1 X110.283 Y84.334 E6.22820
G1 X109.933 Y84.614 E6.23735
G1 X104.893 Y88.414 E6.36632
G1 X103.653 Y89.154 E6.39582
G1 X102.283 Y89.614 E6.42535
G1 X100.843 Y89.774 E6.45495
G1 X39.153 Y89.774 E7.71539
G1 X37.713 Y89.614 E7.74499
G1 X36.343 Y89.154 E7.77452
G1 X35.103 Y88.414 E7.80402
G1 X29.853 Y84.464 E7.93826
G1 X28.853 Y83.514 E7.96644
G1 X28.013 Y82.294 E7.99670
G1 X27.633 Y81.494 E8.01480
G1 X27.363 Y80.654 E8.03283
G1 X27.213 Y79.924 E8.04805
G1 X27.143 Y79.344 E8.05999
G1 X27.113 Y78.724 E8.07267
G1 X27.123 Y17.684 E9.31983
G1 X27.173 Y16.884 E9.33620
G1 X27.213 Y16.554 E9.34300
G1 X27.503 Y15.264 E9.37001
G1 X28.018 Y14.087 E9.39626
G1 X28.243 Y14.174 F9000.000
G1 X28.373 Y13.944 E9.40165 F1800.000
G1 X29.043 Y12.984 E9.42557
G1 X30.173 Y11.874 E9.45794
G1 X31.553 Y11.074 E9.49053
G1 X31.763 Y10.984 E9.49520
G1 X33.013 Y10.594 E9.52195
G1 X34.313 Y10.454 E9.54866
G1 X105.673 Y10.454 E11.00667
G1 X106.973 Y10.594 E11.03339
G1 X108.223 Y10.984 E11.06014
G1 X108.433 Y11.074 E11.06481
G1 X109.663 Y11.764 E11.09363
G1 X110.703 Y12.694 E11.12213
G1 X110.793 Y12.794 E11.12488
G1 X111.303 Y13.434 E11.14160
G1 X111.843 Y14.364 E11.16357
G1 X112.263 Y15.354 E11.18555
G1 X112.503 Y16.394 E11.20735
G1 X112.553 Y16.724 E11.21417
G1 X112.633 Y17.694 E11.23406
G1 X112.633 Y78.864 E12.48387
G1 X112.583 Y79.654 E12.50004
G1 X112.433 Y80.434 E12.51627
G1 X112.033 Y81.644 E12.54231
G1 X111.503 Y82.624 E12.56507
G1 X110.843 Y83.474 E12.58706
G1 X110.133 Y84.144 E12.60701
G1 X109.783 Y84.424 E12.61616
G1 X104.743 Y88.224 E12.74513
G1 X103.553 Y88.934 E12.77344
G1 X102.233 Y89.384 E12.80194
G1 X100.843 Y89.534 E12.83050
G1 X39.153 Y89.534 E14.09094
G1 X37.763 Y89.384 E14.11950
G1 X36.443 Y88.934 E14.14800
G1 X35.253 Y88.224 E14.17631
G1 X30.003 Y84.264 E14.31067
G1 X29.033 Y83.354 E14.33784
G1 X28.223 Y82.174 E14.36709
G1 X27.863 Y81.404 E14.38445
G1 X27.603 Y80.594 E14.40183
G1 X27.453 Y79.884 E14.41666
G1 X27.383 Y79.324 E14.42819
G1 X27.353 Y78.724 E14.44047
G1 X27.363 Y17.684 E15.68762
G1 X27.413 Y16.914 E15.70339
G1 X27.453 Y16.584 E15.71018
G1 X27.733 Y15.334 E15.73635
G1 X28.228 Y14.207 E15.76150
G1 X28.463 Y14.294 F9000.000
G1 X28.593 Y14.064 E15.76689 F1800.000
G1 X29.233 Y13.134 E15.78996
G1 X30.323 Y12.064 E15.82117
G1 X31.643 Y11.294 E15.85239
G1 X31.853 Y11.204 E15.85706
G1 X33.053 Y10.824 E15.88278
G1 X34.313 Y10.704 E15.90864
G1 X105.673 Y10.704 E17.36665
G1 X106.933 Y10.824 E17.39251
G1 X108.133 Y11.204 E17.41823
G1 X108.343 Y11.294 E17.42289
G1 X109.513 Y11.954 E17.45034
G1 X110.523 Y12.854 E17.47798
G1 X110.613 Y12.954 E17.48073
G1 X111.103 Y13.574 E17.49688
G1 X111.623 Y14.474 E17.51811
G1 X112.023 Y15.424 E17.53917
G1 X112.263 Y16.424 E17.56019
G1 X112.313 Y16.754 E17.56700
G1 X112.383 Y17.694 E17.58626
G1 X112.383 Y78.864 E18.83607
G1 X112.343 Y79.624 E18.85162
G1 X112.203 Y80.374 E18.86721
G1 X111.813 Y81.554 E18.89260
G1 X111.293 Y82.484 E18.91437
G1 X110.663 Y83.314 E18.93566
G1 X109.983 Y83.964 E18.95488
G1 X109.823 Y84.094 E18.95910
G1 X104.603 Y88.024 E19.09260
G1 X103.453 Y88.714 E19.12000
G1 X102.173 Y89.144 E19.14759
G1 X100.843 Y89.284 E19.17491
G1 X39.153 Y89.284 E20.43535
G1 X37.823 Y89.144 E20.46267
G1 X36.543 Y88.714 E20.49026
G1 X35.393 Y88.024 E20.51766
G1 X30.153 Y84.074 E20.65174
G1 X29.223 Y83.194 E20.67789
G1 X28.433 Y82.054 E20.70623
G1 X28.083 Y81.314 E20.72296
G1 X27.833 Y80.534 E20.73969
G1 X27.683 Y79.844 E20.75412
G1 X27.613 Y79.164 E20.76809
G1 X27.613 Y17.684 E22.02423
G1 X27.653 Y16.944 E22.03937
G1 X27.693 Y16.614 E22.04617
G1 X27.963 Y15.414 E22.07130
G1 X28.448 Y14.327 E22.09561
G1 F1200.000 E19.09561
G92 E0
G1 X60.464 Y43.537 F9000.000
G1 E3.00000 F1200.000
G1 X63.306 Y43.535 E3.05808 F1800.000
G1 X63.308 Y47.302 E3.13504
G1 X64.005 Y47.287 E3.14931
G1 X68.436 Y47.287 E3.23983
G1 X68.977 Y47.294 E3.25088
G1 X69.440 Y47.328 E3.26037
G1 X69.903 Y47.294 E3.26986
G1 X70.560 Y47.328 E3.28330
G1 X71.023 Y47.294 E3.29279
G1 X71.564 Y47.287 E3.30384
G1 X75.995 Y47.287 E3.39436
G1 X76.692 Y47.302 E3.40862
G1 X76.694 Y43.535 E3.48558
G1 X79.536 Y43.537 E3.54367
G1 X79.564 Y44.015 E3.55343
G1 X79.564 Y52.711 E3.73112
G1 X75.301 Y52.711 E3.81821
G1 X74.972 Y52.847 E3.82549
G1 X74.319 Y52.712 E3.83911
G1 X74.315 Y56.464 E3.91577
G1 X65.685 Y56.464 E4.09209
G1 X65.681 Y52.712 E4.16875
G1 X65.028 Y52.847 E4.18237
G1 X64.698 Y52.711 E4.18965
G1 X60.436 Y52.711 E4.27674
G1 X60.436 Y44.014 E4.45443
G1 X60.460 Y43.574 E4.46345
G1 F1200.000 E1.46345
G92 E0
G1 X79.687 Y43.325 F9000.000
G1 E3.00000 F1200.000
G1 X79.776 Y43.496 E3.00395 F1800.000
G1 X79.804 Y43.735 E3.00886
G1 X79.803 Y52.874 E3.19559
G1 X79.734 Y52.934 E3.19745
G1 X79.580 Y52.954 E3.20063
G1 X75.349 Y52.954 E3.28706
G1 X74.982 Y53.098 E3.29512
G1 X74.562 Y53.010 E3.30388
G1 X74.562 Y56.238 E3.36982
G1 X74.540 Y56.706 E3.37939
G1 X65.460 Y56.706 E3.56493
G1 X65.438 Y56.238 E3.57449
G1 X65.438 Y53.010 E3.64044
G1 X65.018 Y53.098 E3.64919
G1 X64.651 Y52.954 E3.65725
G1 X60.420 Y52.954 E3.74368
G1 X60.266 Y52.934 E3.74686
G1 X60.197 Y52.874 E3.74872
G1 X60.196 Y43.735 E3.93545
G1 X60.224 Y43.496 E3.94036
G1 X60.313 Y43.325 E3.94431
G1 X60.391 Y43.294 E3.94601
G1 X63.488 Y43.294 E4.00929
G1 X63.541 Y43.487 E4.01338
G1 X63.559 Y43.712 E4.01800
G1 X63.553 Y47.054 E4.08628
G1 X68.437 Y47.044 E4.18606
G1 X68.986 Y47.051 E4.19729
G1 X69.440 Y47.084 E4.20658
G1 X70.000 Y47.050 E4.21805
G1 X70.560 Y47.084 E4.22951
G1 X71.014 Y47.051 E4.23880
G1 X71.563 Y47.044 E4.25003
G1 X76.447 Y47.054 E4.34982
G1 X76.441 Y43.712 E4.41809
G1 X76.459 Y43.487 E4.42271
G1 X76.512 Y43.294 E4.42680
G1 X79.609 Y43.294 E4.49008
G1 X79.653 Y43.311 E4.49103
G1 X79.716 Y43.075 F9000.000
G1 X79.828 Y43.119 E4.49348 F1080.000
G1 X79.893 Y43.195 E4.49553
G1 X80.005 Y43.408 E4.50044
G1 X80.046 Y43.709 E4.50664
G1 X80.050 Y52.729 E4.69094
G1 X80.046 Y52.862 E4.69365
G1 X80.012 Y52.986 E4.69629
G1 X79.972 Y53.049 E4.69781
G1 X79.841 Y53.162 E4.70134
G1 X79.668 Y53.193 E4.70493
G1 X75.397 Y53.197 E4.79219
G1 X75.004 Y53.342 E4.80075
G1 X74.805 Y53.309 E4.80487
G1 X74.804 Y56.352 E4.86704
G1 X74.760 Y56.946 E4.87923
G1 X65.240 Y56.946 E5.07372
G1 X65.196 Y56.352 E5.08591
G1 X65.195 Y53.309 E5.14808
G1 X64.996 Y53.342 E5.15220
G1 X64.603 Y53.197 E5.16076
G1 X60.332 Y53.193 E5.24802
G1 X60.159 Y53.162 E5.25161
G1 X60.028 Y53.049 E5.25515
G1 X59.988 Y52.986 E5.25667
G1 X59.954 Y52.862 E5.25930
G1 X59.950 Y52.729 E5.26201
G1 X59.954 Y43.709 E5.44631
G1 X59.995 Y43.408 E5.45252
G1 X60.107 Y43.195 E5.45743
G1 X60.172 Y43.119 E5.45947
G1 X60.339 Y43.051 E5.46316
G1 X63.566 Y43.051 E5.52908
G1 X63.625 Y43.083 E5.53045
G1 X63.710 Y43.188 E5.53322
G1 X63.781 Y43.444 E5.53865
G1 X63.802 Y43.702 E5.54395
G1 X63.799 Y46.805 E5.60735
G1 X68.438 Y46.801 E5.70214
G1 X68.996 Y46.808 E5.71354
G1 X69.440 Y46.841 E5.72264
G1 X70.000 Y46.807 E5.73410
G1 X70.560 Y46.841 E5.74557
G1 X71.004 Y46.808 E5.75466
G1 X71.562 Y46.801 E5.76607
G1 X76.201 Y46.805 E5.86085
G1 X76.198 Y43.702 E5.92425
G1 X76.219 Y43.444 E5.92955
G1 X76.290 Y43.188 E5.93499
G1 X76.375 Y43.083 E5.93775
G1 X76.434 Y43.051 E5.93912
G1 X79.683 Y43.061 E6.00550
G1 X79.748 Y43.191 F9000.000
G1 X79.358 Y43.701 F9000.000
G1 X79.383 Y43.726 E6.00623 F2160.000
G1 X79.400 Y44.088 E6.01365
G1 X79.013 Y43.701 E6.02486
G1 X78.668 Y43.701 E6.03194
G1 X79.400 Y44.433 E6.05316
G1 X79.400 Y44.777 E6.06023
G1 X78.323 Y43.700 E6.09145
G1 X77.978 Y43.700 E6.09852
G1 X79.400 Y45.122 E6.13975
G1 X79.400 Y45.467 E6.14682
G1 X77.633 Y43.700 E6.19806
G1 X77.288 Y43.700 E6.20513
G1 X79.400 Y45.812 E6.26637
G1 X79.400 Y46.156 E6.27344
G1 X76.943 Y43.699 E6.34468
G1 X76.848 Y43.950 E6.35016
G1 X79.400 Y46.501 E6.42414
G1 X79.400 Y46.846 E6.43121
G1 X76.849 Y44.295 E6.50517
G1 X76.850 Y44.641 E6.51225
G1 X79.400 Y47.191 E6.58618
G1 X79.400 Y47.535 E6.59325
G1 X76.851 Y44.986 E6.66716
G1 X76.852 Y45.332 E6.67425
G1 X79.400 Y47.880 E6.74813
G1 X79.400 Y48.225 E6.75520
G1 X76.853 Y45.677 E6.82906
G1 X76.853 Y46.023 E6.83615
G1 X79.400 Y48.569 E6.90998
G1 X79.400 Y48.914 E6.91705
G1 X76.854 Y46.369 E6.99087
G1 X76.855 Y46.714 E6.99795
G1 X79.400 Y49.259 E7.07174
G1 X79.400 Y49.604 E7.07881
G1 X76.856 Y47.060 E7.15257
G1 X76.857 Y47.405 E7.15966
G1 X79.400 Y49.948 E7.23340
G1 X79.400 Y50.293 E7.24047
G1 X76.570 Y47.463 E7.32253
G1 X76.218 Y47.456 E7.32975
G1 X79.400 Y50.638 E7.42203
G1 X79.400 Y50.983 E7.42910
G1 X75.868 Y47.451 E7.53150
G1 X75.523 Y47.451 E7.53857
G1 X79.400 Y51.327 E7.65098
G1 X79.400 Y51.672 E7.65805
G1 X75.179 Y47.451 E7.78045
G1 X74.834 Y47.451 E7.78752
G1 X79.400 Y52.017 E7.91992
G1 X79.400 Y52.362 E7.92698
G1 X74.489 Y47.451 E8.06938
G1 X74.144 Y47.451 E8.07645
G1 X79.241 Y52.547 E8.22423
G1 X78.896 Y52.547 E8.23130
G1 X73.800 Y47.451 E8.37908
G1 X73.455 Y47.451 E8.38614
G1 X78.551 Y52.547 E8.53392
G1 X78.207 Y52.547 E8.54099
G1 X73.110 Y47.451 E8.68877
G1 X72.765 Y47.451 E8.69584
G1 X77.862 Y52.547 E8.84362
G1 X77.517 Y52.547 E8.85069
G1 X72.421 Y47.451 E8.99846
G1 X72.076 Y47.451 E9.00553
G1 X77.172 Y52.547 E9.15331
G1 X76.827 Y52.547 E9.16038
G1 X71.731 Y47.451 E9.30815
G1 X71.389 Y47.453 E9.31517
G1 X76.483 Y52.547 E9.46288
G1 X76.138 Y52.547 E9.46995
G1 X71.048 Y47.458 E9.61754
G1 X70.726 Y47.480 E9.62416
G1 X75.793 Y52.547 E9.77109
G1 X75.448 Y52.547 E9.77816
G1 X70.384 Y47.483 E9.92501
G1 X70.021 Y47.464 E9.93247
G1 X75.152 Y52.596 E10.08126
G1 X74.871 Y52.659 E10.08718
G1 X69.686 Y47.474 E10.23752
G1 X69.353 Y47.486 E10.24435
G1 X74.435 Y52.569 E10.39173
G1 X74.156 Y52.633 E10.39762
G1 X68.981 Y47.459 E10.54767
G1 X68.631 Y47.453 E10.55485
G1 X74.155 Y52.978 E10.71503
G1 X74.155 Y53.322 E10.72209
G1 X68.284 Y47.451 E10.89233
G1 X67.939 Y47.451 E10.89940
G1 X74.154 Y53.666 E11.07962
G1 X74.154 Y54.011 E11.08668
G1 X67.594 Y47.451 E11.27688
G1 X67.249 Y47.451 E11.28395
G1 X74.153 Y54.355 E11.48414
G1 X74.153 Y54.699 E11.49120
G1 X66.905 Y47.451 E11.70138
G1 X66.560 Y47.451 E11.70844
G1 X74.153 Y55.044 E11.92860
G1 X74.152 Y55.388 E11.93566
G1 X66.215 Y47.451 E12.16580
G1 X65.870 Y47.451 E12.17287
G1 X74.152 Y55.732 E12.41300
G1 X74.151 Y56.077 E12.42006
G1 X65.526 Y47.451 E12.67017
G1 X65.181 Y47.451 E12.67724
G1 X74.030 Y56.300 E12.93382
G1 X73.685 Y56.300 E12.94089
G1 X64.836 Y47.451 E13.19748
G1 X64.491 Y47.451 E13.20455
G1 X73.340 Y56.300 E13.46113
G1 X72.996 Y56.300 E13.46820
G1 X64.147 Y47.451 E13.72479
G1 X63.806 Y47.455 E13.73177
G1 X72.651 Y56.300 E13.98823
G1 X72.306 Y56.300 E13.99530
G1 X63.469 Y47.462 E14.25155
G1 F1200.000 E11.25155
G92 E0
G1 X62.808 Y43.700 F9000.000
G1 E3.00000 F1200.000
G1 X63.143 Y44.034 E3.00969 F2160.000
G1 X63.143 Y44.378 E3.01676
G1 X62.464 Y43.700 E3.03643
G1 X62.120 Y43.700 E3.04350
G1 X63.143 Y44.723 E3.07316
G1 X63.143 Y45.068 E3.08024
G1 X61.775 Y43.700 E3.11990
G1 X61.431 Y43.701 E3.12696
G1 X63.143 Y45.413 E3.17661
G1 X63.143 Y45.758 E3.18368
G1 X61.086 Y43.701 E3.24333
G1 X60.742 Y43.701 E3.25039
G1 X63.143 Y46.103 E3.32003
G1 X63.143 Y46.448 E3.32710
G1 X60.606 Y43.911 E3.40066
G1 X60.600 Y44.249 E3.40760
G1 X63.143 Y46.792 E3.48135
G1 X63.144 Y47.137 E3.48842
G1 X60.600 Y44.594 E3.56216
G1 X60.600 Y44.939 E3.56923
G1 X71.961 Y56.300 E3.89866
G1 X71.617 Y56.300 E3.90573
G1 X60.600 Y45.283 E4.22517
G1 X60.600 Y45.628 E4.23224
G1 X71.272 Y56.300 E4.54168
G1 X70.927 Y56.300 E4.54874
G1 X60.600 Y45.973 E4.84819
G1 X60.600 Y46.318 E4.85526
G1 X70.582 Y56.300 E5.14470
G1 X70.238 Y56.300 E5.15177
G1 X60.600 Y46.662 E5.43122
G1 X60.600 Y47.007 E5.43829
G1 X69.893 Y56.300 E5.70774
G1 F1200.000 E2.70774
G92 E0
G1 X66.101 Y56.300 F9000.000
G1 E3.00000 F1200.000
G1 X65.849 Y56.048 E3.00731 F2160.000
G1 X65.848 Y55.703 E3.01438
G1 X66.445 Y56.300 E3.03170
G1 X66.790 Y56.300 E3.03877
G1 X65.848 Y55.358 E3.06609
G1 X65.847 Y55.012 E3.07317
G1 X67.135 Y56.300 E3.11050
G1 X67.480 Y56.300 E3.11757
G1 X65.847 Y54.667 E3.16491
G1 X65.847 Y54.322 E3.17199
G1 X67.824 Y56.300 E3.22934
G1 X68.169 Y56.300 E3.23641
G1 X65.846 Y53.977 E3.30377
G1 X65.846 Y53.632 E3.31085
G1 X68.514 Y56.300 E3.38821
G1 X68.859 Y56.300 E3.39528
G1 X65.845 Y53.286 E3.48266
G1 X65.845 Y52.941 E3.48974
G1 X69.203 Y56.300 E3.58712
G1 X69.548 Y56.300 E3.59419
G1 X60.600 Y47.352 E3.85365
G1 X60.600 Y47.697 E3.86072
G1 X65.488 Y52.584 E4.00244
G1 X65.203 Y52.644 E4.00842
G1 X60.600 Y48.041 E4.14187
G1 X60.600 Y48.386 E4.14894
G1 X64.783 Y52.568 E4.27021
G1 X64.417 Y52.547 E4.27773
G1 X60.600 Y48.731 E4.38839
G1 X60.600 Y49.076 E4.39546
G1 X64.072 Y52.547 E4.49612
G1 X63.727 Y52.547 E4.50319
G1 X60.600 Y49.420 E4.59386
G1 X60.600 Y49.765 E4.60093
G1 X63.382 Y52.547 E4.68160
G1 X63.038 Y52.547 E4.68867
G1 X60.600 Y50.110 E4.75934
G1 X60.600 Y50.455 E4.76641
G1 X62.693 Y52.547 E4.82709
G1 X62.348 Y52.547 E4.83416
G1 X60.600 Y50.799 E4.88484
G1 X60.600 Y51.144 E4.89191
G1 X62.003 Y52.547 E4.93260
G1 X61.659 Y52.547 E4.93967
G1 X60.600 Y51.489 E4.97036
G1 X60.600 Y51.834 E4.97743
G1 X61.314 Y52.547 E4.99813
G1 X60.969 Y52.547 E5.00520
G1 X60.600 Y52.178 E5.01590
G1 X60.600 Y52.523 E5.02297
G1 X60.625 Y52.547 E5.02368
G1 F1200.000 E2.02368
G92 E0
G1 X65.685 Y30.464 F9000.000
G1 E3.00000 F1200.000
G1 X65.681 Y26.712 E3.07666 F1800.000
G1 X65.028 Y26.847 E3.09028
G1 X64.698 Y26.711 E3.09757
G1 X60.436 Y26.711 E3.18465
G1 X60.436 Y18.014 E3.36234
G1 X60.464 Y17.537 E3.37211
G1 X63.306 Y17.535 E3.43019
G1 X63.308 Y21.302 E3.50715
G1 X64.005 Y21.287 E3.52141
G1 X68.436 Y21.287 E3.61194
G1 X68.977 Y21.294 E3.62298
G1 X69.440 Y21.328 E3.63247
G1 X69.903 Y21.294 E3.64196
G1 X70.560 Y21.328 E3.65541
G1 X71.023 Y21.294 E3.66490
G1 X71.564 Y21.287 E3.67594
G1 X75.995 Y21.287 E3.76647
G1 X76.692 Y21.302 E3.78073
G1 X76.694 Y17.535 E3.85769
G1 X79.536 Y17.537 E3.91577
G1 X79.564 Y18.015 E3.92554
G1 X79.564 Y26.711 E4.10323
G1 X75.301 Y26.711 E4.19031
G1 X74.972 Y26.847 E4.19759
G1 X74.319 Y26.712 E4.21122
G1 X74.315 Y30.464 E4.28788
G1 X65.722 Y30.464 E4.46345
G1 F1200.000 E1.46345
G92 E0
G1 X60.266 Y26.934 F9000.000
G1 E3.00000 F1200.000
G1 X60.197 Y26.874 E3.00186 F1800.000
G1 X60.193 Y26.726 E3.00489
G1 X60.193 Y18.013 E3.18291
G1 X60.196 Y17.735 E3.18859
G1 X60.224 Y17.496 E3.19350
G1 X60.313 Y17.325 E3.19745
G1 X60.391 Y17.294 E3.19915
G1 X63.488 Y17.294 E3.26243
G1 X63.541 Y17.487 E3.26652
G1 X63.559 Y17.712 E3.27114
G1 X63.553 Y21.054 E3.33942
G1 X68.437 Y21.044 E3.43920
G1 X68.986 Y21.051 E3.45043
G1 X69.440 Y21.084 E3.45972
